PierreExeter/rl_reach/code/res_episode.csv
episode,timestep,action1,action2,action3,action4,action5,action6,action1_min,action2_min,action3_min,action4_min,action5_min,action6_min,action1_max,action2_max,action3_max,action4_max,action5_max,action6_max,pyb_action1,pyb_action2,pyb_action3,pyb_action4,pyb_action5,pyb_action6,pyb_action1_min,pyb_action2_min,pyb_action3_min,pyb_action4_min,pyb_action5_min,pyb_action6_min,pyb_action1_max,pyb_action2_max,pyb_action3_max,pyb_action4_max,pyb_action5_max,pyb_action6_max,joint1_pos,joint2_pos,joint3_pos,joint4_pos,joint5_pos,joint6_pos,desired_joint1_pos,desired_joint2_pos,desired_joint3_pos,desired_joint4_pos,desired_joint5_pos,desired_joint6_pos,joint1_vel,joint2_vel,joint3_vel,joint4_vel,joint5_vel,joint6_vel,joint1_tor,joint2_tor,joint3_tor,joint4_tor,joint5_tor,joint6_tor,joint1_min,joint2_min,joint3_min,joint4_min,joint5_min,joint6_min,joint1_max,joint2_max,joint3_max,joint4_max,joint5_max,joint6_max,reward,return,distance,orientation,goal_x,goal_y,goal_z,tip_x,tip_y,tip_z,goal_yaw,goal_pitch,goal_roll,tip_yaw,tip_pitch,tip_roll,done,term1,term2,vel_dist,vel_pos,collision,acc_dist,acc_pos
1.0,0.0,2.0,0.0,0.0,0.0,0.0,0.0,-2.0,-2.0,-2.0,-2.0,-2.0,-2.0,2.0,2.0,2.0,2.0,2.0,2.0,0.15000000000000002,0.0,0.0,0.0,0.0,0.037500000000000006,-0.15000000000000002,-0.07500000000000001,-0.07500000000000001,-0.07500000000000001,-0.15000000000000002,0.0,0.15000000000000002,0.07500000000000001,0.07500000000000001,0.07500000000000001,0.15000000000000002,0.07500000000000001,0.0767663113627257,-1.2931454564917448,1.0109715561585062,-1.3537631385952802,-0.07158576875600929,0.0,0.16533980787885644,-1.2931458041875956,1.0109710760673565,-1.3537670644267163,-0.07158577010132992,0.0,2.36196021905235,-9.27615953669192e-06,2.3889748424599233e-05,0.00019178308416556433,-4.2185178359202546e-08,0.0,-0.15679383856296775,0.08573633339401865,-0.6457827451636982,0.02474291377847204,-0.009441282439884633,0.0,-2.6,-1.5,-1.5,-1.7,-2.6,0.0,2.6,0.8,1.5,1.7,2.6,0.0,-0.17004101337880326,-0.17004101337880326,0.17004101337880326,1.763986316663468,0.14,0.0,0.26,0.005577900055560637,0.0004290379267261027,0.36413674281383557,-0.7853981633974483,0.0,-1.5707963267948966,0.004665733688637353,-0.06497364040650613,0.005028914134255798,0.0,0.0,0.0,-0.003005739900141524,0.08245700904517086,0.0,-0.7213775760339658,19.789682170841008
1.0,1.0,2.0,0.0,0.0,0.0,0.0,0.0,-2.0,-2.0,-2.0,-2.0,-2.0,-2.0,2.0,2.0,2.0,2.0,2.0,2.0,0.15000000000000002,0.0,0.0,0.0,0.0,0.037500000000000006,-0.15000000000000002,-0.07500000000000001,-0.07500000000000001,-0.07500000000000001,-0.15000000000000002,0.0,0.15000000000000002,0.07500000000000001,0.07500000000000001,0.07500000000000001,0.15000000000000002,0.07500000000000001,0.13819281486071905,-1.2931450850474426,1.0109720363075863,-1.3537592090196409,-0.07158576735049241,0.0,0.22676631136272574,-1.2931454564917448,1.0109715561585062,-1.3537631385952802,-0.07158576875600929,0.0,2.3619602218450013,-9.90949389489959e-06,2.38886470136368e-05,0.0001916924592870739,-4.672713270655049e-08,0.0,-0.15679397283610083,0.0857341450070245,-0.6457848099892514,0.024740986482933932,-0.00944128549721116,0.0,-2.6,-1.5,-1.5,-1.7,-2.6,0.0,2.6,0.8,1.5,1.7,2.6,0.0,-0.17007085693526813,-0.3401118703140714,0.17007085693526813,1.8190697417114552,0.14,0.0,0.26,0.005541648151703736,0.000770728480722156,0.3641367081030758,-0.7853981633974483,0.0,-1.5707963267948966,0.00466539017815912,-0.06496887154131828,0.06645544133739392,0.0,0.0,0.0,-0.0071624535515701915,0.08246598243072885,0.0,-0.9976112763428802,0.002153612533916105
1.0,2.0,2.0,0.0,0.0,0.0,0.0,0.0,-2.0,-2.0,-2.0,-2.0,-2.0,-2.0,2.0,2.0,2.0,2.0,2.0,2.0,0.15000000000000002,0.0,0.0,0.0,0.0,0.037500000000000006,-0.15000000000000002,-0.07500000000000001,-0.07500000000000001,-0.07500000000000001,-0.15000000000000002,0.0,0.15000000000000002,0.07500000000000001,0.07500000000000001,0.07500000000000001,0.15000000000000002,0.07500000000000001,0.1996193183800334,-1.2931447136081646,1.0109725164646763,-1.3537552793182555,-0.07158576595859834,0.0,0.28819281486071907,-1.2931450850474426,1.0109720363075863,-1.3537592090196409,-0.07158576735049241,0.0,2.3619602224725136,-9.909375590810843e-06,2.388901463246107e-05,0.00019169803275771724,-4.7447209451201115e-08,0.0,-0.15679410850274858,0.08573149556167856,-0.6457871399026403,0.024738880315285167,-0.00944128849223468,0.0,-2.6,-1.5,-1.5,-1.7,-2.6,0.0,2.6,0.8,1.5,1.7,2.6,0.0,-0.17011790714566374,-0.5102297774597352,0.17011790714566374,1.874547455139922,0.14,0.0,0.26,0.0054844826593757195,0.0011095862082488059,0.36413667338959577,-0.7853981633974483,0.0,-1.5707963267948966,0.004665046659547209,-0.0649641025476576,0.1278819685471529,0.0,0.0,0.0,-0.011292050494946526,0.08247499841300365,0.0,-0.9911032664103203,0.0021638357459530244
1.0,3.0,2.0,0.0,0.0,0.0,0.0,0.0,-2.0,-2.0,-2.0,-2.0,-2.0,-2.0,2.0,2.0,2.0,2.0,2.0,2.0,0.15000000000000002,0.0,0.0,0.0,0.0,0.037500000000000006,-0.15000000000000002,-0.07500000000000001,-0.07500000000000001,-0.07500000000000001,-0.15000000000000002,0.0,0.15000000000000002,0.07500000000000001,0.07500000000000001,0.07500000000000001,0.15000000000000002,0.07500000000000001,0.2610458219075095,-1.293144342160761,1.0109729966298036,-1.353751349498527,-0.07158576457159062,0.0,0.34961931838003346,-1.2931447136081646,1.0109725164646763,-1.3537552793182555,-0.07158576595859834,0.0,2.3619602227233467,-9.909598128993169e-06,2.3889381459862857e-05,0.00019170328465752118,-4.7717209434184477e-08,0.0,-0.15679424431793856,0.08572884375248972,-0.6457894713463068,0.024736772982690777,-0.009441291465393575,0.0,-2.6,-1.5,-1.5,-1.7,-2.6,0.0,2.6,0.8,1.5,1.7,2.6,0.0,-0.17018197608989608,-0.6804117535496312,0.17018197608989608,1.9303854626589003,0.14,0.0,0.26,0.005406614663574482,0.0014443321559115905,0.36413663867326346,-0.7853981633974483,0.0,-1.5707963267948966,0.004664703131818379,-0.06495933341980516,0.189308495759155,0.0,0.0,0.0,-0.015376546615759601,0.08248401460909928,0.0,-0.980279068995138,0.0021638870629503426
1.0,4.0,2.0,0.0,0.0,0.0,0.0,0.0,-2.0,-2.0,-2.0,-2.0,-2.0,-2.0,2.0,2.0,2.0,2.0,2.0,2.0,0.15000000000000002,0.0,0.0,0.0,0.0,0.037500000000000006,-0.15000000000000002,-0.07500000000000001,-0.07500000000000001,-0.07500000000000001,-0.15000000000000002,0.0,0.15000000000000002,0.07500000000000001,0.07500000000000001,0.07500000000000001,0.15000000000000002,0.07500000000000001,0.3224723254383048,-1.293143970705175,1.0109734768029695,-1.3537474195638892,-0.07158576318626676,0.0,0.41104582190750955,-1.293144342160761,1.0109729966298036,-1.353751349498527,-0.07158576457159062,0.0,2.361960222835088,-9.909818548592408e-06,2.3889748364480656e-05,0.00019170843815681515,-4.7820782208239654e-08,0.0,-0.15679438021910075,0.08572619062463409,-0.6457918036427679,0.024734665001693138,-0.009441294427089412,0.0,-2.6,-1.5,-1.5,-1.7,-2.6,0.0,2.6,0.8,1.5,1.7,2.6,0.0,-0.1702628067353165,-0.8506745602849477,0.1702628067353165,1.9865533830796678,0.14,0.0,0.26,0.005308333392952863,0.0017737026021045197,0.364136603954052,-0.7853981633974483,0.0,-1.5707963267948966,0.004664359595006737,-0.06495456416114381,0.25073502297175115,0.0,0.0,0.0,-0.019399354900899723,0.08249303104323036,0.0,-0.9654739884336294,0.002163944191458933
1.0,5.0,2.0,0.0,0.0,0.0,0.0,0.0,-2.0,-2.0,-2.0,-2.0,-2.0,-2.0,2.0,2.0,2.0,2.0,2.0,2.0,0.15000000000000002,0.0,0.0,0.0,0.0,0.037500000000000006,-0.15000000000000002,-0.07500000000000001,-0.07500000000000001,-0.07500000000000001,-0.15000000000000002,0.0,0.15000000000000002,0.07500000000000001,0.07500000000000001,0.07500000000000001,0.15000000000000002,0.07500000000000001,0.38389882897063404,-1.293143599241384,1.010973956984176,-1.3537434895155962,-0.0715857618014454,0.0,0.4724723254383048,-1.293143970705175,1.0109734768029695,-1.3537474195638892,-0.07158576318626676,0.0,2.361960222895559,-9.910038246407904e-06,2.389011533016072e-05,0.00019171355578989635,-4.7863015066726064e-08,0.0,-0.15679451617541598,0.08572353678296696,-0.6457941364087418,0.02473255665851603,-0.009441297382517352,0.0,-2.6,-1.5,-1.5,-1.7,-2.6,0.0,2.6,0.8,1.5,1.7,2.6,0.0,-0.1703600742012748,-1.0210346344862224,0.1703600742012748,2.043024006151431,0.14,0.0,0.26,0.005190005148691754,0.0020964538280197073,0.36413656923195176,-0.7853981633974483,0.0,-1.5707963267948966,0.004664016049123767,-0.06494979477290447,0.31216155018433417,0.0,0.0,0.0,-0.02334419182999481,0.08250204771578173,0.0,-0.9467608629828206,0.0021640014123303075
1.0,6.0,2.0,0.0,0.0,0.0,0.0,0.0,-2.0,-2.0,-2.0,-2.0,-2.0,-2.0,2.0,2.0,2.0,2.0,2.0,2.0,0.15000000000000002,0.0,0.0,0.0,0.0,0.037500000000000006,-0.15000000000000002,-0.07500000000000001,-0.07500000000000001,-0.07500000000000001,-0.15000000000000002,0.0,0.15000000000000002,0.07500000000000001,0.07500000000000001,0.07500000000000001,0.15000000000000002,0.07500000000000001,0.4453253325038393,-1.2931432277693802,1.0109744371734248,-1.3537395593541026,-0.07158576041669054,0.0,0.5338988289706341,-1.293143599241384,1.010973956984176,-1.3537434895155962,-0.0715857618014454,0.0,2.361960222937133,-9.910257661199795e-06,2.3890482338806418e-05,0.0001917186604765142,-4.788264445891328e-08,0.0,-0.15679465217107277,0.08572088252567728,-0.6457964694553634,0.024730448094185994,-0.009441300334393521,0.0,-2.6,-1.5,-1.5,-1.7,-2.6,0.0,2.6,0.8,1.5,1.7,2.6,0.0,-0.17047338735680098,-1.1915080218430234,0.17047338735680098,2.099772909650307,0.14,0.0,0.26,0.005052071939316715,0.0024113668139650914,0.36413653450695904,-0.7853981633974483,0.0,-1.5707963267948966,0.004663672494172994,-0.06494502525553376,0.37358807739668054,0.0,0.0,0.0,-0.02719515732628297,0.08251106462693601,0.0,-0.9242317191091587,0.0021640586770266257
1.0,7.0,2.0,0.0,0.0,0.0,0.0,0.0,-2.0,-2.0,-2.0,-2.0,-2.0,-2.0,2.0,2.0,2.0,2.0,2.0,2.0,0.15000000000000002,0.0,0.0,0.0,0.0,0.037500000000000006,-0.15000000000000002,-0.07500000000000001,-0.07500000000000001,-0.07500000000000001,-0.15000000000000002,0.0,0.15000000000000002,0.07500000000000001,0.07500000000000001,0.07500000000000001,0.15000000000000002,0.07500000000000001,0.5067518360376779,-1.2931428562891607,1.0109749173707168,-1.3537356290795703,-0.07158575903184122,0.0,0.5953253325038393,-1.2931432277693802,1.0109744371734248,-1.3537395593541026,-0.07158576041669054,0.0,2.361960222971744,-9.910476966051851e-06,2.3890849380259205e-05,0.00019172376058849971,-4.789394668835642e-08,0.0,-0.15679478819761491,0.08571822800725938,-0.6457988026848063,0.02472833938172246,-0.009441303284192185,0.0,-2.6,-1.5,-1.5,-1.7,-2.6,0.0,2.6,0.8,1.5,1.7,2.6,0.0,-0.1706022907358957,-1.3621103125789191,0.1706022907358957,2.156778127438171,0.14,0.0,0.26,0.004895049829707264,0.002717251843530363,0.3641364997790718,-0.7853981633974483,0.0,-1.5707963267948966,0.004663328930155291,-0.06494025560918994,0.4350146046087082,0.0,0.0,0.0,-0.030936810982731267,0.08252008177676533,0.0,-0.897996877547591,0.0021641159590357617
1.0,8.0,2.0,0.0,0.0,0.0,0.0,0.0,-2.0,-2.0,-2.0,-2.0,-2.0,-2.0,2.0,2.0,2.0,2.0,2.0,2.0,0.15000000000000002,0.0,0.0,0.0,0.0,0.037500000000000006,-0.15000000000000002,-0.07500000000000001,-0.07500000000000001,-0.07500000000000001,-0.15000000000000002,0.0,0.15000000000000002,0.07500000000000001,0.07500000000000001,0.07500000000000001,0.15000000000000002,0.07500000000000001,0.5681783395720607,-1.2931424848007245,1.010975397576052,-1.3537316986920551,-0.07158575764683794,0.0,0.656751836037678,-1.2931428562891607,1.0109749173707168,-1.3537356290795703,-0.07158575903184122,0.0,2.3619602230037895,-9.910696237291905e-06,2.389121644047476e-05,0.00019172885916012017,-4.7902183018702464e-08,0.0,-0.15679492425037644,0.08571557331091903,-0.645801136044391,0.024726230560434236,-0.009441306232736249,0.0,-2.6,-1.5,-1.5,-1.7,-2.6,0.0,2.6,0.8,1.5,1.7,2.6,0.0,-0.17074626675512655,-1.5328565793340456,0.17074626675512655,2.2140198613368343,0.14,0.0,0.26,0.004719527010400766,0.003012952998213731,0.3641364650482899,-0.7853981633974483,0.0,-1.5707963267948966,0.004662985357070912,-0.06493548583392716,0.49644113182038707,0.0,0.0,0.0,-0.03455424461540568,0.08252909916528416,0.0,-0.8681840718418599,0.0021641732445187856
1.0,9.0,2.0,0.0,0.0,0.0,0.0,0.0,-2.0,-2.0,-2.0,-2.0,-2.0,-2.0,2.0,2.0,2.0,2.0,2.0,2.0,0.15000000000000002,0.0,0.0,0.0,0.0,0.037500000000000006,-0.15000000000000002,-0.07500000000000001,-0.07500000000000001,-0.07500000000000001,-0.15000000000000002,0.0,0.15000000000000002,0.07500000000000001,0.07500000000000001,0.07500000000000001,0.15000000000000002,0.07500000000000001,0.6296048431069546,-1.2931421133040713,1.0109758777894315,-1.3537277681915743,-0.07158575626165867,0.0,0.7181783395720607,-1.2931424848007245,1.010975397576052,-1.3537316986920551,-0.07158575764683794,0.0,2.36196022303489,-9.910915486494032e-06,2.3891583501967073e-05,0.00019173395729857323,-4.7909291934914236e-08,0.0,-0.15679506032672091,0.0857129184827982,-0.645803469504928,0.024724121652117226,-0.009441309180493894,0.0,-2.6,-1.5,-1.5,-1.7,-2.6,0.0,2.6,0.8,1.5,1.7,2.6,0.0,-0.1709047382160513,-1.703761317550097,0.1709047382160513,2.271480230663688,0.14,0.0,0.26,0.004526161594390217,0.0032973525255288573,0.36413643031461246,-0.7853981633974483,0.0,-1.5707963267948966,0.004662641774919431,-0.06493071592976243,0.5578676590317067,0.0,0.0,0.0,-0.038033150621936684,0.08253811679254543,0.0,-0.8349374415674404,0.0021642305427049813
1.0,10.0,2.0,0.0,0.0,0.0,0.0,0.0,-2.0,-2.0,-2.0,-2.0,-2.0,-2.0,2.0,2.0,2.0,2.0,2.0,2.0,0.15000000000000002,0.0,0.0,0.0,0.0,0.037500000000000006,-0.15000000000000002,-0.07500000000000001,-0.07500000000000001,-0.07500000000000001,-0.15000000000000002,0.0,0.15000000000000002,0.07500000000000001,0.07500000000000001,0.07500000000000001,0.15000000000000002,0.07500000000000001,0.6910313466423477,-1.2931417417992008,1.0109763580108553,-1.3537238375781313,-0.07158575487629523,0.0,0.7796048431069547,-1.2931421133040713,1.0109758777894315,-1.3537277681915743,-0.07158575626165867,0.0,2.3619602230656462,-9.911134732754068e-06,2.389195057816984e-05,0.00019173905538263925,-4.7915985620559064e-08,0.0,-0.15679519642513712,0.0857102635491587,-0.6458058030497921,0.024722012669166023,-0.009441312127735111,0.0,-2.6,-1.5,-1.5,-1.7,-2.6,0.0,2.6,0.8,1.5,1.7,2.6,0.0,-0.17107707107310335,-1.8748383886232003,0.17107707107310335,2.3291430541513582,0.14,0.0,0.26,0.004315679149661408,0.0035693750640847623,0.3641363955780395,-0.7853981633974483,0.0,-1.5707963267948966,0.004662298183700609,-0.06492594589669905,0.6192941862426623,0.0,0.0,0.0,-0.04135988569249571,0.08254713465854137,0.0,-0.7984164169341668,0.0021642878390260023
1.0,11.0,2.0,0.0,0.0,0.0,0.0,0.0,-2.0,-2.0,-2.0,-2.0,-2.0,-2.0,2.0,2.0,2.0,2.0,2.0,2.0,0.15000000000000002,0.0,0.0,0.0,0.0,0.037500000000000006,-0.15000000000000002,-0.07500000000000001,-0.07500000000000001,-0.07500000000000001,-0.15000000000000002,0.0,0.15000000000000002,0.07500000000000001,0.07500000000000001,0.07500000000000001,0.15000000000000002,0.07500000000000001,0.7524578501782354,-1.293141370286113,1.0109768382403233,-1.3537199068517252,-0.07158575349074457,0.0,0.8410313466423477,-1.2931417417992008,1.0109763580108553,-1.3537238375781313,-0.07158575487629523,0.0,2.361960223096277,-9.911353981345572e-06,2.389231765353994e-05,0.00019174415353956364,-4.7922528482622836e-08,0.0,-0.15679533254474595,0.08570760852499458,-0.645808136669494,0.024719903618664465,-0.009441315074616752,0.0,-2.6,-1.5,-1.5,-1.7,-2.6,0.0,2.6,0.8,1.5,1.7,2.6,0.0,-0.17126257744596843,-2.0461009660691687,0.17126257744596843,2.386993659734039,0.14,0.0,0.26,0.004088869976715869,0.0038279917096678395,0.3641363608385707,-0.7853981633974483,0.0,-1.5707963267948966,0.004661954583413913,-0.06492117573473526,0.6807207134532528,0.0,0.0,0.0,-0.044521529487617784,0.08255615276328387,0.0,-0.758794510829297,0.0021643451382014067
1.0,12.0,2.0,0.0,0.0,0.0,0.0,0.0,-2.0,-2.0,-2.0,-2.0,-2.0,-2.0,2.0,2.0,2.0,2.0,2.0,2.0,0.15000000000000002,0.0,0.0,0.0,0.0,0.037500000000000006,-0.15000000000000002,-0.07500000000000001,-0.07500000000000001,-0.07500000000000001,-0.15000000000000002,0.0,0.15000000000000002,0.07500000000000001,0.07500000000000001,0.07500000000000001,0.15000000000000002,0.07500000000000001,0.8138843537146162,-1.293140998764808,1.0109773184778355,-1.3537159760123532,-0.07158575210500553,0.0,0.9024578501782354,-1.293141370286113,1.0109768382403233,-1.3537199068517252,-0.07158575349074457,0.0,2.361960223126864,-9.911573223497783e-06,2.3892684730408842e-05,0.0001917492518297842,-4.7929015696709064e-08,0.0,-0.15679546868503863,0.08570495341910529,-0.6458104703584701,0.024717794504760925,-0.009441318021230754,0.0,-2.6,-1.5,-1.5,-1.7,-2.6,0.0,2.6,0.8,1.5,1.7,2.6,0.0,-0.17146051885417807,-2.2175614849233467,0.17146051885417807,2.445018718337914,0.14,0.0,0.26,0.0038465861412933073,0.004072223906950731,0.36413632609620594,-0.7853981633974483,0.0,-1.5707963267948966,0.0046616109740593445,-0.0649164054438692,0.7421472406634769,0.0,0.0,0.0,-0.04750593797031355,0.08256517110679751,0.0,-0.7162580358469839,0.0021644024432720954
1.0,13.0,2.0,0.0,0.0,0.0,0.0,0.0,-2.0,-2.0,-2.0,-2.0,-2.0,-2.0,2.0,2.0,2.0,2.0,2.0,2.0,0.15000000000000002,0.0,0.0,0.0,0.0,0.037500000000000006,-0.15000000000000002,-0.07500000000000001,-0.07500000000000001,-0.07500000000000001,-0.15000000000000002,0.0,0.15000000000000002,0.07500000000000001,0.07500000000000001,0.07500000000000001,0.15000000000000002,0.07500000000000001,0.8753108572514895,-1.2931406272352852,1.0109777987233919,-1.353712045060012,-0.07158575071907768,0.0,0.9638843537146162,-1.293140998764808,1.0109773184778355,-1.3537159760123532,-0.07158575210500553,0.0,2.3619602231574333,-9.911792475919556e-06,2.389305180716672e-05,0.00019175435025053922,-4.7935483448824194e-08,0.0,-0.15679560484571772,0.0857022982365566,-0.6458128041135017,0.024715685329850676,-0.00944132096763108,0.0,-2.6,-1.5,-1.5,-1.7,-2.6,0.0,2.6,0.8,1.5,1.7,2.6,0.0,-0.17167010965064,-2.3892315945739866,0.17167010965064,2.503206098374287,0.14,0.0,0.26,0.0035897382734357726,0.004301147152109421,0.36413629135094505,-0.7853981633974483,0.0,-1.5707963267948966,0.004661267355636882,-0.06491163502409625,0.8035737678733355,0.0,0.0,0.0,-0.050301791150864084,0.08257418968903536,0.0,-0.6710047633321281,0.0021644597370851226
1.0,14.0,2.0,0.0,0.0,0.0,0.0,0.0,-2.0,-2.0,-2.0,-2.0,-2.0,-2.0,2.0,2.0,2.0,2.0,2.0,2.0,0.15000000000000002,0.0,0.0,0.0,0.0,0.037500000000000006,-0.15000000000000002,-0.07500000000000001,-0.07500000000000001,-0.07500000000000001,-0.15000000000000002,0.0,0.15000000000000002,0.07500000000000001,0.07500000000000001,0.07500000000000001,0.15000000000000002,0.07500000000000001,0.9367373607888552,-1.293140255697545,1.0109782789769923,-1.353708113994699,-0.07158574933296083,0.0,1.0253108572514895,-1.2931406272352852,1.0109777987233919,-1.353712045060012,-0.07158575071907768,0.0,2.361960223187997,-9.912011728202552e-06,2.3893418888087936e-05,0.00019175944882322826,-4.7941944084561525e-08,0.0,-0.1567957410266061,0.08569964298038937,-0.6458151379326913,0.02471357609536458,-0.009441323913849307,0.0,-2.6,-1.5,-1.5,-1.7,-2.6,0.0,2.6,0.8,1.5,1.7,2.6,0.0,-0.17189052063012877,-2.5611221152041153,0.17189052063012877,2.561544738113447,0.14,0.0,0.26,0.0033192921449148906,0.004513894492337493,0.3641362566027877,-0.7853981633974483,0.0,-1.5707963267948966,0.004660923728145764,-0.06490686447541467,0.8650002950828273,0.0,0.0,0.0,-0.0528986350773053,0.08258320851006477,0.0,-0.623242542345892,0.002164517047058556
1.0,15.0,2.0,0.0,0.0,0.0,0.0,0.0,-2.0,-2.0,-2.0,-2.0,-2.0,-2.0,2.0,2.0,2.0,2.0,2.0,2.0,0.15000000000000002,0.0,0.0,0.0,0.0,0.037500000000000006,-0.15000000000000002,-0.07500000000000001,-0.07500000000000001,-0.07500000000000001,-0.15000000000000002,0.0,0.15000000000000002,0.07500000000000001,0.07500000000000001,0.07500000000000001,0.15000000000000002,0.07500000000000001,0.9981638643267131,-1.2931398841515873,1.010978759238637,-1.35370418281641,-0.07158574794665493,0.0,1.086737360788855,-1.293140255697545,1.0109782789769923,-1.353708113994699,-0.07158574933296083,0.0,2.361960223218561,-9.912230980402281e-06,2.3893785962014746e-05,0.00019176454752645178,-4.7948402244523194e-08,0.0,-0.15679587722759908,0.0856969876522864,-0.6458174718149599,0.024711466802101893,-0.009441326859903934,0.0,-2.6,-1.5,-1.5,-1.7,-2.6,0.0,2.6,0.8,1.5,1.7,2.6,0.0,-0.17212088278835164,-2.733242997992467,0.17212088278835164,2.620024533525985,0.14,0.0,0.26,0.0030362650378890996,0.004709659809012466,0.36413622185173367,-0.7853981633974483,0.0,-1.5707963267948966,0.004660580091585891,-0.06490209379782051,0.9264268222919534,0.0,0.0,0.0,-0.05528691797348717,0.08259222756988761,0.0,-0.5731878950836489,0.00216457435748163
1.0,16.0,2.0,0.0,0.0,0.0,0.0,0.0,-2.0,-2.0,-2.0,-2.0,-2.0,-2.0,2.0,2.0,2.0,2.0,2.0,2.0,0.15000000000000002,0.0,0.0,0.0,0.0,0.037500000000000006,-0.15000000000000002,-0.07500000000000001,-0.07500000000000001,-0.07500000000000001,-0.15000000000000002,0.0,0.15000000000000002,0.07500000000000001,0.07500000000000001,0.07500000000000001,0.15000000000000002,0.07500000000000001,1.0595903678650633,-1.2931395125974114,1.0109792395083261,-1.3537002515251426,-0.07158574656015992,0.0,1.1481638643267131,-1.2931398841515873,1.010978759238637,-1.35370418281641,-0.07158574794665493,0.0,2.3619602232491297,-9.912450248589222e-06,2.3894153028281018e-05,0.00019176964637469818,-4.795486004333712e-08,0.0,-0.15679601344864355,0.08569433225336537,-0.6458198057596024,0.02470935745058286,-0.009441329805806399,0.0,-2.6,-1.5,-1.5,-1.7,-2.6,0.0,2.6,0.8,1.5,1.7,2.6,0.0,-0.1723602912070923,-2.9056032891995596,0.1723602912070923,2.678636239526037,0.14,0.0,0.26,0.002741721918442212,0.004887700872079657,0.36413618709778306,-0.7853981633974483,0.0,-1.5707963267948966,0.00466023644595719,-0.06489732299130986,0.9878533495007131,0.0,0.0,0.0,-0.057458020497755946,0.0826012468684554,0.0,-0.5210646058245061,0.002164631656267346
1.0,17.0,2.0,0.0,0.0,0.0,0.0,0.0,-2.0,-2.0,-2.0,-2.0,-2.0,-2.0,2.0,2.0,2.0,2.0,2.0,2.0,0.15000000000000002,0.0,0.0,0.0,0.0,0.037500000000000006,-0.15000000000000002,-0.07500000000000001,-0.07500000000000001,-0.07500000000000001,-0.15000000000000002,0.0,0.15000000000000002,0.07500000000000001,0.07500000000000001,0.07500000000000001,0.15000000000000002,0.07500000000000001,1.121016871403906,-1.2931391410350173,1.0109797197860597,-1.353696320120893,-0.07158574517347578,0.0,1.2095903678650632,-1.2931395125974114,1.0109792395083261,-1.3537002515251426,-0.07158574656015992,0.0,2.361960223279696,-9.912669516748407e-06,2.3894520097655914e-05,0.0001917747453574481,-4.796131838381845e-08,0.0,-0.15679614968969988,0.08569167678419974,-0.6458221397662591,0.02470724804108121,-0.00944133275156289,0.0,-2.6,-1.5,-1.5,-1.7,-2.6,0.0,2.6,0.8,1.5,1.7,2.6,0.0,-0.172607809041083,-3.0782110982406428,0.172607809041083,2.7373713828468635,0.14,0.0,0.26,0.0024367714293964766,0.005047342154081582,0.3641361523409353,-0.7853981633974483,0.0,-1.5707963267948966,0.004659892791259613,-0.06489255205587831,1.0492798767091056,0.0,0.0,0.0,-0.059404280157770994,0.08261026640580346,0.0,-0.4671023184036116,0.0021646889635362765
1.0,18.0,2.0,0.0,0.0,0.0,0.0,0.0,-2.0,-2.0,-2.0,-2.0,-2.0,-2.0,2.0,2.0,2.0,2.0,2.0,2.0,0.15000000000000002,0.0,0.0,0.0,0.0,0.037500000000000006,-0.15000000000000002,-0.07500000000000001,-0.07500000000000001,-0.07500000000000001,-0.15000000000000002,0.0,0.15000000000000002,0.07500000000000001,0.07500000000000001,0.07500000000000001,0.15000000000000002,0.07500000000000001,1.1824433749432408,-1.293138769464405,1.0109802000718373,-1.3536923886036578,-0.0715857437866025,0.0,1.2710168714039058,-1.2931391410350173,1.0109797197860597,-1.353696320120893,-0.07158574517347578,0.0,2.3619602233102706,-9.912888784907592e-06,2.3894887169584322e-05,0.0001917798444774632,-4.796777659929127e-08,0.0,-0.1567962859507444,0.0856890212451571,-0.6458244738346928,0.024705138573768402,-0.009441335697176974,0.0,-2.6,-1.5,-1.5,-1.7,-2.6,0.0,2.6,0.8,1.5,1.7,2.6,0.0,-0.17286247158266005,-3.2510735698233026,0.17286247158266005,2.796222185030763,0.14,0.0,0.26,0.002122561717478798,0.005187977393163989,0.36413611758119047,-0.7853981633974483,0.0,-1.5707963267948966,0.0046595491274923455,-0.06488778099152442,1.1107064039171324,0.0,0.0,0.0,-0.061119009978491956,0.08261928618197824,0.0,-0.4115351569730308,0.002164746281946295
1.0,19.0,2.0,0.0,0.0,0.0,0.0,0.0,-2.0,-2.0,-2.0,-2.0,-2.0,-2.0,2.0,2.0,2.0,2.0,2.0,2.0,0.15000000000000002,0.0,0.0,0.0,0.0,0.037500000000000006,-0.15000000000000002,-0.07500000000000001,-0.07500000000000001,-0.07500000000000001,-0.15000000000000002,0.0,0.15000000000000002,0.07500000000000001,0.07500000000000001,0.07500000000000001,0.15000000000000002,0.07500000000000001,1.2438698784830682,-1.2931383978855742,1.010980680365659,-1.3536884569734342,-0.07158574239954006,0.0,1.332443374943241,-1.293138769464405,1.0109802000718373,-1.3536923886036578,-0.0715857437866025,0.0,2.3619602233408417,-9.913108058395848e-06,2.3895254239292285e-05,0.00019178494374130772,-4.7974235145337336e-08,0.0,-0.15679642223177467,0.08568636563645873,-0.6458268079647583,0.024703029048748774,-0.009441338642651419,0.0,-2.6,-1.5,-1.5,-1.7,-2.6,0.0,2.6,0.8,1.5,1.7,2.6,0.0,-0.17312329038088026,-3.424196860204183,0.17312329038088026,2.855181494229367,0.14,0.0,0.26,0.0018002761105465007,0.005309071895335509,0.36413608281854837,-0.7853981633974483,0.0,-1.5707963267948966,0.0046592054546552705,-0.06488300979824445,1.172132931124792,0.0,0.0,0.0,-0.06259651157284996,0.08262830619696217,0.0,-0.35460038264591986,0.0021648035961430168
1.0,20.0,2.0,0.0,0.0,0.0,0.0,0.0,-2.0,-2.0,-2.0,-2.0,-2.0,-2.0,2.0,2.0,2.0,2.0,2.0,2.0,0.15000000000000002,0.0,0.0,0.0,0.0,0.037500000000000006,-0.15000000000000002,-0.07500000000000001,-0.07500000000000001,-0.07500000000000001,-0.15000000000000002,0.0,0.15000000000000002,0.07500000000000001,0.07500000000000001,0.07500000000000001,0.15000000000000002,0.07500000000000001,1.305296382023388,-1.2931380262985248,1.0109811606675247,-1.3536845252302188,-0.07158574101228844,0.0,1.393869878483068,-1.2931383978855742,1.010980680365659,-1.3536884569734342,-0.07158574239954006,0.0,2.36196022337141,-9.91332733724093e-06,2.3895621300784597e-05,0.0001917900431373104,-4.798069473384379e-08,0.0,-0.15679655853277966,0.08568370995819485,-0.6458291421564174,0.024700919466065136,-0.009441341587987288,0.0,-2.6,-1.5,-1.5,-1.7,-2.6,0.0,2.6,0.8,1.5,1.7,2.6,0.0,-0.1733892573926071,-3.59758611759679,0.1733892573926071,2.9142427246925924,0.14,0.0,0.26,0.0014711286611465263,0.005410164567237016,0.36413604805300875,-0.7853981633974483,0.0,-1.5707963267948966,0.004658861772748635,-0.06487823847603422,1.2335594583320852,0.0,0.0,0.0,-0.06383208281444341,0.08263732645069433,0.0,-0.29653709798243,0.0021648608957181015
1.0,21.0,2.0,0.0,0.0,0.0,0.0,0.0,-2.0,-2.0,-2.0,-2.0,-2.0,-2.0,2.0,2.0,2.0,2.0,2.0,2.0,0.15000000000000002,0.0,0.0,0.0,0.0,0.037500000000000006,-0.15000000000000002,-0.07500000000000001,-0.07500000000000001,-0.07500000000000001,-0.15000000000000002,0.0,0.15000000000000002,0.07500000000000001,0.07500000000000001,0.07500000000000001,0.15000000000000002,0.07500000000000001,1.3667228855642004,-1.2931376547032567,1.0109816409774346,-1.3536805933740086,-0.07158573962484763,0.0,1.4552963820233882,-1.2931380262985248,1.0109811606675247,-1.3536845252302188,-0.07158574101228844,0.0,2.361960223401993,-9.913546621470593e-06,2.389598836510798e-05,0.00019179514268115316,-4.798715438187294e-08,0.0,-0.1567966948537564,0.0856810542104689,-0.6458314764095933,0.0246988098257655,-0.009441344533185307,0.0,-2.6,-1.5,-1.5,-1.7,-2.6,0.0,2.6,0.8,1.5,1.7,2.6,0.0,-0.17365934914407039,-3.77124546674086,0.17365934914407039,2.9733998029796926,0.14,0.0,0.26,0.0011363595731907505,0.005490869671693925,0.3641360132845714,-0.7853981633974483,0.0,-1.5707963267948966,0.004658518081771541,-0.06487346702489145,1.2949859855390125,0.0,0.0,0.0,-0.06482202035118734,0.0826463469432935,0.0,-0.2375850088185416,0.002164918223800383
1.0,22.0,2.0,0.0,0.0,0.0,0.0,0.0,-2.0,-2.0,-2.0,-2.0,-2.0,-2.0,2.0,2.0,2.0,2.0,2.0,2.0,0.15000000000000002,0.0,0.0,0.0,0.0,0.037500000000000006,-0.15000000000000002,-0.07500000000000001,-0.07500000000000001,-0.07500000000000001,-0.15000000000000002,0.0,0.15000000000000002,0.07500000000000001,0.07500000000000001,0.07500000000000001,0.15000000000000002,0.07500000000000001,1.4281493891055053,-1.2931372830997696,1.0109821212953882,-1.3536766614048004,-0.07158573823721763,0.0,1.5167228855642003,-1.2931376547032567,1.0109816409774346,-1.3536805933740086,-0.07158573962484763,0.0,2.361960223432568,-9.91376591094606e-06,2.3896355426822335e-05,0.00019180024235712634,-4.7993614095821584e-08,0.0,-0.15679683119470483,0.0856783983933169,-0.6458338107242565,0.024696700127864468,-0.00944134747824603,0.0,-2.6,-1.5,-1.5,-1.7,-2.6,0.0,2.6,0.8,1.5,1.7,2.6,0.0,-0.17393253088254096,-3.945177997623401,0.17393253088254096,3.032647120058252,0.14,0.0,0.26,0.0007972305289780057,0.005550878299369403,0.36413597851323604,-0.7853981633974483,0.0,-1.5707963267948966,0.004658174381724563,-0.06486869544481236,1.3564125127455726,0.0,0.0,0.0,-0.06556361723293769,0.08265536767465091,0.0,-0.1779832516200841,0.0021649755257802106
1.0,23.0,2.0,0.0,0.0,0.0,0.0,0.0,-2.0,-2.0,-2.0,-2.0,-2.0,-2.0,2.0,2.0,2.0,2.0,2.0,2.0,0.15000000000000002,0.0,0.0,0.0,0.0,0.037500000000000006,-0.15000000000000002,-0.07500000000000001,-0.07500000000000001,-0.07500000000000001,-0.15000000000000002,0.0,0.15000000000000002,0.07500000000000001,0.07500000000000001,0.07500000000000001,0.15000000000000002,0.07500000000000001,1.4895758926473024,-1.2931369114880633,1.0109826016213859,-1.3536727293225908,-0.07158573684939842,0.0,1.5781493891055054,-1.2931372830997696,1.0109821212953882,-1.3536766614048004,-0.07158573823721763,0.0,2.3619602234631545,-9.913985205778353e-06,2.3896722485761135e-05,0.0001918053421700594,-4.800007421059977e-08,0.0,-0.1567969675556235,0.08567574250673773,-0.6458361451004271,0.02469459037236315,-0.009441350423169629,0.0,-2.6,-1.5,-1.5,-1.7,-2.6,0.0,2.6,0.8,1.5,1.7,2.6,0.0,-0.1742077606990217,-4.119385758322423,0.1742077606990217,3.091979488569965,0.14,0.0,0.26,0.00045501993416549504,0.0055899595509009995,0.36413594373900277,-0.7853981633974483,0.0,-1.5707963267948966,0.00465783067260685,-0.06486392373579355,1.4178390399517657,0.0,0.0,0.0,-0.0660551559553757,0.08266438864486594,0.0,-0.11796929338512285,0.002165032851607629
1.0,24.0,2.0,0.0,0.0,0.0,0.0,0.0,-2.0,-2.0,-2.0,-2.0,-2.0,-2.0,2.0,2.0,2.0,2.0,2.0,2.0,0.15000000000000002,0.0,0.0,0.0,0.0,0.037500000000000006,-0.15000000000000002,-0.07500000000000001,-0.07500000000000001,-0.07500000000000001,-0.15000000000000002,0.0,0.15000000000000002,0.07500000000000001,0.07500000000000001,0.07500000000000001,0.15000000000000002,0.07500000000000001,1.5510023961895922,-1.2931365398681378,1.0109830819554275,-1.3536687971273764,-0.07158573546138998,0.0,1.6395758926473025,-1.2931369114880633,1.0109826016213859,-1.3536727293225908,-0.07158573684939842,0.0,2.3619602234937354,-9.914204500610646e-06,2.38970895420354e-05,0.0001918104421197303,-4.800653539375078e-08,0.0,-0.1567971039365122,0.08567308655081729,-0.6458384795380316,0.02469248055929615,-0.009441353367956214,0.0,-2.6,-1.5,-1.5,-1.7,-2.6,0.0,2.6,0.8,1.5,1.7,2.6,0.0,-0.1744839936041858,-4.293869751926609,0.1744839936041858,3.151392104638656,0.14,0.0,0.26,0.00011101809861466033,0.005607961425002319,0.36413590896187115,-0.7853981633974483,0.0,-1.5707963267948966,0.004657486954418136,-0.06485915189783151,1.4792655671575918,0.0,0.0,0.0,-0.06629589723938345,0.08267340985391883,0.0,-0.057777908161860125,0.0021650901726921745
1.0,25.0,2.0,0.0,0.0,0.0,0.0,0.0,-2.0,-2.0,-2.0,-2.0,-2.0,-2.0,2.0,2.0,2.0,2.0,2.0,2.0,0.15000000000000002,0.0,0.0,0.0,0.0,0.037500000000000006,-0.15000000000000002,-0.07500000000000001,-0.07500000000000001,-0.07500000000000001,-0.15000000000000002,0.0,0.15000000000000002,0.07500000000000001,0.07500000000000001,0.07500000000000001,0.15000000000000002,0.07500000000000001,1.6124288997323746,-1.293136168239993,1.0109835622975132,-1.353664864819154,-0.07158573407319231,0.0,1.7010023961895921,-1.2931365398681378,1.0109830819554275,-1.3536687971273764,-0.07158573546138998,0.0,2.361960223524317,-9.91442380077201e-06,2.3897456595534106e-05,0.00019181554220147612,-4.801299631300698e-08,0.0,-0.15679724033737596,0.08567043052545542,-0.6458408140371522,0.024690370688623932,-0.009441356312606106,0.0,-2.6,-1.5,-1.5,-1.7,-2.6,0.0,2.6,0.8,1.5,1.7,2.6,0.0,-0.17476018554119802,-4.468629937467807,0.17476018554119802,3.2108805136787484,0.14,0.0,0.26,-0.00023347762872469205,0.005604811409111258,0.364135874181841,-0.7853981633974483,0.0,-1.5707963267948966,0.004657143227158491,-0.06485437993092283,1.540692094363051,0.0,0.0,0.0,-0.06628606488293443,0.08268243130178521,0.0,0.0023597655477658463,0.002165147487931396
1.0,26.0,2.0,0.0,0.0,0.0,0.0,0.0,-2.0,-2.0,-2.0,-2.0,-2.0,-2.0,2.0,2.0,2.0,2.0,2.0,2.0,0.15000000000000002,0.0,0.0,0.0,0.0,0.037500000000000006,-0.15000000000000002,-0.07500000000000001,-0.07500000000000001,-0.07500000000000001,-0.15000000000000002,0.0,0.15000000000000002,0.07500000000000001,0.07500000000000001,0.07500000000000001,0.15000000000000002,0.07500000000000001,1.6738554032756496,-1.2931357966036283,1.0109840426476426,-1.353660932397921,-0.07158573268480539,0.0,1.7624288997323747,-1.293136168239993,1.0109835622975132,-1.353664864819154,-0.07158573407319231,0.0,2.361960223554908,-9.9146431062902e-06,2.389782365180837e-05,0.000191820642431062,-4.801945796767751e-08,0.0,-0.15679737675821082,0.08566777443076162,-0.6458431485977029,0.02468826076038923,-0.009441359257119045,0.0,-2.6,-1.5,-1.5,-1.7,-2.6,0.0,2.6,0.8,1.5,1.7,2.6,0.0,-0.17503529732047604,-4.643665234788283,0.17503529732047604,3.2704405797333163,0.14,0.0,0.26,-0.0005771677525474438,0.005580516770294186,0.36413583939891225,-0.7853981633974483,0.0,-1.5707963267948966,0.004656799490827577,-0.06484960783506467,1.6021186215681436,0.0,0.0,0.0,-0.06602682702672613,0.08269145298849204,0.0,0.06221708548999061,0.0021652048096387766
1.0,27.0,2.0,0.0,0.0,0.0,0.0,0.0,-2.0,-2.0,-2.0,-2.0,-2.0,-2.0,2.0,2.0,2.0,2.0,2.0,2.0,0.15000000000000002,0.0,0.0,0.0,0.0,0.037500000000000006,-0.15000000000000002,-0.07500000000000001,-0.07500000000000001,-0.07500000000000001,-0.15000000000000002,0.0,0.15000000000000002,0.07500000000000001,0.07500000000000001,0.07500000000000001,0.15000000000000002,0.07500000000000001,1.7352819068194172,-1.293135424959044,1.0109845230058159,-1.3536569998636736,-0.07158573129622921,0.0,1.8238554032756498,-1.2931357966036283,1.0109840426476426,-1.353660932397921,-0.07158573268480539,0.0,2.361960223585501,-9.914862417109704e-06,2.3898190700089028e-05,0.000191825742797469,-4.802592002491231e-08,0.0,-0.15679751319902144,0.08566511826664795,-0.6458454832197559,0.024686150774558147,-0.009441362201495246,0.0,-2.6,-1.5,-1.5,-1.7,-2.6,0.0,2.6,0.8,1.5,1.7,2.6,0.0,-0.17530829846288665,-4.81897353325117,0.17530829846288665,3.3300684579317847,0.14,0.0,0.26,-0.0009187555330909736,0.005535164545241632,0.36413580461308487,-0.7853981633974483,0.0,-1.5707963267948966,0.004656455745425125,-0.06484483561025405,1.663545148772868,0.0,0.0,0.0,-0.06552027417854545,0.08270047491405437,0.0,0.12157268356336459,0.0021652621349599332
1.0,28.0,2.0,0.0,0.0,0.0,0.0,0.0,-2.0,-2.0,-2.0,-2.0,-2.0,-2.0,2.0,2.0,2.0,2.0,2.0,2.0,0.15000000000000002,0.0,0.0,0.0,0.0,0.037500000000000006,-0.15000000000000002,-0.07500000000000001,-0.07500000000000001,-0.07500000000000001,-0.15000000000000002,0.0,0.15000000000000002,0.07500000000000001,0.07500000000000001,0.07500000000000001,0.15000000000000002,0.07500000000000001,1.7967084103636775,-1.2931350533062398,1.0109850033720331,-1.353653067216409,-0.07158572990746374,0.0,1.8852819068194173,-1.293135424959044,1.0109845230058159,-1.3536569998636736,-0.07158573129622921,0.0,2.3619602236160917,-9.915081733286035e-06,2.3898557745538618e-05,0.0001918308433063176,-4.8032382484711374e-08,0.0,-0.15679764965980703,0.08566246203318781,-0.6458478179032483,0.0246840407311566,-0.009441365145734628,0.0,-2.6,-1.5,-1.5,-1.7,-2.6,0.0,2.6,0.8,1.5,1.7,2.6,0.0,-0.17557817093929348,-4.994551704190464,0.17557817093929348,3.3897605697097752,0.14,0.0,0.26,-0.0012569518787073086,0.0054689212293292854,0.36413576982435825,-0.7853981633974483,0.0,-1.5707963267948966,0.004656111990950931,-0.06484006325648667,1.7249716759772258,0.0,0.0,0.0,-0.0647693943376404,0.082709497078449,0.0,0.18021116181721197,0.002165319454712211
1.0,29.0,2.0,0.0,0.0,0.0,0.0,0.0,-2.0,-2.0,-2.0,-2.0,-2.0,-2.0,2.0,2.0,2.0,2.0,2.0,2.0,0.15000000000000002,0.0,0.0,0.0,0.0,0.037500000000000006,-0.15000000000000002,-0.07500000000000001,-0.07500000000000001,-0.07500000000000001,-0.15000000000000002,0.0,0.15000000000000002,0.07500000000000001,0.07500000000000001,0.07500000000000001,0.15000000000000002,0.07500000000000001,1.8581349139084302,-1.2931346816452156,1.010985483746294,-1.3536491344561237,-0.07158572851850899,0.0,1.9467084103636774,-1.2931350533062398,1.0109850033720331,-1.353653067216409,-0.07158572990746374,0.0,2.3619602236466846,-9.915301049462366e-06,2.3898924799037324e-05,0.00019183594393605563,-4.803884567981635e-08,0.0,-0.15679778614056938,0.08565980573035202,-0.6458501526482072,0.024681930630173293,-0.009441368089837195,0.0,-2.6,-1.5,-1.5,-1.7,-2.6,0.0,2.6,0.8,1.5,1.7,2.6,0.0,-0.175843912795764,-5.1703956169862275,0.175843912795764,3.449513580478723,0.14,0.0,0.26,-0.0015904802106504043,0.005382032165849354,0.36413573503273233,-0.7853981633974483,0.0,-1.5707963267948966,0.004655768227404759,-0.06483529077375934,1.7863982031812158,0.0,0.0,0.0,-0.06377804555292466,0.0827185194817058,0.0,0.23792370833177756,0.002165376781632089
1.0,30.0,2.0,0.0,0.0,0.0,0.0,0.0,-2.0,-2.0,-2.0,-2.0,-2.0,-2.0,2.0,2.0,2.0,2.0,2.0,2.0,0.15000000000000002,0.0,0.0,0.0,0.0,0.037500000000000006,-0.15000000000000002,-0.07500000000000001,-0.07500000000000001,-0.07500000000000001,-0.15000000000000002,0.0,0.15000000000000002,0.07500000000000001,0.07500000000000001,0.07500000000000001,0.15000000000000002,0.07500000000000001,1.9195614174536761,-1.2931343099759711,1.0109859641285983,-1.3536452015828147,-0.07158572712936494,0.0,2.0081349139084304,-1.2931346816452156,1.010985483746294,-1.3536491344561237,-0.07158572851850899,0.0,2.361960223677281,-9.915520370967768e-06,2.3899291844486914e-05,0.00019184104471885177,-4.8045308611351784e-08,0.0,-0.15679792264130915,0.08565714935814235,-0.6458524874546336,0.024679820471609264,-0.009441371033802885,0.0,-2.6,-1.5,-1.5,-1.7,-2.6,0.0,2.6,0.8,1.5,1.7,2.6,0.0,-0.17610454165508002,-5.346500158641308,0.17610454165508002,3.5093243794719293,0.14,0.0,0.26,-0.0019180812817192324,0.005274820637652596,0.3641357002382072,-0.7853981633974483,0.0,-1.5707963267948966,0.004655424454786319,-0.06483051816206968,1.8478247303848392,0.0,0.0,0.0,-0.0625509262358448,0.08272754212384575,0.0,0.29450863609916667,0.0021654341135879385
1.0,31.0,2.0,0.0,0.0,0.0,0.0,0.0,-2.0,-2.0,-2.0,-2.0,-2.0,-2.0,2.0,2.0,2.0,2.0,2.0,2.0,0.15000000000000002,0.0,0.0,0.0,0.0,0.037500000000000006,-0.15000000000000002,-0.07500000000000001,-0.07500000000000001,-0.07500000000000001,-0.15000000000000002,0.0,0.15000000000000002,0.07500000000000001,0.07500000000000001,0.07500000000000001,0.15000000000000002,0.07500000000000001,1.980987920999415,-1.2931339382985063,1.0109864445189465,-1.3536412685964785,-0.07158572574003158,0.0,2.0695614174536763,-1.2931343099759711,1.0109859641285983,-1.3536452015828147,-0.07158572712936494,0.0,2.3619602237078747,-9.91573969780224e-06,2.3899658887216457e-05,0.00019184614563351465,-4.805177227851839e-08,0.0,-0.15679805916203338,0.08565449291651893,-0.6458548223225624,0.024677710255445812,-0.009441373977632032,0.0,-2.6,-1.5,-1.5,-1.7,-2.6,0.0,2.6,0.8,1.5,1.7,2.6,0.0,-0.17635909808647726,-5.522859256727785,0.17635909808647726,3.5691900615273666,0.14,0.0,0.26,-0.0022385179305682897,0.005147686664563162,0.3641356654407825,-0.7853981633974483,0.0,-1.5707963267948966,0.0046550806730953,-0.06482574542141356,1.9092512575880953,0.0,0.0,0.0,-0.06109354353533769,0.08273656500483229,0.0,0.3497718481217049,0.002165491436767475
1.0,32.0,2.0,0.0,0.0,0.0,0.0,0.0,-2.0,-2.0,-2.0,-2.0,-2.0,-2.0,2.0,2.0,2.0,2.0,2.0,2.0,0.15000000000000002,0.0,0.0,0.0,0.0,0.037500000000000006,-0.15000000000000002,-0.07500000000000001,-0.07500000000000001,-0.07500000000000001,-0.15000000000000002,0.0,0.15000000000000002,0.07500000000000001,0.07500000000000001,0.07500000000000001,0.15000000000000002,0.07500000000000001,2.0424144245456466,-1.293133566612821,1.0109869249173382,-1.353637335497112,-0.07158572435050889,0.0,2.130987920999415,-1.2931339382985063,1.0109864445189465,-1.3536412685964785,-0.07158572574003158,0.0,2.3619602237384703,-9.91595902991027e-06,2.3900025927392488e-05,0.0001918512466853456,-4.805823668120775e-08,0.0,-0.15679819570273476,0.08565183640552207,-0.6458571572519475,0.02467559998169975,-0.009441376921324117,0.0,-2.6,-1.5,-1.5,-1.7,-2.6,0.0,2.6,0.8,1.5,1.7,2.6,0.0,-0.17660664883674326,-5.699465905564528,0.17660664883674326,3.6291079105967703,0.14,0.0,0.26,-0.002550579753736186,0.005001105511037994,0.36413563064045806,-0.7853981633974483,0.0,-1.5707963267948966,0.0046547368823318105,-0.06482097255178808,1.9706777847909847,0.0,0.0,0.0,-0.0594121800638403,0.08274558812469274,0.0,0.4035272331593731,0.0021655487665084294
1.0,33.0,2.0,0.0,0.0,0.0,0.0,0.0,-2.0,-2.0,-2.0,-2.0,-2.0,-2.0,2.0,2.0,2.0,2.0,2.0,2.0,0.15000000000000002,0.0,0.0,0.0,0.0,0.037500000000000006,-0.15000000000000002,-0.07500000000000001,-0.07500000000000001,-0.07500000000000001,-0.15000000000000002,0.0,0.15000000000000002,0.07500000000000001,0.07500000000000001,0.07500000000000001,0.15000000000000002,0.07500000000000001,2.103840928092371,-1.293133194918915,1.0109874053237737,-1.353633402284712,-0.07158572296079686,0.0,2.1924144245456465,-1.293133566612821,1.0109869249173382,-1.353637335497112,-0.07158572435050889,0.0,2.361960223769069,-9.916178362101569e-06,2.390039296473745e-05,0.00019185634787399763,-4.8064701153286045e-08,0.0,-0.15679833226341783,0.08564917982518376,-0.6458594922427822,0.024673489650382865,-0.0094413798648793,0.0,-2.6,-1.5,-1.5,-1.7,-2.6,0.0,2.6,0.8,1.5,1.7,2.6,0.0,-0.1768462899169215,-5.87631219548145,0.1768462899169215,3.6890753847958817,0.14,0.0,0.26,-0.002853087677747595,0.004835625909636944,0.3641355958372336,-0.7853981633974483,0.0,-1.5707963267948966,0.004654393082495412,-0.06481619955318962,2.0321043119935047,0.0,0.0,0.0,-0.05751385924277708,0.0827546114834362,0.0,0.4555969970551743,0.002165606098430972
1.0,34.0,2.0,0.0,0.0,0.0,0.0,0.0,-2.0,-2.0,-2.0,-2.0,-2.0,-2.0,2.0,2.0,2.0,2.0,2.0,2.0,0.15000000000000002,0.0,0.0,0.0,0.0,0.037500000000000006,-0.15000000000000002,-0.07500000000000001,-0.07500000000000001,-0.07500000000000001,-0.15000000000000002,0.0,0.15000000000000002,0.07500000000000001,0.07500000000000001,0.07500000000000001,0.15000000000000002,0.07500000000000001,2.165267431639588,-1.2931328232167882,1.0109878857382526,-1.3536294689592756,-0.07158572157089549,0.0,2.253840928092371,-1.293133194918915,1.0109874053237737,-1.353633402284712,-0.07158572296079686,0.0,2.3619602237996817,-9.916397699621937e-06,2.3900760004802457e-05,0.00019186144920535497,-4.807116602782019e-08,0.0,-0.15679846884408608,0.08564652317541487,-0.6458618272951187,0.02467137926145811,-0.009441382808297684,0.0,-2.6,-1.5,-1.5,-1.7,-2.6,0.0,2.6,0.8,1.5,1.7,2.6,0.0,-0.17707714953990525,-6.053389345021356,0.17707714953990525,3.7490901028326986,0.14,0.0,0.26,-0.003144898414019915,0.00465186800694622,0.36413556103110906,-0.7853981633974483,0.0,-1.5707963267948966,0.004654049273585592,-0.0648114264256151,2.0935308391956586,0.0,0.0,0.0,-0.05540630951609948,0.08276363508107587,0.0,0.5058119344026224,0.0021656634335209812
1.0,35.0,2.0,0.0,0.0,0.0,0.0,0.0,-2.0,-2.0,-2.0,-2.0,-2.0,-2.0,2.0,2.0,2.0,2.0,2.0,2.0,0.15000000000000002,0.0,0.0,0.0,0.0,0.037500000000000006,-0.15000000000000002,-0.07500000000000001,-0.07500000000000001,-0.07500000000000001,-0.15000000000000002,0.0,0.15000000000000002,0.07500000000000001,0.07500000000000001,0.07500000000000001,0.15000000000000002,0.07500000000000001,2.2266939351872987,-1.2931324515064404,1.0109883661607748,-1.3536255355207991,-0.07158572018080475,0.0,2.315267431639588,-1.2931328232167882,1.0109878857382526,-1.3536294689592756,-0.07158572157089549,0.0,2.3619602238302755,-9.916617047772691e-06,2.390112704747649e-05,0.0001918665506682321,-4.807763130502702e-08,0.0,-0.15679860544474453,0.08564386645625369,-0.6458641624089341,0.024669268814940696,-0.009441385751579512,0.0,-2.6,-1.5,-1.5,-1.7,-2.6,0.0,2.6,0.8,1.5,1.7,2.6,0.0,-0.1772983909051395,-6.230687735926495,0.1772983909051395,3.8091498316697314,0.14,0.0,0.26,-0.0034249087797409233,0.004450521039640479,0.3641355262220841,-0.7853981633974483,0.0,-1.5707963267948966,0.004653705455602626,-0.06480665316906083,2.1549573663974444,0.0,0.0,0.0,-0.053097927656218236,0.082772658917588,0.0,0.5540116463714995,0.0021657207629122155
1.0,36.0,2.0,0.0,0.0,0.0,0.0,0.0,-2.0,-2.0,-2.0,-2.0,-2.0,-2.0,2.0,2.0,2.0,2.0,2.0,2.0,0.15000000000000002,0.0,0.0,0.0,0.0,0.037500000000000006,-0.15000000000000002,-0.07500000000000001,-0.07500000000000001,-0.07500000000000001,-0.15000000000000002,0.0,0.15000000000000002,0.07500000000000001,0.07500000000000001,0.07500000000000001,0.15000000000000002,0.07500000000000001,2.2881204387355023,-1.2931320797878714,1.0109888465913406,-1.3536216019692797,-0.07158571879052464,0.0,2.3766939351872987,-1.2931324515064404,1.0109883661607748,-1.3536255355207991,-0.07158572018080475,0.0,2.3619602238608826,-9.916836390677641e-06,2.3901494076716823e-05,0.00019187165227887992,-4.808409698447286e-08,0.0,-0.15679874206538477,0.08564120966774605,-0.6458664975842054,0.02466715831084827,-0.009441388694724153,0.0,-2.6,-1.5,-1.5,-1.7,-2.6,0.0,2.6,0.8,1.5,1.7,2.6,0.0,-0.17750921482749843,-6.408196950753994,0.17750921482749843,3.8692524752930124,0.14,0.0,0.26,-0.00369205986838928,0.004232340749394232,0.3641354914101587,-0.7853981633974483,0.0,-1.5707963267948966,0.004653361628545817,-0.0648018797835238,2.216383893598863,0.0,0.0,0.0,-0.050597741366145144,0.08278168299302084,0.0,0.6000447096175421,0.0021657781038808555
1.0,37.0,2.0,0.0,0.0,0.0,0.0,0.0,-2.0,-2.0,-2.0,-2.0,-2.0,-2.0,2.0,2.0,2.0,2.0,2.0,2.0,0.15000000000000002,0.0,0.0,0.0,0.0,0.037500000000000006,-0.15000000000000002,-0.07500000000000001,-0.07500000000000001,-0.07500000000000001,-0.15000000000000002,0.0,0.15000000000000002,0.07500000000000001,0.07500000000000001,0.07500000000000001,0.15000000000000002,0.07500000000000001,2.349546942284198,-1.293131708061081,1.01098932702995,-1.3536176683047139,-0.07158571740005513,0.0,2.438120438735502,-1.2931320797878714,1.0109888465913406,-1.3536216019692797,-0.07158571879052464,0.0,2.361960223891513,-9.917055749486536e-06,2.3901861108788225e-05,0.0001918767540158156,-4.809056306648296e-08,0.0,-0.15679887870601175,0.08563855280980157,-0.6458688328209818,0.02466504774914297,-0.009441391637731798,0.0,-2.6,-1.5,-1.5,-1.7,-2.6,0.0,2.6,0.8,1.5,1.7,2.6,0.0,-0.17770886220814697,-6.585905812962141,0.17770886220814697,3.929396064475128,0.14,0.0,0.26,-0.003945341054130056,0.003998146546337322,0.36413545659533236,-0.7853981633974483,0.0,-1.5707963267948966,0.004653017792415335,-0.06479710626900048,2.277810420799912,0.0,0.0,0.0,-0.04791537135564905,0.08279070730733325,0.0,0.6437688025190624,0.0021658354349773923
1.0,38.0,2.0,0.0,0.0,0.0,0.0,0.0,-2.0,-2.0,-2.0,-2.0,-2.0,-2.0,2.0,2.0,2.0,2.0,2.0,2.0,0.15000000000000002,0.0,0.0,0.0,0.0,0.037500000000000006,-0.15000000000000002,-0.07500000000000001,-0.07500000000000001,-0.07500000000000001,-0.15000000000000002,0.0,0.15000000000000002,0.07500000000000001,0.07500000000000001,0.07500000000000001,0.15000000000000002,0.07500000000000001,2.410973445833387,-1.293131336326069,1.0109898074766024,-1.3536137345270984,-0.07158571600939623,0.0,2.499546942284198,-1.293131708061081,1.01098932702995,-1.3536176683047139,-0.07158571740005513,0.0,2.3619602239221154,-9.917275102938605e-06,2.3902228143246607e-05,0.0001918818558952623,-4.809702988412424e-08,0.0,-0.156799015366635,0.08563589588248906,-0.6458711681192277,0.024662937129851473,-0.009441394580602943,0.0,-2.6,-1.5,-1.5,-1.7,-2.6,0.0,2.6,0.8,1.5,1.7,2.6,0.0,-0.17789661634585338,-6.763802429307994,0.17789661634585338,3.989578747432365,0.14,0.0,0.26,-0.00418379381494342,0.003748818431699998,0.36413542177760544,-0.7853981633974483,0.0,-1.5707963267948966,0.004652673947210537,-0.06479233262548756,2.3392369480005946,0.0,0.0,0.0,-0.045060993049539366,0.08279973186057173,0.0,0.6850507934663241,0.002165892777235001
1.0,39.0,2.0,0.0,0.0,0.0,0.0,0.0,-2.0,-2.0,-2.0,-2.0,-2.0,-2.0,2.0,2.0,2.0,2.0,2.0,2.0,0.15000000000000002,0.0,0.0,0.0,0.0,0.037500000000000006,-0.15000000000000002,-0.07500000000000001,-0.07500000000000001,-0.07500000000000001,-0.15000000000000002,0.0,0.15000000000000002,0.07500000000000001,0.07500000000000001,0.07500000000000001,0.15000000000000002,0.07500000000000001,2.4723999493830693,-1.2931309645828355,1.0109902879312984,-1.3536098006364303,-0.07158571461854792,0.0,2.560973445833387,-1.293131336326069,1.0109898074766024,-1.3536137345270984,-0.07158571600939623,0.0,2.36196022395273,-9.917494461775256e-06,2.3902595164493334e-05,0.00019188695791204358,-4.8103496771371296e-08,0.0,-0.15679915204724193,0.08563323888579377,-0.6458735034789476,0.024660826452968788,-0.009441397523336724,0.0,-2.6,-1.5,-1.5,-1.7,-2.6,0.0,2.6,0.8,1.5,1.7,2.6,0.0,-0.17807180508777307,-6.941874234395767,0.17807180508777307,4.0497987812871745,0.14,0.0,0.26,-0.004406515360022858,0.003485293691205438,0.36413538695697717,-0.7853981633974483,0.0,-1.5707963267948966,0.004652330092931586,-0.06478755885298215,2.4006634752009086,0.0,0.0,0.0,-0.042045298060724434,0.08280875665271001,0.0,0.7237667973155837,0.0021659501131876535
1.0,40.0,2.0,0.0,0.0,0.0,0.0,0.0,-2.0,-2.0,-2.0,-2.0,-2.0,-2.0,2.0,2.0,2.0,2.0,2.0,2.0,0.15000000000000002,0.0,0.0,0.0,0.0,0.037500000000000006,-0.15000000000000002,-0.07500000000000001,-0.07500000000000001,-0.07500000000000001,-0.15000000000000002,0.0,0.15000000000000002,0.07500000000000001,0.07500000000000001,0.07500000000000001,0.15000000000000002,0.07500000000000001,2.524653450896194,-1.2931309646480504,1.0109908496825197,-1.353605259633312,-0.07158571470232944,0.0,2.6,-1.2931309645828355,1.0109902879312984,-1.3536098006364303,-0.07158571461854792,0.0,2.009241616515444,-2.4464093528742126e-09,2.132928157821956e-05,0.00017241837326177623,-1.102221285000527e-09,0.0,-0.13342365523722133,0.08500741486822455,-0.6450055781877886,0.025139265348144032,-0.008036768825530664,0.0,-2.6,-1.5,-1.5,-1.7,-2.6,0.0,2.6,0.8,1.5,1.7,2.6,0.0,-0.17821052365382628,-7.120084758049593,0.17821052365382628,4.101054121880155,0.14,0.0,0.26,-0.004583030483308735,0.0032507356639739043,0.3641353482486929,-0.7853981633974483,0.0,-1.5707963267948966,0.004651963594517655,-0.0647824692873631,2.4529170003574277,0.0,0.0,0.0,-0.03329245585277141,0.07045341271377008,0.0,2.1006821299087264,-2.965282545345583
1.0,41.0,2.0,0.0,0.0,0.0,0.0,0.0,-2.0,-2.0,-2.0,-2.0,-2.0,-2.0,2.0,2.0,2.0,2.0,2.0,2.0,0.15000000000000002,0.0,0.0,0.0,0.0,0.037500000000000006,-0.15000000000000002,-0.07500000000000001,-0.07500000000000001,-0.07500000000000001,-0.15000000000000002,0.0,0.15000000000000002,0.07500000000000001,0.07500000000000001,0.07500000000000001,0.15000000000000002,0.07500000000000001,2.555508616741593,-1.293129889691727,1.0109911452882312,-1.3536027254354888,-0.07158571011692266,0.0,2.6,-1.2931309646480504,1.0109908496825197,-1.353605259633312,-0.07158571470232944,0.0,1.186436611168134,0.00012203261262710985,-7.882818973570238e-06,-4.7305009652512386e-05,5.294571342378607e-07,0.0,-0.07884022603351169,0.08392842847017813,-0.6435230541554461,0.02595712290657626,-0.004752908626801044,0.0,-2.6,-1.5,-1.5,-1.7,-2.6,0.0,2.6,0.8,1.5,1.7,2.6,0.0,-0.17828796798856392,-7.298372726038157,0.17828796798856392,4.131331610045048,0.14,0.0,0.26,-0.004681628381120951,0.0031081281211311445,0.36413532291235784,-0.7853981633974483,0.0,-1.5707963267948966,0.004651682835404229,-0.06477857459170264,2.4837721889535698,0.0,0.0,0.0,-0.018586640337032723,0.04160970012562808,0.0,3.5293957237772844,-6.92249102115408
1.0,42.0,2.0,0.0,0.0,0.0,0.0,0.0,-2.0,-2.0,-2.0,-2.0,-2.0,-2.0,2.0,2.0,2.0,2.0,2.0,2.0,0.15000000000000002,0.0,0.0,0.0,0.0,0.037500000000000006,-0.15000000000000002,-0.07500000000000001,-0.07500000000000001,-0.07500000000000001,-0.15000000000000002,0.0,0.15000000000000002,0.07500000000000001,0.07500000000000001,0.07500000000000001,0.15000000000000002,0.07500000000000001,2.57372827888867,-1.2931275882620359,1.0109911452882312,-1.3536024158215845,-0.07158569962724046,0.0,2.6,-1.293129889691727,1.0109911452882312,-1.3536027254354888,-0.07158571011692266,0.0,0.7005789558458756,8.82539168098051e-05,0.0,1.1872921525268865e-05,4.185885544099151e-07,0.0,-0.046573298783555366,0.08356073167719635,-0.643006687494267,0.02624240846437422,-0.0028090829187507145,0.0,-2.6,-1.5,-1.5,-1.7,-2.6,0.0,2.6,0.8,1.5,1.7,2.6,0.0,-0.17833221764481932,-7.476704943682977,0.17833221764481932,4.149214156315706,0.14,0.0,0.26,-0.004737971066228191,0.0030226343104591577,0.36413531227963036,-0.7853981633974483,0.0,-1.5707963267948966,0.004651494615335348,-0.06477597031238351,2.501991873752073,0.0,0.0,0.0,-0.01061991750129776,0.024573574030301002,0.0,1.912013480576391,-4.088670262878498
1.0,43.0,2.0,0.0,0.0,0.0,0.0,0.0,-2.0,-2.0,-2.0,-2.0,-2.0,-2.0,2.0,2.0,2.0,2.0,2.0,2.0,0.15000000000000002,0.0,0.0,0.0,0.0,0.037500000000000006,-0.15000000000000002,-0.07500000000000001,-0.07500000000000001,-0.07500000000000001,-0.15000000000000002,0.0,0.15000000000000002,0.07500000000000001,0.07500000000000001,0.07500000000000001,0.15000000000000002,0.07500000000000001,2.5844868072059213,-1.2931252958361854,1.0109911452882312,-1.3536021074179594,-0.07158568861260903,0.0,2.6,-1.2931275882620359,1.0109911452882312,-1.3536024158215845,-0.07158569962724046,0.0,0.4136848680793024,8.809902440229389e-05,0.0,1.185212253025647e-05,4.3286379088677474e-07,0.0,-0.02750768294534939,0.0834295357406476,-0.6428274455434995,0.02634130792165071,-0.0016596218525175806,0.0,-2.6,-1.5,-1.5,-1.7,-2.6,0.0,2.6,0.8,1.5,1.7,2.6,0.0,-0.17835793018148263,-7.65506287386446,0.17835793018148263,4.159774973698832,0.14,0.0,0.26,-0.004770710553408811,0.0029717952529157605,0.3641353016870768,-0.7853981633974483,0.0,-1.5707963267948966,0.004651307094969053,-0.06477337622334955,2.512750425198816,0.0,0.0,0.0,-0.006171008799193967,0.014512528136933753,0.0,1.0677380885049104,-2.4146510144081397
1.0,44.0,2.0,0.0,0.0,0.0,0.0,0.0,-2.0,-2.0,-2.0,-2.0,-2.0,-2.0,2.0,2.0,2.0,2.0,2.0,2.0,0.15000000000000002,0.0,0.0,0.0,0.0,0.037500000000000006,-0.15000000000000002,-0.07500000000000001,-0.07500000000000001,-0.07500000000000001,-0.15000000000000002,0.0,0.15000000000000002,0.07500000000000001,0.07500000000000001,0.07500000000000001,0.15000000000000002,0.07500000000000001,2.590839610597675,-1.2931230067707924,1.0109911452882312,-1.353601799465411,-0.07158567728150309,0.0,2.6,-1.2931252958361854,1.0109911452882312,-1.3536021074179594,-0.07158568861260903,0.0,0.24427677787646124,8.803938156196067e-05,0.0,1.1844137444788627e-05,4.414081203526947e-07,0.0,-0.016245315414706075,0.08338217041979558,-0.6427658283141072,0.026375196763846656,-0.0009803004979421935,0.0,-2.6,-1.5,-1.5,-1.7,-2.6,0.0,2.6,0.8,1.5,1.7,2.6,0.0,-0.1783730747646032,-7.833435948629063,0.1783730747646032,4.166011484551852,0.14,0.0,0.26,-0.004789989825757988,0.0029417329851662904,0.3641352911086324,-0.7853981633974483,0.0,-1.5707963267948966,0.004651119827961356,-0.06477078593751191,2.5191032520189864,0.0,0.0,0.0,-0.003634699948937836,0.008571160413618658,0.0,0.6087141240614713,-1.4259282535956228
1.0,45.0,2.0,0.0,0.0,0.0,0.0,0.0,-2.0,-2.0,-2.0,-2.0,-2.0,-2.0,2.0,2.0,2.0,2.0,2.0,2.0,0.15000000000000002,0.0,0.0,0.0,0.0,0.037500000000000006,-0.15000000000000002,-0.07500000000000001,-0.07500000000000001,-0.07500000000000001,-0.15000000000000002,0.0,0.15000000000000002,0.07500000000000001,0.07500000000000001,0.07500000000000001,0.15000000000000002,0.07500000000000001,2.594590877474385,-1.2931207189955087,1.0109911452882312,-1.3536014916854162,-0.07158566576092801,0.0,2.6,-1.2931230067707924,1.0109911452882312,-1.353601799465411,-0.07158567728150309,0.0,0.1442429945744668,8.801580951373067e-05,-5.551115123125783e-17,1.1841004965137958e-05,4.465073795828972e-07,0.0,-0.009593497957078792,0.0833639905637743,-0.6427452643993022,0.026386379509525604,-0.0005789671333451147,0.0,-2.6,-1.5,-1.5,-1.7,-2.6,0.0,2.6,0.8,1.5,1.7,2.6,0.0,-0.17838211179158858,-8.011818060420651,0.17838211179158858,4.169694225391372,0.14,0.0,0.26,-0.004801488619381625,0.002924046646382732,0.36413528053473365,-0.7853981633974483,0.0,-1.5707963267948966,0.0046509326538429424,-0.06476819711145007,2.5228545425066886,0.0,0.0,0.0,-0.0021688864764901616,0.00506297020528188,0.0,0.3517952333874419,-0.8419656500008267
1.0,46.0,2.0,0.0,0.0,0.0,0.0,0.0,-2.0,-2.0,-2.0,-2.0,-2.0,-2.0,2.0,2.0,2.0,2.0,2.0,2.0,0.15000000000000002,0.0,0.0,0.0,0.0,0.037500000000000006,-0.15000000000000002,-0.07500000000000001,-0.07500000000000001,-0.07500000000000001,-0.15000000000000002,0.0,0.15000000000000002,0.07500000000000001,0.07500000000000001,0.07500000000000001,0.15000000000000002,0.07500000000000001,2.5968059630528932,-1.2931184317265536,1.0109911452882312,-1.353601183972533,-0.07158565412720572,0.0,2.6,-1.2931207189955087,1.0109911452882312,-1.3536014916854162,-0.07158566576092801,0.0,0.08517404582692564,8.800646705670045e-05,-5.551115123125783e-17,1.1839786789591411e-05,4.4955170328605884e-07,0.0,-0.005665143397584869,0.08335596192830404,-0.6427390378819166,0.026389623024924716,-0.0003419137296941251,0.0,-2.6,-1.5,-1.5,-1.7,-2.6,0.0,2.6,0.8,1.5,1.7,2.6,0.0,-0.17838758873409974,-8.190205649154752,0.17838758873409974,4.171868883033852,0.14,0.0,0.26,-0.004808451703964238,0.0029137054515505356,0.36413526996175966,-0.7853981633974483,0.0,-1.5707963267948966,0.004650745513696526,-0.06476560885787376,2.525069651806418,0.0,0.0,0.0,-0.001314466202677611,0.00299206922192508,0.0,0.20506086571501214,-0.49701623600563205
1.0,47.0,2.0,0.0,0.0,0.0,0.0,0.0,-2.0,-2.0,-2.0,-2.0,-2.0,-2.0,2.0,2.0,2.0,2.0,2.0,2.0,0.15000000000000002,0.0,0.0,0.0,0.0,0.037500000000000006,-0.15000000000000002,-0.07500000000000001,-0.07500000000000001,-0.07500000000000001,-0.15000000000000002,0.0,0.15000000000000002,0.07500000000000001,0.07500000000000001,0.07500000000000001,0.15000000000000002,0.07500000000000001,2.5981139489360587,-1.2931161446541024,1.0109911452882312,-1.3536008762850809,-0.07158564242584903,0.0,2.6,-1.2931184317265536,1.0109911452882312,-1.353601183972533,-0.07158565412720572,0.0,0.05029442226253232,8.80030617847749e-05,0.0,1.1839367339769313e-05,4.5137585960816057e-07,0.0,-0.003345307512089879,0.08335145834697463,-0.6427378238505402,0.026390085420299827,-0.00020191162549197843,0.0,-2.6,-1.5,-1.5,-1.7,-2.6,0.0,2.6,0.8,1.5,1.7,2.6,0.0,-0.1783909796145259,-8.368596628769279,0.1783909796145259,4.173152995257813,0.14,0.0,0.26,-0.004812756882522915,0.002907714574947595,0.36413525938827895,-0.7853981633974483,0.0,-1.5707963267948966,0.004650558385227364,-0.06476302082596908,2.5263776614770586,0.0,0.0,0.0,-0.0008138113022804205,0.001770563734372079,0.0,0.12015717609532572,-0.2931613170127202
1.0,48.0,2.0,0.0,0.0,0.0,0.0,0.0,-2.0,-2.0,-2.0,-2.0,-2.0,-2.0,2.0,2.0,2.0,2.0,2.0,2.0,0.15000000000000002,0.0,0.0,0.0,0.0,0.037500000000000006,-0.15000000000000002,-0.07500000000000001,-0.07500000000000001,-0.07500000000000001,-0.15000000000000002,0.0,0.15000000000000002,0.07500000000000001,0.07500000000000001,0.07500000000000001,0.15000000000000002,0.07500000000000001,2.5988863015198844,-1.2931138576485508,1.0109911452882312,-1.3536005686056238,-0.07158563068387805,0.0,2.6,-1.2931161446541024,1.0109911452882312,-1.3536008762850809,-0.07158564242584903,0.0,0.02969835333603927,8.80023029775634e-05,0.0,1.1839303913754873e-05,4.5247743446123654e-07,0.0,-0.0019754045318828377,0.08334817546020026,-0.6427383653690715,0.02638957054814939,-0.0001192332556428304,0.0,-2.6,-1.5,-1.5,-1.7,-2.6,0.0,2.6,0.8,1.5,1.7,2.6,0.0,-0.17839314428314873,-8.546989773052427,0.17839314428314873,4.173911236310464,0.14,0.0,0.26,-0.0048154996527854325,0.0029042971701865074,0.3641352488136926,-0.7853981633974483,0.0,-1.5707963267948966,0.004650371259627045,-0.06476043286894868,2.5271500378882217,0.0,0.0,0.0,-0.0005195204694774525,0.0010516699178685727,0.0,0.07062979987271234,-0.17253451596084152
1.0,49.0,2.0,0.0,0.0,0.0,0.0,0.0,-2.0,-2.0,-2.0,-2.0,-2.0,-2.0,2.0,2.0,2.0,2.0,2.0,2.0,0.15000000000000002,0.0,0.0,0.0,0.0,0.037500000000000006,-0.15000000000000002,-0.07500000000000001,-0.07500000000000001,-0.07500000000000001,-0.15000000000000002,0.0,0.15000000000000002,0.07500000000000001,0.07500000000000001,0.07500000000000001,0.15000000000000002,0.07500000000000001,2.5993423679966767,-1.2931115706519691,1.0109911452882312,-1.353600260926369,-0.0715856189172926,0.0,2.6,-1.2931138576485508,1.0109911452882312,-1.3536005686056238,-0.07158563068387805,0.0,0.01753658059196597,8.800280702511709e-05,5.551115123125783e-17,1.1839410384226201e-05,4.5315176390368145e-07,0.0,-0.0011664687020302592,0.08334531326519379,-0.6427395235973881,0.026388710480157587,-7.040952839845041e-05,0.0,-2.6,-1.5,-1.5,-1.7,-2.6,0.0,2.6,0.8,1.5,1.7,2.6,0.0,-0.17839458680878925,-8.725384359861216,0.17839458680878925,4.17435895116341,0.14,0.0,0.26,-0.00481732226478015,0.0029024010591356493,0.36413523823773286,-0.7853981633974483,0.0,-1.5707963267948966,0.004650184133212895,-0.06475784492118494,2.527606128216485,0.0,0.0,0.0,-0.0003462061537251593,0.0006312165831158981,0.0,0.04159543578055036,-0.1009088003406419
1.0,50.0,2.0,0.0,0.0,0.0,0.0,0.0,-2.0,-2.0,-2.0,-2.0,-2.0,-2.0,2.0,2.0,2.0,2.0,2.0,2.0,0.15000000000000002,0.0,0.0,0.0,0.0,0.037500000000000006,-0.15000000000000002,-0.07500000000000001,-0.07500000000000001,-0.07500000000000001,-0.15000000000000002,0.0,0.15000000000000002,0.07500000000000001,0.07500000000000001,0.07500000000000001,0.15000000000000002,0.07500000000000001,2.5996116706900763,-1.293109283636638,1.0109911452882312,-1.3535999532435872,-0.0715856071355525,0.0,2.6,-1.2931115706519691,1.0109911452882312,-1.353600260926369,-0.0715856189172926,0.0,0.01035517540250782,8.800395228109048e-05,0.0,1.1839603115570974e-05,4.5357370550091707e-07,0.0,-0.0006887926813938033,0.08334259484206924,-0.6427408995652829,0.02638772742735281,-4.157856586361978e-05,0.0,-2.6,-1.5,-1.5,-1.7,-2.6,0.0,2.6,0.8,1.5,1.7,2.6,0.0,-0.1783956035719527,-8.90377996343317,0.1783956035719527,4.1746233018206444,0.14,0.0,0.26,-0.004818602359819613,0.002901403883156056,0.3641352276602714,-0.7853981633974483,0.0,-1.5707963267948966,0.00464999700433967,-0.06475525695126547,2.527875454776156,0.0,0.0,0.0,-0.00024402315922600337,0.0003894450299038406,0.0,0.02452391867979742,-0.0580251727708938
1.0,51.0,2.0,0.0,0.0,0.0,0.0,0.0,-2.0,-2.0,-2.0,-2.0,-2.0,-2.0,2.0,2.0,2.0,2.0,2.0,2.0,0.15000000000000002,0.0,0.0,0.0,0.0,0.037500000000000006,-0.15000000000000002,-0.07500000000000001,-0.07500000000000001,-0.07500000000000001,-0.15000000000000002,0.0,0.15000000000000002,0.07500000000000001,0.07500000000000001,0.07500000000000001,0.15000000000000002,0.07500000000000001,2.599770691236995,-1.2931069965884505,1.0109911452882312,-1.3535996455553803,-0.07158559534424574,0.0,2.6,-1.293109283636638,1.0109911452882312,-1.3535999532435872,-0.0715856071355525,0.0,0.006114627451217216,8.80054397592589e-05,0.0,1.1839841889613179e-05,4.5384663429893547e-07,0.0,-0.00040672721425581026,0.08333992481824515,-0.6427423530567091,0.026386699940147553,-2.4553807099615457e-05,0.0,-2.6,-1.5,-1.5,-1.7,-2.6,0.0,2.6,0.8,1.5,1.7,2.6,0.0,-0.178396369147403,-9.082176332580573,0.178396369147403,4.174779377202763,0.14,0.0,0.26,-0.004819562382022946,0.002900937761867867,0.3641352170812431,-0.7853981633974483,0.0,-1.5707963267948966,0.0046498098722204785,-0.0647526689432014,2.5280344991986223,0.0,0.0,0.0,-0.00018373810807492674,0.000256140116883661,0.0,0.014468412276258391,-0.03199317912484311
1.0,52.0,2.0,0.0,0.0,0.0,0.0,0.0,-2.0,-2.0,-2.0,-2.0,-2.0,-2.0,2.0,2.0,2.0,2.0,2.0,2.0,0.15000000000000002,0.0,0.0,0.0,0.0,0.037500000000000006,-0.15000000000000002,-0.07500000000000001,-0.07500000000000001,-0.07500000000000001,-0.15000000000000002,0.0,0.15000000000000002,0.07500000000000001,0.07500000000000001,0.07500000000000001,0.15000000000000002,0.07500000000000001,2.5998645912792244,-1.2931047094998642,1.0109911452882312,-1.3535993378607338,-0.07158558354667154,0.0,2.6,-1.2931069965884505,1.0109911452882312,-1.3535996455553803,-0.07158559534424574,0.0,0.003610626290936651,8.800711664133654e-05,0.0,1.1840106149837992e-05,4.540316135001027e-07,0.0,-0.0002401695229074698,0.08333727063446254,-0.6427438345318744,0.026385656037648815,-1.4500729837582266e-05,0.0,-2.6,-1.5,-1.5,-1.7,-2.6,0.0,2.6,0.8,1.5,1.7,2.6,0.0,-0.17839698647230878,-9.260573319052883,0.17839698647230878,4.174871516925373,0.14,0.0,0.26,-0.004820333496327937,0.0029007853226660886,0.3641352065006129,-0.7853981633974483,0.0,-1.5707963267948966,0.00464962273645442,-0.06475008088844128,2.5281284231224075,0.0,0.0,0.0,-0.00014815797738654268,0.00018866609458234842,0.0,0.008539231365212174,-0.016193765352315013
1.0,53.0,2.0,0.0,0.0,0.0,0.0,0.0,-2.0,-2.0,-2.0,-2.0,-2.0,-2.0,2.0,2.0,2.0,2.0,2.0,2.0,0.15000000000000002,0.0,0.0,0.0,0.0,0.037500000000000006,-0.15000000000000002,-0.07500000000000001,-0.07500000000000001,-0.07500000000000001,-0.15000000000000002,0.0,0.15000000000000002,0.07500000000000001,0.07500000000000001,0.07500000000000001,0.15000000000000002,0.07500000000000001,2.599920038314631,-1.2931024223667,1.0109911452882312,-1.3535990301590854,-0.07158557174477706,0.0,2.6,-1.2931047094998642,1.0109911452882312,-1.3535993378607338,-0.07158558354667154,0.0,0.0021320386455126942,8.80089009650531e-05,0.0,1.1840384856159902e-05,4.541646933375947e-07,0.0,-0.00014181859582407935,0.08333462134709717,-0.6427453263346556,0.026384605861055156,-8.564443441772739e-06,0.0,-2.6,-1.5,-1.5,-1.7,-2.6,0.0,2.6,0.8,1.5,1.7,2.6,0.0,-0.17839751628110997,-9.438970835333993,0.17839751628110997,4.174925903213395,0.14,0.0,0.26,-0.004820993092683669,0.0029008181539480764,0.3641351959183613,-0.7853981633974483,0.0,-1.5707963267948966,0.004649435596827502,-0.06474749278224806,2.52818389404345,0.0,0.0,0.0,-0.00012715411228603202,0.00015851945125487462,0.0,0.00504092762412256,-0.007235194398593713
1.0,54.0,2.0,0.0,0.0,0.0,0.0,0.0,-2.0,-2.0,-2.0,-2.0,-2.0,-2.0,2.0,2.0,2.0,2.0,2.0,2.0,0.15000000000000002,0.0,0.0,0.0,0.0,0.037500000000000006,-0.15000000000000002,-0.07500000000000001,-0.07500000000000001,-0.07500000000000001,-0.15000000000000002,0.0,0.15000000000000002,0.07500000000000001,0.07500000000000001,0.07500000000000001,0.15000000000000002,0.07500000000000001,2.599952779234035,-1.293100135186585,1.0109911452882312,-1.353598722450116,-0.07158555993971136,0.0,2.6,-1.2931024223667,1.0109911452882312,-1.3535990301590854,-0.07158557174477706,0.0,0.0012589474266065173,8.801074719735902e-05,0.0,1.1840671907695222e-05,4.542671516758264e-07,0.0,-8.374327354262319e-05,0.08333197338143668,-0.6427468220830672,0.02638355316556236,-5.059109873567228e-06,0.0,-2.6,-1.5,-1.5,-1.7,-2.6,0.0,2.6,0.8,1.5,1.7,2.6,0.0,-0.17839799442130674,-9.6173688297553,0.17839799442130674,4.174957996452618,0.14,0.0,0.26,-0.004821586849519459,0.0029009604074699998,0.3641351853344775,-0.7853981633974483,0.0,-1.5707963267948966,0.004649248453220712,-0.06474490462192993,2.5282166588514303,0.0,0.0,0.0,-0.0001147536472245747,0.00014655636170806275,0.0,0.0029761116147497546,-0.002871141491234848
1.0,55.0,2.0,0.0,0.0,0.0,0.0,0.0,-2.0,-2.0,-2.0,-2.0,-2.0,-2.0,2.0,2.0,2.0,2.0,2.0,2.0,0.15000000000000002,0.0,0.0,0.0,0.0,0.037500000000000006,-0.15000000000000002,-0.07500000000000001,-0.07500000000000001,-0.07500000000000001,-0.15000000000000002,0.0,0.15000000000000002,0.07500000000000001,0.07500000000000001,0.07500000000000001,0.15000000000000002,0.07500000000000001,2.5999721124189983,-1.2930978479581512,1.0109911452882312,-1.353598414733641,-0.07158554813215236,0.0,2.6,-1.293100135186585,1.0109911452882312,-1.353598722450116,-0.07158555993971136,0.0,0.0007433957926430352,8.801262947324973e-05,5.551115123125783e-17,1.1840963795611836e-05,4.543515440184461e-07,0.0,-4.945035504571138e-05,0.08332932563326688,-0.6427483194186907,0.026382499389874605,-2.989239847865637e-06,0.0,-2.6,-1.5,-1.5,-1.7,-2.6,0.0,2.6,0.8,1.5,1.7,2.6,0.0,-0.17839844205593244,-9.795767271811233,0.17839844205593244,4.174976925861586,0.14,0.0,0.26,-0.004822141733810681,0.00290116728586663,0.3641351747489548,-0.7853981633974483,0.0,-1.5707963267948966,0.004649061305566689,-0.06474231640593661,2.528236015927239,0.0,0.0,0.0,-0.00010743231016796528,0.00014214957099270787,0.0,0.0017571208935862614,-0.0010576297716851724
1.0,56.0,2.0,0.0,0.0,0.0,0.0,0.0,-2.0,-2.0,-2.0,-2.0,-2.0,-2.0,2.0,2.0,2.0,2.0,2.0,2.0,0.15000000000000002,0.0,0.0,0.0,0.0,0.037500000000000006,-0.15000000000000002,-0.07500000000000001,-0.07500000000000001,-0.07500000000000001,-0.15000000000000002,0.0,0.15000000000000002,0.07500000000000001,0.07500000000000001,0.07500000000000001,0.15000000000000002,0.07500000000000001,2.5999835284708506,-1.2930955606806016,1.0109911452882312,-1.3535981070095537,-0.07158553632250002,0.0,2.6,-1.2930978479581512,1.0109911452882312,-1.353598414733641,-0.07158554813215236,0.0,0.00043896770823739377,8.801453285758876e-05,0.0,1.184125854103435e-05,4.544252795899048e-07,0.0,-2.9200726648908178e-05,0.08332667780148625,-0.6427498174405952,0.026381445111994167,-1.7670003072219408e-06,0.0,-2.6,-1.5,-1.5,-1.7,-2.6,0.0,2.6,0.8,1.5,1.7,2.6,0.0,-0.1783988716804758,-9.974166143491708,0.1783988716804758,4.174988082157946,0.14,0.0,0.26,-0.0048226736679807276,0.002901412332226281,0.3641351641617895,-0.7853981633974483,0.0,-1.5707963267948966,0.004648874153826411,-0.06473972813336405,2.5282474558718073,0.0,0.0,0.0,-0.00010310989040585028,0.00014058219311188105,0.0,0.001037380742907601,-0.0003761706913984358
1.0,57.0,2.0,0.0,0.0,0.0,0.0,0.0,-2.0,-2.0,-2.0,-2.0,-2.0,-2.0,2.0,2.0,2.0,2.0,2.0,2.0,0.15000000000000002,0.0,0.0,0.0,0.0,0.037500000000000006,-0.15000000000000002,-0.07500000000000001,-0.07500000000000001,-0.07500000000000001,-0.15000000000000002,0.0,0.15000000000000002,0.07500000000000001,0.07500000000000001,0.07500000000000001,0.15000000000000002,0.07500000000000001,2.5999902695347705,-1.2930932733534697,1.0109911452882312,-1.3535977992777908,-0.07158552451099028,0.0,2.6,-1.2930955606806016,1.0109911452882312,-1.3535981070095537,-0.07158553632250002,0.0,0.00025920596864165905,8.80164486758428e-05,5.551115123125783e-17,1.1841554948169297e-05,4.544927291474708e-07,0.0,-1.7243525245354955e-05,0.08332402983069863,-0.6427513157882196,0.026380390578553826,-1.04527938818411e-06,0.0,-2.6,-1.5,-1.5,-1.7,-2.6,0.0,2.6,0.8,1.5,1.7,2.6,0.0,-0.17839929067333016,-10.152565434165037,0.17839929067333016,4.1749946485084655,0.14,0.0,0.26,-0.0048231920540039415,0.0029016799217700903,0.36413515357297954,-0.7853981633974483,0.0,-1.5707963267948966,0.004648686997976951,-0.06473713980368251,2.5282542208300818,0.0,0.0,0.0,-0.00010055828504551556,0.00014003344065163074,0.0,0.0006123852864803325,-0.00013170059046007515
1.0,58.0,2.0,0.0,0.0,0.0,0.0,0.0,-2.0,-2.0,-2.0,-2.0,-2.0,-2.0,2.0,2.0,2.0,2.0,2.0,2.0,0.15000000000000002,0.0,0.0,0.0,0.0,0.037500000000000006,-0.15000000000000002,-0.07500000000000001,-0.07500000000000001,-0.07500000000000001,-0.15000000000000002,0.0,0.15000000000000002,0.07500000000000001,0.07500000000000001,0.07500000000000001,0.15000000000000002,0.07500000000000001,2.5999942500650657,-1.2930909859764805,1.0109911452882312,-1.3535974915383153,-0.0715855126977623,0.0,2.6,-1.2930932733534697,1.0109911452882312,-1.3535977992777908,-0.07158552451099028,0.0,0.00015305845900643068,8.80183718111327e-05,0.0,1.184185235046653e-05,4.545564719760331e-07,0.0,-1.0182919588919132e-05,0.083321381730796,-0.6427528143084674,0.026379335902152384,-6.191101829901176e-07,0.0,-2.6,-1.5,-1.5,-1.7,-2.6,0.0,2.6,0.8,1.5,1.7,2.6,0.0,-0.17839970339151973,-10.330965137556557,0.17839970339151973,4.174998504541966,0.14,0.0,0.26,-0.004823702443867622,0.002901960827051617,0.36413514298252325,-0.7853981633974483,0.0,-1.5707963267948966,0.004648499838005235,-0.06473455141658074,2.5282582252562316,0.0,0.0,0.0,-9.90523654964548e-05,0.00013984356359579518,0.0,0.00036142069177458325,-4.557049340053396e-05
1.0,59.0,2.0,0.0,0.0,0.0,0.0,0.0,-2.0,-2.0,-2.0,-2.0,-2.0,-2.0,2.0,2.0,2.0,2.0,2.0,2.0,0.15000000000000002,0.0,0.0,0.0,0.0,0.037500000000000006,-0.15000000000000002,-0.07500000000000001,-0.07500000000000001,-0.07500000000000001,-0.15000000000000002,0.0,0.15000000000000002,0.07500000000000001,0.07500000000000001,0.07500000000000001,0.15000000000000002,0.07500000000000001,2.599996600527861,-1.2930886985494718,1.0109911452882312,-1.3535971837911054,-0.07158550088289813,0.0,2.6,-1.2930909859764805,1.0109911452882312,-1.3535974915383153,-0.0715855126977623,0.0,9.037941601597325e-05,8.802029928933752e-05,0.0,1.1842150336810464e-05,4.5461802902683096e-07,0.0,-6.013704318044724e-06,0.08331873352247506,-0.642754312931795,0.026378281137754936,-3.6746148784880894e-07,0.0,-2.6,-1.5,-1.5,-1.7,-2.6,0.0,2.6,0.8,1.5,1.7,2.6,0.0,-0.1784001124079856,-10.509365249964542,0.1784001124079856,4.175000760160717,0.14,0.0,0.26,-0.004824208116178999,0.002902249598716873,0.36413513239042006,-0.7853981633974483,0.0,-1.5707963267948966,0.004648312673903261,-0.06473196297187457,2.5282605996163006,0.0,0.0,0.0,-9.816395180717308e-05,0.0001397792953864283,0.0,0.0002132192854276127,-1.5424370248052263e-05
1.0,60.0,2.0,0.0,0.0,0.0,0.0,0.0,-2.0,-2.0,-2.0,-2.0,-2.0,-2.0,2.0,2.0,2.0,2.0,2.0,2.0,0.15000000000000002,0.0,0.0,0.0,0.0,0.037500000000000006,-0.15000000000000002,-0.07500000000000001,-0.07500000000000001,-0.07500000000000001,-0.15000000000000002,0.0,0.15000000000000002,0.07500000000000001,0.07500000000000001,0.07500000000000001,0.15000000000000002,0.07500000000000001,2.5999979884520985,-1.2930864110723477,1.0109911452882312,-1.353596876036148,-0.07158548906644613,0.0,2.6,-1.2930886985494718,1.0109911452882312,-1.3535971837911054,-0.07158550088289813,0.0,5.336806789683126e-05,8.802222933812498e-05,0.0,1.1842448671903205e-05,4.546782978386342e-07,0.0,-3.5518256253131533e-06,0.08331608522323185,-0.6427558116243476,0.0263772263138437,-2.188654781363813e-07,0.0,-2.6,-1.5,-1.5,-1.7,-2.6,0.0,2.6,0.8,1.5,1.7,2.6,0.0,-0.1784005192421425,-10.687765769206685,0.1784005192421425,4.175002070750997,0.14,0.0,0.26,-0.004824711007079187,0.002902543018617661,0.36413512179666924,-0.7853981633974483,0.0,-1.5707963267948966,0.004648125505666312,-0.06472937446945479,2.5282620114391814,0.0,0.0,0.0,-9.764019766045351e-05,0.0001397588897275184,0.0,0.0001257009952126964,-4.897358138371624e-06
1.0,61.0,2.0,0.0,0.0,0.0,0.0,0.0,-2.0,-2.0,-2.0,-2.0,-2.0,-2.0,2.0,2.0,2.0,2.0,2.0,2.0,0.15000000000000002,0.0,0.0,0.0,0.0,0.037500000000000006,-0.15000000000000002,-0.07500000000000001,-0.07500000000000001,-0.07500000000000001,-0.15000000000000002,0.0,0.15000000000000002,0.07500000000000001,0.07500000000000001,0.07500000000000001,0.15000000000000002,0.07500000000000001,2.5999988080069416,-1.293084123545051,1.0109911452882312,-1.3535965682734357,-0.07158547724843484,0.0,2.6,-1.2930864110723477,1.0109911452882312,-1.353596876036148,-0.07158548906644613,0.0,3.151323694286456e-05,8.802416092604237e-05,5.551115123125783e-17,1.1842747216508909e-05,4.5473780897405443e-07,0.0,-2.0981116965353337e-06,0.08331343684510094,-0.6427573103687368,0.026376171445792615,-1.3112107614819324e-07,0.0,-2.6,-1.5,-1.5,-1.7,-2.6,0.0,2.6,0.8,1.5,1.7,2.6,0.0,-0.17840092479126884,-10.866166693997954,0.17840092479126884,4.1750028233118845,0.14,0.0,0.26,-0.004825212259943548,0.002902839186263861,0.3641351112012704,-0.7853981633974483,0.0,-1.5707963267948966,0.004647938333291611,-0.06472678590925728,2.52826285489401,0.0,0.0,0.0,-9.733179032078709e-05,0.0001397537889968413,0.0,7.401776151994e-05,-1.224175362505523e-06
1.0,62.0,2.0,0.0,0.0,0.0,0.0,0.0,-2.0,-2.0,-2.0,-2.0,-2.0,-2.0,2.0,2.0,2.0,2.0,2.0,2.0,0.15000000000000002,0.0,0.0,0.0,0.0,0.037500000000000006,-0.15000000000000002,-0.07500000000000001,-0.07500000000000001,-0.07500000000000001,-0.15000000000000002,0.0,0.15000000000000002,0.07500000000000001,0.07500000000000001,0.07500000000000001,0.15000000000000002,0.07500000000000001,2.5999992919453416,-1.2930818359675476,1.0109911452882312,-1.3535962605029634,-0.07158546542888099,0.0,2.6,-1.293084123545051,1.0109911452882312,-1.3535965682734357,-0.07158547724843484,0.0,1.860817780907734e-05,8.80260934403021e-05,5.551115123125783e-17,1.184304589142704e-05,4.547968735216455e-07,0.0,-1.2397087036388963e-06,0.08331078839584312,-0.6427588091555583,0.02637511654220318,-7.930895133688716e-08,0.0,-2.6,-1.5,-1.5,-1.7,-2.6,0.0,2.6,0.8,1.5,1.7,2.6,0.0,-0.178401329585248,-11.044568023583201,0.178401329585248,4.175003246362483,0.14,0.0,0.26,-0.004825712549988435,0.002903136979315861,0.3641351006042234,-0.7853981633974483,0.0,-1.5707963267948966,0.004647751156777416,-0.06472419729124251,2.528263362733721,0.0,0.0,0.0,-9.715055499404102e-05,0.00013975402744292412,0.0,4.349647841905835e-05,5.7227059874730146e-08
1.0,63.0,2.0,0.0,0.0,0.0,0.0,0.0,-2.0,-2.0,-2.0,-2.0,-2.0,-2.0,2.0,2.0,2.0,2.0,2.0,2.0,0.15000000000000002,0.0,0.0,0.0,0.0,0.037500000000000006,-0.15000000000000002,-0.07500000000000001,-0.07500000000000001,-0.07500000000000001,-0.15000000000000002,0.0,0.15000000000000002,0.07500000000000001,0.07500000000000001,0.07500000000000001,0.15000000000000002,0.07500000000000001,2.599999577705588,-1.2930795483398168,1.0109911452882312,-1.3535959527247285,-0.07158545360779446,0.0,2.6,-1.2930818359675476,1.0109911452882312,-1.3535962605029634,-0.07158546542888099,0.0,1.0987869420700667e-05,8.802802651264319e-05,5.551115123125783e-17,1.1843344641160325e-05,4.5485567681268854e-07,0.0,-7.328306844499483e-07,0.08330813988029402,-0.6427603079795517,0.026374061607997594,-4.8714481531059356e-08,0.0,-2.6,-1.5,-1.5,-1.7,-2.6,0.0,2.6,0.8,1.5,1.7,2.6,0.0,-0.1784017339370009,-11.222969757520202,0.1784017339370009,4.175003474841039,0.14,0.0,0.26,-0.004826212275961634,0.002903435734973757,0.3641350900055281,-0.7853981633974483,0.0,-1.5707963267948966,0.004647563976123016,-0.06472160861538798,2.5282636723965948,0.0,0.0,0.0,-9.704442069935482e-05,0.00013975612848226193,0.0,2.547223072468796e-05,5.042494410759969e-07
1.0,64.0,2.0,0.0,0.0,0.0,0.0,0.0,-2.0,-2.0,-2.0,-2.0,-2.0,-2.0,2.0,2.0,2.0,2.0,2.0,2.0,0.15000000000000002,0.0,0.0,0.0,0.0,0.037500000000000006,-0.15000000000000002,-0.07500000000000001,-0.07500000000000001,-0.07500000000000001,-0.15000000000000002,0.0,0.15000000000000002,0.07500000000000001,0.07500000000000001,0.07500000000000001,0.15000000000000002,0.07500000000000001,2.5999997464436166,-1.2930772606618461,1.0109911452882312,-1.3535956449387292,-0.07158544178518103,0.0,2.6,-1.2930795483398168,1.0109911452882312,-1.3535959527247285,-0.07158545360779446,0.0,6.488153517838999e-06,8.802995994039442e-05,0.0,1.1843643440617724e-05,4.549143270467563e-07,0.0,-4.335245331072707e-07,0.08330549130137649,-0.6427618068377219,0.026373006646016918,-3.064882691979907e-08,0.0,-2.6,-1.5,-1.5,-1.7,-2.6,0.0,2.6,0.8,1.5,1.7,2.6,0.0,-0.17840213803132285,-11.401371895551526,0.17840213803132285,4.175003588427243,0.14,0.0,0.26,-0.0048267116733439015,0.0029037350618199703,0.3641350794051843,-0.7853981633974483,0.0,-1.5707963267948966,0.004647376791327296,-0.06471901988167805,2.5282638650385603,0.0,0.0,0.0,-9.698263726765077e-05,0.00013975887949436397,0.0,1.4828023608970398e-05,6.602429044894748e-07
1.0,65.0,2.0,0.0,0.0,0.0,0.0,0.0,-2.0,-2.0,-2.0,-2.0,-2.0,-2.0,2.0,2.0,2.0,2.0,2.0,2.0,0.15000000000000002,0.0,0.0,0.0,0.0,0.037500000000000006,-0.15000000000000002,-0.07500000000000001,-0.07500000000000001,-0.07500000000000001,-0.15000000000000002,0.0,0.15000000000000002,0.07500000000000001,0.07500000000000001,0.07500000000000001,0.15000000000000002,0.07500000000000001,2.5999998460811957,-1.293074972933628,1.0109911452882312,-1.3535953371449645,-0.07158542996104407,0.0,2.6,-1.2930772606618461,1.0109911452882312,-1.3535956449387292,-0.07158544178518103,0.0,3.831116262158627e-06,8.803189358758123e-05,0.0,1.1843942280750919e-05,4.5497288877376227e-07,0.0,-2.5678743632102986e-07,0.08330284266080076,-0.6427633057283666,0.026371951657901533,-1.9981314136677888e-08,0.0,-2.6,-1.5,-1.5,-1.7,-2.6,0.0,2.6,0.8,1.5,1.7,2.6,0.0,-0.17840254197734415,-11.57977443752887,0.17840254197734415,4.175003634171157,0.14,0.0,0.26,-0.004827210881198101,0.0029040347287023973,0.36413506880319185,-0.7853981633974483,0.0,-1.5707963267948966,0.004647189602390161,-0.06471643109010505,2.528263988581383,0.0,0.0,0.0,-9.694704511176155e-05,0.0001397618573260655,0.0,8.542117413412598e-06,7.146796083645594e-07
1.0,66.0,2.0,0.0,0.0,0.0,0.0,0.0,-2.0,-2.0,-2.0,-2.0,-2.0,-2.0,2.0,2.0,2.0,2.0,2.0,2.0,0.15000000000000002,0.0,0.0,0.0,0.0,0.037500000000000006,-0.15000000000000002,-0.07500000000000001,-0.07500000000000001,-0.07500000000000001,-0.15000000000000002,0.0,0.15000000000000002,0.07500000000000001,0.07500000000000001,0.07500000000000001,0.15000000000000002,0.07500000000000001,2.5999999049156504,-1.2930726851551566,1.0109911452882312,-1.3535950293434336,-0.07158541813538553,0.0,2.6,-1.293074972933628,1.0109911452882312,-1.3535953371449645,-0.07158542996104407,0.0,2.2621623236837575e-06,8.803382737881948e-05,0.0,1.1844241132735744e-05,4.550313994959153e-07,0.0,-1.5242610176574376e-07,0.08330019395962802,-0.6427648046504648,0.026370896644630416,-1.3682330895274196e-08,0.0,-2.6,-1.5,-1.5,-1.7,-2.6,0.0,2.6,0.8,1.5,1.7,2.6,0.0,-0.1784029458395119,-11.758177383368382,0.1784029458395119,4.175003639855371,0.14,0.0,0.26,-0.004827709981648292,0.0029043345991139444,0.36413505819955055,-0.7853981633974483,0.0,-1.5707963267948966,0.004647002409311299,-0.06471384224066241,2.528264071322386,0.0,0.0,0.0,-9.692692026330718e-05,0.00013976491445964121,0.0,4.829963629049416e-06,7.337120581734323e-07
1.0,67.0,2.0,0.0,0.0,0.0,0.0,0.0,-2.0,-2.0,-2.0,-2.0,-2.0,-2.0,2.0,2.0,2.0,2.0,2.0,2.0,0.15000000000000002,0.0,0.0,0.0,0.0,0.037500000000000006,-0.15000000000000002,-0.07500000000000001,-0.07500000000000001,-0.07500000000000001,-0.15000000000000002,0.0,0.15000000000000002,0.07500000000000001,0.07500000000000001,0.07500000000000001,0.15000000000000002,0.07500000000000001,2.599999939656268,-1.293070397326429,1.0109911452882312,-1.3535947215341357,-0.07158540630820653,0.0,2.6,-1.2930726851551566,1.0109911452882312,-1.3535950293434336,-0.07158541813538553,0.0,1.335710711787515e-06,8.803576128321722e-05,0.0,1.1844540007424631e-05,4.5508988176337756e-07,0.0,-9.080189968457493e-08,0.08329754519847223,-0.6427663036034292,0.026369841606769126,-9.962920567743279e-09,0.0,-2.6,-1.5,-1.5,-1.7,-2.6,0.0,2.6,0.8,1.5,1.7,2.6,0.0,-0.17840334965588542,-11.936580733024268,0.17840334965588542,4.175003621885228,0.14,0.0,0.26,-0.0048282090231927585,0.0029046345924401765,0.36413504759426046,-0.7853981633974483,0.0,-1.5707963267948966,0.004646815212090424,-0.06471125333334639,2.528264129970855,0.0,0.0,0.0,-9.691592964156115e-05,0.00013976799930375124,0.0,2.6377492190476914e-06,7.403625864070215e-07
1.0,68.0,2.0,0.0,0.0,0.0,0.0,0.0,-2.0,-2.0,-2.0,-2.0,-2.0,-2.0,2.0,2.0,2.0,2.0,2.0,2.0,0.15000000000000002,0.0,0.0,0.0,0.0,0.037500000000000006,-0.15000000000000002,-0.07500000000000001,-0.07500000000000001,-0.07500000000000001,-0.15000000000000002,0.0,0.15000000000000002,0.07500000000000001,0.07500000000000001,0.07500000000000001,0.15000000000000002,0.07500000000000001,2.5999999601697157,-1.2930681094474428,1.0109911452882312,-1.3535944137170708,-0.07158539447950768,0.0,2.6,-1.293070397326429,1.0109911452882312,-1.3535947215341357,-0.07158540630820653,0.0,7.886502830167614e-07,8.803769526441463e-05,0.0,1.1844838893021459e-05,4.551483483006291e-07,0.0,-5.441354486780778e-08,0.08329489637776014,-0.6427678025868776,0.02636878654468049,-7.766723215696431e-09,0.0,-2.6,-1.5,-1.5,-1.7,-2.6,0.0,2.6,0.8,1.5,1.7,2.6,0.0,-0.17840375344894072,-12.114984486473208,0.17840375344894072,4.17500358994792,0.14,0.0,0.26,-0.004828708034472636,0.002904934661074256,0.3641350369873214,-0.7853981633974483,0.0,-1.5707963267948966,0.004646628010727321,-0.06470866436815387,2.5282641743934575,0.0,0.0,0.0,-9.69103332715271e-05,0.0001397710939577133,0.0,1.3431288081733328e-06,7.427169508903396e-07
1.0,69.0,2.0,0.0,0.0,0.0,0.0,0.0,-2.0,-2.0,-2.0,-2.0,-2.0,-2.0,2.0,2.0,2.0,2.0,2.0,2.0,0.15000000000000002,0.0,0.0,0.0,0.0,0.037500000000000006,-0.15000000000000002,-0.07500000000000001,-0.07500000000000001,-0.07500000000000001,-0.15000000000000002,0.0,0.15000000000000002,0.07500000000000001,0.07500000000000001,0.07500000000000001,0.15000000000000002,0.07500000000000001,2.599999972282162,-1.293065821518196,1.0109911452882312,-1.3535941058922383,-0.0715853826492893,0.0,2.6,-1.2930681094474428,1.0109911452882312,-1.3535944137170708,-0.07158539447950768,0.0,4.656165588056329e-07,8.803962931119846e-05,0.0,1.1845137791288707e-05,4.55206807439534e-07,0.0,-3.2926691854061274e-08,0.08329224749763867,-0.6427693016006478,0.026367731458534206,-6.4699677082026355e-09,0.0,-2.6,-1.5,-1.5,-1.7,-2.6,0.0,2.6,0.8,1.5,1.7,2.6,0.0,-0.1784041572319506,-12.293388643705159,0.1784041572319506,4.175003549763635,0.14,0.0,0.26,-0.004829207032401449,0.0029052347769018805,0.3641350263787331,-0.7853981633974483,0.0,-1.5707963267948966,0.00464644080522213,-0.06470607534508341,2.5282642104163604,0.0,0.0,0.0,-9.690792237337931e-05,0.0001397741919725976,0.0,5.786155554687866e-07,7.435235722355778e-07
1.0,70.0,2.0,0.0,0.0,0.0,0.0,0.0,-2.0,-2.0,-2.0,-2.0,-2.0,-2.0,2.0,2.0,2.0,2.0,2.0,2.0,0.15000000000000002,0.0,0.0,0.0,0.0,0.037500000000000006,-0.15000000000000002,-0.07500000000000001,-0.07500000000000001,-0.07500000000000001,-0.15000000000000002,0.0,0.15000000000000002,0.07500000000000001,0.07500000000000001,0.07500000000000001,0.15000000000000002,0.07500000000000001,2.5999999794339,-1.2930635335386866,1.0109911452882312,-1.3535937980596378,-0.07158537081755156,0.0,2.6,-1.293065821518196,1.0109911452882312,-1.3535941058922383,-0.0715853826492893,0.0,2.748683751855839e-07,8.804156340175284e-05,0.0,1.1845436694676859e-05,4.5526526310341933e-07,0.0,-2.0239019340153664e-08,0.08328959855821991,-0.6427708006446263,0.026366676348440025,-5.704323556208209e-09,0.0,-2.6,-1.5,-1.5,-1.7,-2.6,0.0,2.6,0.8,1.5,1.7,2.6,0.0,-0.1784045610127543,-12.471793204717914,0.1784045610127543,4.17500350471009,0.14,0.0,0.26,-0.004829706026968473,0.0029055349233204305,0.3641350157684956,-0.7853981633974483,0.0,-1.5707963267948966,0.004646253595574471,-0.06470348626413135,2.528264241479858,0.0,0.0,0.0,-9.690739288359396e-05,0.00013977729140069313,0.0,1.2707754848406694e-07,7.438627429258091e-07
1.0,71.0,2.0,0.0,0.0,0.0,0.0,0.0,-2.0,-2.0,-2.0,-2.0,-2.0,-2.0,2.0,2.0,2.0,2.0,2.0,2.0,0.15000000000000002,0.0,0.0,0.0,0.0,0.037500000000000006,-0.15000000000000002,-0.07500000000000001,-0.07500000000000001,-0.07500000000000001,-0.15000000000000002,0.0,0.15000000000000002,0.07500000000000001,0.07500000000000001,0.07500000000000001,0.15000000000000002,0.07500000000000001,2.5999999836563905,-1.2930612455089137,1.0109911452882312,-1.3535934902192692,-0.07158535898429451,0.0,2.6,-1.2930635335386866,1.0109911452882312,-1.3535937980596378,-0.07158537081755156,0.0,1.622334708303629e-07,8.80434975477351e-05,0.0,1.1845735612525665e-05,4.553237188302646e-07,0.0,-1.274717476391204e-08,0.08328694955965087,-0.6427722997187001,0.02636562121449515,-5.252295553445679e-09,0.0,-2.6,-1.5,-1.5,-1.7,-2.6,0.0,2.6,0.8,1.5,1.7,2.6,0.0,-0.1784049647959808,-12.650198169513894,0.1784049647959808,4.17500345678179,0.14,0.0,0.26,-0.004830205024072283,0.0029058350905249736,0.3641350051566091,-0.7853981633974483,0.0,-1.5707963267948966,0.004646066381784381,-0.06470089712529764,2.52826426961541,0.0,0.0,0.0,-9.690797436512355e-05,0.00013978039122812639,0.0,-1.39555567102434e-07,7.439585839822543e-07
1.0,72.0,2.0,0.0,0.0,0.0,0.0,0.0,-2.0,-2.0,-2.0,-2.0,-2.0,-2.0,2.0,2.0,2.0,2.0,2.0,2.0,0.15000000000000002,0.0,0.0,0.0,0.0,0.037500000000000006,-0.15000000000000002,-0.07500000000000001,-0.07500000000000001,-0.07500000000000001,-0.15000000000000002,0.0,0.15000000000000002,0.07500000000000001,0.07500000000000001,0.07500000000000001,0.15000000000000002,0.07500000000000001,2.599999986149189,-1.293058957428876,1.0109911452882312,-1.3535931823711325,-0.07158534714951814,0.0,2.6,-1.2930612455089137,1.0109911452882312,-1.3535934902192692,-0.07158535898429451,0.0,9.5723684297368e-08,8.804543174351087e-05,0.0,1.1846034544030215e-05,4.553821758278351e-07,0.0,-8.323417381626213e-09,0.08328430050193887,-0.6427737988228505,0.02636456605672591,-4.98545505193807e-09,0.0,-2.6,-1.5,-1.5,-1.7,-2.6,0.0,2.6,0.8,1.5,1.7,2.6,0.0,-0.1784053685843635,-12.828603538098257,0.1784053685843635,4.175003407156472,0.14,0.0,0.26,-0.004830704027196467,0.00290613527272539,0.36413499454307297,-0.7853981633974483,0.0,-1.5707963267948966,0.004645879163851757,-0.06469830792858067,2.5282642960225723,0.0,0.0,0.0,-9.69092118485726e-05,0.00013978349125711573,0.0,-2.9699602777100154e-07,7.440069574424397e-07
1.0,73.0,2.0,0.0,0.0,0.0,0.0,0.0,-2.0,-2.0,-2.0,-2.0,-2.0,-2.0,2.0,2.0,2.0,2.0,2.0,2.0,0.15000000000000002,0.0,0.0,0.0,0.0,0.037500000000000006,-0.15000000000000002,-0.07500000000000001,-0.07500000000000001,-0.07500000000000001,-0.15000000000000002,0.0,0.15000000000000002,0.07500000000000001,0.07500000000000001,0.07500000000000001,0.15000000000000002,0.07500000000000001,2.599999987620622,-1.293056669298572,1.0109911452882312,-1.3535928745152275,-0.07158533531322242,0.0,2.6,-1.293058957428876,1.0109911452882312,-1.3535931823711325,-0.07158534714951814,0.0,5.645030632904239e-08,8.804736597534113e-05,0.0,1.184633348352837e-05,4.554406351255951e-07,0.0,-5.711327015469865e-09,0.0832816513850748,-0.6427752979570727,0.026363510875142923,-4.827965533978443e-09,0.0,-2.6,-1.5,-1.5,-1.7,-2.6,0.0,2.6,0.8,1.5,1.7,2.6,0.0,-0.17840577237951746,-13.007009310477775,0.17840577237951746,4.175003356529581,0.14,0.0,0.26,-0.004831203038398719,0.0029064354665023413,0.36413498392788746,-0.7853981633974483,0.0,-1.5707963267948966,0.0046456919417764775,-0.06469571867397889,2.528264321409672,0.0,0.0,0.0,-9.691083694862712e-05,0.0001397865914647988,0.0,-3.900240130860766e-07,7.440498439375762e-07
1.0,74.0,2.0,0.0,0.0,0.0,0.0,0.0,-2.0,-2.0,-2.0,-2.0,-2.0,-2.0,2.0,2.0,2.0,2.0,2.0,2.0,0.15000000000000002,0.0,0.0,0.0,0.0,0.037500000000000006,-0.15000000000000002,-0.07500000000000001,-0.07500000000000001,-0.07500000000000001,-0.15000000000000002,0.0,0.15000000000000002,0.07500000000000001,0.07500000000000001,0.07500000000000001,0.15000000000000002,0.07500000000000001,2.599999988488949,-1.293054381118001,1.0109911452882312,-1.3535925666515534,-0.07158532347540728,0.0,2.6,-1.293056669298572,1.0109911452882312,-1.3535928745152275,-0.07158533531322242,0.0,3.325976286513754e-08,8.804930025685387e-05,-5.551115123125783e-17,1.184663241998729e-05,4.554990967235273e-07,0.0,-4.169006442167356e-09,0.08327900220912476,-0.642776797121324,0.026362455669778153,-4.735046637730786e-09,0.0,-2.6,-1.5,-1.5,-1.7,-2.6,0.0,2.6,0.8,1.5,1.7,2.6,0.0,-0.1784061761823961,-13.18541548666017,0.1784061761823961,4.175003305311764,0.14,0.0,0.26,-0.004831702058894084,0.0029067356698367214,0.3641349733110524,-0.7853981633974483,0.0,-1.5707963267948966,0.004645504715558475,-0.06469312936149044,2.528264346194967,0.0,0.0,0.0,-9.691269087230836e-05,0.00013978969176507927,0.0,-4.449416834972908e-07,7.440720673130598e-07
1.0,75.0,2.0,0.0,0.0,0.0,0.0,0.0,-2.0,-2.0,-2.0,-2.0,-2.0,-2.0,2.0,2.0,2.0,2.0,2.0,2.0,0.15000000000000002,0.0,0.0,0.0,0.0,0.037500000000000006,-0.15000000000000002,-0.07500000000000001,-0.07500000000000001,-0.07500000000000001,-0.15000000000000002,0.0,0.15000000000000002,0.07500000000000001,0.07500000000000001,0.07500000000000001,0.15000000000000002,0.07500000000000001,2.599999989001147,-1.2930520928871618,1.0109911452882312,-1.3535922587801101,-0.07158531163607264,0.0,2.6,-1.293054381118001,1.0109911452882312,-1.3535925666515534,-0.07158532347540728,0.0,1.9565972893330507e-08,8.80512345764195e-05,0.0,1.1846931369352554e-05,4.555575618785968e-07,0.0,-3.2583782001956116e-09,0.08327635297407551,-0.6427782963156049,0.026361400440632718,-4.680256305229393e-09,0.0,-2.6,-1.5,-1.5,-1.7,-2.6,0.0,2.6,0.8,1.5,1.7,2.6,0.0,-0.17840657999356255,-13.363822066653734,0.17840657999356255,4.1750032537455075,0.14,0.0,0.26,-0.004832201089400164,0.002907035881535985,0.3641349626925676,-0.7853981633974483,0.0,-1.5707963267948966,0.004645317485197565,-0.06469053999111427,2.528264370625436,0.0,0.0,0.0,-9.691467994787928e-05,0.00013979279210767553,0.0,-4.773781370204233e-07,7.4408222310203e-07
1.0,76.0,2.0,0.0,0.0,0.0,0.0,0.0,-2.0,-2.0,-2.0,-2.0,-2.0,-2.0,2.0,2.0,2.0,2.0,2.0,2.0,0.15000000000000002,0.0,0.0,0.0,0.0,0.037500000000000006,-0.15000000000000002,-0.07500000000000001,-0.07500000000000001,-0.07500000000000001,-0.15000000000000002,0.0,0.15000000000000002,0.07500000000000001,0.07500000000000001,0.07500000000000001,0.15000000000000002,0.07500000000000001,2.599999989303055,-1.2930498046060532,1.0109911452882312,-1.353591950900898,-0.07158529979521842,0.0,2.6,-1.2930520928871618,1.0109911452882312,-1.3535922587801101,-0.07158531163607264,0.0,1.1479919306689367e-08,8.805316893867321e-05,0.0,1.1847230336772818e-05,4.556160302724895e-07,0.0,-2.7207586063436225e-09,0.08327370367994807,-0.642779795539904,0.026360345187718664,-4.647980583316184e-09,0.0,-2.6,-1.5,-1.5,-1.7,-2.6,0.0,2.6,0.8,1.5,1.7,2.6,0.0,-0.1784069838133493,-13.542229050467084,0.1784069838133493,4.175003201973997,0.14,0.0,0.26,-0.004832700130340745,0.0029073361008960814,0.3641349520724329,-0.7853981633974483,0.0,-1.5707963267948966,0.004645130250694075,-0.06468795056284975,2.5282643948469166,0.0,0.0,0.0,-9.691674881961987e-05,0.00013979589250220375,0.0,-4.965292177416814e-07,7.440946867714494e-07
1.0,77.0,2.0,0.0,0.0,0.0,0.0,0.0,-2.0,-2.0,-2.0,-2.0,-2.0,-2.0,2.0,2.0,2.0,2.0,2.0,2.0,0.15000000000000002,0.0,0.0,0.0,0.0,0.037500000000000006,-0.15000000000000002,-0.07500000000000001,-0.07500000000000001,-0.07500000000000001,-0.15000000000000002,0.0,0.15000000000000002,0.07500000000000001,0.07500000000000001,0.07500000000000001,0.15000000000000002,0.07500000000000001,2.599999989480789,-1.293047516274674,1.0109911452882312,-1.3535916430139163,-0.07158528795284455,0.0,2.6,-1.2930498046060532,1.0109911452882312,-1.353591950900898,-0.07158529979521842,0.0,6.70517772162285e-09,8.805510334319866e-05,0.0,1.1847529300848536e-05,4.556745017783397e-07,0.0,-2.4033990939516536e-09,0.08327105432671274,-0.6427812947942361,0.02635928991102382,-4.6289996519451635e-09,0.0,-2.6,-1.5,-1.5,-1.7,-2.6,0.0,2.6,0.8,1.5,1.7,2.6,0.0,-0.17840738764195332,-13.720636438109038,0.17840738764195332,4.175003150081784,0.14,0.0,0.26,-0.004833199181966629,0.0029076363275012587,0.3641349414506484,-0.7853981633974483,0.0,-1.5707963267948966,0.004644943012047334,-0.06468536107669459,2.528264418945526,0.0,0.0,0.0,-9.69188649668773e-05,0.00013979899303880703,0.0,-5.078753417819826e-07,7.441287847888278e-07
1.0,78.0,2.0,0.0,0.0,0.0,0.0,0.0,-2.0,-2.0,-2.0,-2.0,-2.0,-2.0,2.0,2.0,2.0,2.0,2.0,2.0,0.15000000000000002,0.0,0.0,0.0,0.0,0.037500000000000006,-0.15000000000000002,-0.07500000000000001,-0.07500000000000001,-0.07500000000000001,-0.15000000000000002,0.0,0.15000000000000002,0.07500000000000001,0.07500000000000001,0.07500000000000001,0.15000000000000002,0.07500000000000001,2.599999989585199,-1.2930452278930233,1.0109911452882312,-1.3535913351191649,-0.07158527610895091,0.0,2.6,-1.293047516274674,1.0109911452882312,-1.3535916430139163,-0.07158528795284455,0.0,3.8857341711131495e-09,8.805703779490859e-05,0.0,1.184782827222397e-05,4.5573297651648333e-07,0.0,-2.2160925532303193e-09,0.08326840491440683,-0.6427827940785783,0.026358234610563677,-4.617868661913265e-09,0.0,-2.6,-1.5,-1.5,-1.7,-2.6,0.0,2.6,0.8,1.5,1.7,2.6,0.0,-0.17840779147949046,-13.899044229588528,0.17840779147949046,4.175003098118792,0.14,0.0,0.26,-0.004833698244425461,0.002907936561106053,0.364134930827214,-0.7853981633974483,0.0,-1.5707963267948966,0.004644755769257623,-0.064682771532648,2.5282644429721146,0.0,0.0,0.0,-9.692100891189881e-05,0.0001398020935715986,0.0,-5.145468051637181e-07,7.441278699737292e-07
1.0,79.0,2.0,0.0,0.0,0.0,0.0,0.0,-2.0,-2.0,-2.0,-2.0,-2.0,-2.0,2.0,2.0,2.0,2.0,2.0,2.0,0.15000000000000002,0.0,0.0,0.0,0.0,0.037500000000000006,-0.15000000000000002,-0.07500000000000001,-0.07500000000000001,-0.07500000000000001,-0.15000000000000002,0.0,0.15000000000000002,0.07500000000000001,0.07500000000000001,0.07500000000000001,0.15000000000000002,0.07500000000000001,2.599999989646312,-1.2930429394611003,1.0109911452882312,-1.3535910272166436,-0.07158526426353744,0.0,2.6,-1.2930452278930233,1.0109911452882312,-1.3535913351191649,-0.07158527610895091,0.0,2.2208744931441403e-09,8.80589722833669e-05,0.0,1.1848127261626651e-05,4.55791455226079e-07,0.0,-2.105587625777661e-09,0.08326575544298716,-0.6427842933929556,0.02635717928632431,-4.611373401183634e-09,0.0,-2.6,-1.5,-1.5,-1.7,-2.6,0.0,2.6,0.8,1.5,1.7,2.6,0.0,-0.17840819532602945,-14.077452424914558,0.17840819532602945,4.175003046114504,0.14,0.0,0.26,-0.004834197317804916,0.0029082368015655464,0.36413492020212934,-0.7853981633974483,0.0,-1.5707963267948966,0.004644568522324713,-0.06468018193070832,2.528264466956708,0.0,0.0,0.0,-9.692316935705492e-05,0.00013980519420838937,0.0,-5.185068374657931e-07,7.441528297865915e-07
1.0,80.0,2.0,0.0,0.0,0.0,0.0,0.0,-2.0,-2.0,-2.0,-2.0,-2.0,-2.0,2.0,2.0,2.0,2.0,2.0,2.0,0.15000000000000002,0.0,0.0,0.0,0.0,0.037500000000000006,-0.15000000000000002,-0.07500000000000001,-0.07500000000000001,-0.07500000000000001,-0.15000000000000002,0.0,0.15000000000000002,0.07500000000000001,0.07500000000000001,0.07500000000000001,0.15000000000000002,0.07500000000000001,2.5999999896818586,-1.2930406509789032,1.0109911452882312,-1.3535907193063526,-0.07158525241660402,0.0,2.6,-1.2930429394611003,1.0109911452882312,-1.3535910272166436,-0.07158526426353744,0.0,1.237782235745923e-09,8.806090680826828e-05,0.0,1.1848426258384559e-05,4.558499369488868e-07,0.0,-2.0404285939701426e-09,0.08326310591250845,-0.6427857927373368,0.02635612393832583,-4.607615195287152e-09,0.0,-2.6,-1.5,-1.5,-1.7,-2.6,0.0,2.6,0.8,1.5,1.7,2.6,0.0,-0.17840859918161103,-14.255861024096168,0.17840859918161103,4.175002994086326,0.14,0.0,0.26,-0.004834696402156741,0.0029085370487941823,0.3641349095753946,-0.7853981633974483,0.0,-1.5707963267948966,0.004644381271248689,-0.06467759227087505,2.528264490917038,0.0,0.0,0.0,-9.692533958105543e-05,0.00013980829490193298,0.0,-5.208537601220087e-07,7.441664504666962e-07
1.0,81.0,2.0,0.0,0.0,0.0,0.0,0.0,-2.0,-2.0,-2.0,-2.0,-2.0,-2.0,2.0,2.0,2.0,2.0,2.0,2.0,0.15000000000000002,0.0,0.0,0.0,0.0,0.037500000000000006,-0.15000000000000002,-0.07500000000000001,-0.07500000000000001,-0.07500000000000001,-0.15000000000000002,0.0,0.15000000000000002,0.07500000000000001,0.07500000000000001,0.07500000000000001,0.15000000000000002,0.07500000000000001,2.599999989702309,-1.2930383624464314,1.0109911452882312,-1.3535904113882913,-0.07158524056815059,0.0,2.6,-1.2930406509789032,1.0109911452882312,-1.3535907193063526,-0.07158525241660402,0.0,6.572673940854069e-10,8.80628413801321e-05,0.0,1.1848725262358917e-05,4.559084230433341e-07,0.0,-2.002048344395532e-09,0.08326045632288998,-0.6427872921117662,0.026355068566536743,-4.6054733644270705e-09,0.0,-2.6,-1.5,-1.5,-1.7,-2.6,0.0,2.6,0.8,1.5,1.7,2.6,0.0,-0.17840900304625923,-14.434270027142427,0.17840900304625923,4.175002942044538,0.14,0.0,0.26,-0.004835195497511581,0.002908837302741659,0.3641348989470097,-0.7853981633974483,0.0,-1.5707963267948966,0.004644194016029295,-0.0646750025531462,2.528264514863574,0.0,0.0,0.0,-9.692751556711343e-05,0.0001398113956758708,0.0,-5.222366539214818e-07,7.441857450781776e-07
