PierreExeter/rl_reach/code/res_episode.csv
episode,timestep,action1,action2,action3,action4,action5,action6,action1_min,action2_min,action3_min,action4_min,action5_min,action6_min,action1_max,action2_max,action3_max,action4_max,action5_max,action6_max,pyb_action1,pyb_action2,pyb_action3,pyb_action4,pyb_action5,pyb_action6,pyb_action1_min,pyb_action2_min,pyb_action3_min,pyb_action4_min,pyb_action5_min,pyb_action6_min,pyb_action1_max,pyb_action2_max,pyb_action3_max,pyb_action4_max,pyb_action5_max,pyb_action6_max,joint1_pos,joint2_pos,joint3_pos,joint4_pos,joint5_pos,joint6_pos,desired_joint1_pos,desired_joint2_pos,desired_joint3_pos,desired_joint4_pos,desired_joint5_pos,desired_joint6_pos,joint1_vel,joint2_vel,joint3_vel,joint4_vel,joint5_vel,joint6_vel,joint1_tor,joint2_tor,joint3_tor,joint4_tor,joint5_tor,joint6_tor,joint1_min,joint2_min,joint3_min,joint4_min,joint5_min,joint6_min,joint1_max,joint2_max,joint3_max,joint4_max,joint5_max,joint6_max,reward,return,distance,orientation,goal_x,goal_y,goal_z,tip_x,tip_y,tip_z,goal_yaw,goal_pitch,goal_roll,tip_yaw,tip_pitch,tip_roll,done,term1,term2,vel_dist,vel_pos,collision,acc_dist,acc_pos
1.0,0.0,0.21359828114509583,0.233526811003685,-0.9304412007331848,0.9171128273010254,-0.4068358540534973,-0.1791735589504242,-1.0,-1.0,-1.0,-1.0,-1.0,-1.0,1.0,1.0,1.0,1.0,1.0,1.0,0.010679914616048336,0.011676340363919735,-0.04652206227183342,0.04585564136505127,-0.020341793075203896,-0.008958677761256695,-0.05,-0.05,-0.05,-0.05,-0.05,-0.05,0.05,0.05,0.05,0.05,0.05,0.05,0.8091480269927145,1.6719336393858926,-1.3516846782168956,2.572158985563776,-0.16905273410334673,1.6661357038866988,0.8483961030802417,1.7193496118195988,-1.531655581359167,2.7524391268252564,-0.2477926153760195,1.6314792411937165,0.10822197819481497,0.1247788748255424,-0.4751905109962618,0.4745915382592309,-0.20512487075862593,-0.09140162242077932,-1.0,0.7272218425552825,0.113245482186849,0.26369473081150346,-0.0945732145077864,-0.061726662728102344,-6.28318530718,0.820304748437,-6.28318530718,0.523598775598,-6.28318530718,1.1344640138,6.28318530718,5.46288055874,6.28318530718,5.75958653158,6.28318530718,5.14872129338,-0.6159841445962287,-0.6159841445962287,0.6159841445962287,0.04159105962412751,0.7,0.0,1.0,0.5678979932854031,-0.6014247402663033,0.9834528548826756,0.0,0.7071067811865475,0.0,-0.0054697207627889405,0.6868051010445579,0.030393262920634132,0.0,0.0,0.0,30.233570848857077,64.25339225984227,0.0,7256.057003725698,15420.814142362146
1.0,1.0,-0.9873090982437134,0.4257332980632782,-0.8419262170791626,-0.9500442147254944,-0.11877543479204178,0.7826642394065857,-1.0,-1.0,-1.0,-1.0,-1.0,-1.0,1.0,1.0,1.0,1.0,1.0,1.0,-0.04936545714735985,0.02128666453063488,-0.04209631308913231,-0.04750221222639084,-0.0059387716464698315,0.039133213460445404,-0.05,-0.05,-0.05,-0.05,-0.05,-0.05,0.05,0.05,0.05,0.05,0.05,0.05,0.7757141100149643,1.6828994271167461,-1.399282571874751,2.527145593429353,-0.17577031850455085,1.708543324678892,0.5623207412559152,1.778366962039067,-1.5621662436625572,2.3346479244318217,-0.1987465923356959,1.8618017711889259,-0.3851065843518347,0.13944854123263092,-0.42846930157694374,-0.5065720922006828,-0.06046630345741347,0.40331170134219446,-1.0,1.0,0.15057722987452185,0.3777516316421845,-0.1092299179195429,-0.14097663704202335,-6.28318530718,0.820304748437,-6.28318530718,0.523598775598,-6.28318530718,1.1344640138,6.28318530718,5.46288055874,6.28318530718,5.75958653158,6.28318530718,5.14872129338,-0.6190812598202037,-1.2350654044164324,0.6190812598202037,0.06190697313251955,0.7,0.0,1.0,0.5722906863357737,-0.6057635323097644,1.0015749246267125,0.0,0.7071067811865475,0.0,0.001471581819805452,0.6620712204086862,0.003263467515317655,0.0,0.0,0.0,-0.15485576119874667,0.9572490277337858,0.0,-7293.2223864133975,-15191.074375706035
1.0,2.0,0.28930723667144775,-0.6921535134315491,-0.3992728292942047,0.6637263894081116,-0.5668807625770569,0.3752630352973938,-1.0,-1.0,-1.0,-1.0,-1.0,-1.0,1.0,1.0,1.0,1.0,1.0,1.0,0.014465361833572388,-0.034607674926519394,-0.019963642582297325,0.03318632021546364,-0.028344038873910904,0.01876315288245678,-0.05,-0.05,-0.05,-0.05,-0.05,-0.05,0.05,0.05,0.05,0.05,0.05,0.05,0.7760078949913349,1.692436495287382,-1.421878700334738,2.55921365281938,-0.20782972985863915,1.7297662389519595,0.8480409191828262,1.5098610524841491,-1.4991007847862377,2.6930771945066714,-0.31749051287410535,1.8023590890911758,0.04700096046436335,0.06802660689451191,-0.20339302245903332,0.3522709499457661,-0.28857770245528785,0.1910338161558323,1.0,-1.0,-0.10734837687210176,-0.3746470532514495,0.1458500664667741,0.06520791443681603,-6.28318530718,0.820304748437,-6.28318530718,0.523598775598,-6.28318530718,1.1344640138,6.28318530718,5.46288055874,6.28318530718,5.75958653158,6.28318530718,5.14872129338,-0.6124995821385995,-1.8475649865550319,0.6124995821385995,0.09456031382348958,0.7,0.0,1.0,0.5793376313920066,-0.6002616488618374,1.016801304340316,0.0,0.7071067811865475,0.0,0.015451474190581925,0.6422686000387277,0.032784966514592964,0.0,0.0,0.0,0.3290838840802113,0.8828544547134751,0.0,116.14551486694991,-17.854697524874574
1.0,3.0,0.9126170873641968,0.8874081373214722,-0.3000339865684509,0.7525556683540344,0.5516021847724915,-0.087588369846344,-1.0,-1.0,-1.0,-1.0,-1.0,-1.0,1.0,1.0,1.0,1.0,1.0,1.0,0.04563085362315178,0.04437040910124779,-0.015001699328422546,0.03762778267264366,0.027580110356211662,-0.004379418678581715,-0.05,-0.05,-0.05,-0.05,-0.05,-0.05,0.05,0.05,0.05,0.05,0.05,0.05,0.7902922551928295,1.7110939710898665,-1.4388359846073353,2.6017743643022926,-0.17663420552078202,1.7248126990131407,1.0041621631070938,1.914288540793621,-1.4968871969768507,2.7473525661825984,-0.06992917807758084,1.707869145559051,0.15511991227549052,0.2042857153588531,-0.15258529660782433,0.38310216538865927,0.28079937368724295,-0.044588298563394406,1.0,1.0,0.057131322359228146,-0.4923727544209255,-0.14804455519192933,0.08877945366692283,-6.28318530718,0.820304748437,-6.28318530718,0.523598775598,-6.28318530718,1.1344640138,6.28318530718,5.46288055874,6.28318530718,5.75958653158,6.28318530718,5.14872129338,-0.6058423190468339,-2.453407305601866,0.6058423190468339,0.0866559754262535,0.7,0.0,1.0,0.5829741666177176,-0.59402268104912,1.022066360561802,0.0,0.7071067811865475,0.0,-0.003395781673852919,0.64794500174234,0.033129744974706485,0.0,0.0,0.0,0.3328631545882754,0.4468498764444529,0.0,0.9070249219353954,-104.64109878456533
1.0,4.0,0.06620276719331741,0.14189274609088898,-0.37517425417900085,0.6538074016571045,0.5722370743751526,0.7946557998657227,-1.0,-1.0,-1.0,-1.0,-1.0,-1.0,1.0,1.0,1.0,1.0,1.0,1.0,0.0033101383596658707,0.007094637490808964,-0.018758712336421013,0.032690372318029404,0.02861185371875763,0.03973279148340225,-0.05,-0.05,-0.05,-0.05,-0.05,-0.05,0.05,0.05,0.05,0.05,0.05,0.05,0.7969949040571465,1.7277036494356044,-1.4600724762053743,2.6387499783479327,-0.14427101341053078,1.7697542732125568,0.8068429469911589,1.7465671585439113,-1.5326295462894404,2.7652262258924396,-0.03357493692699387,1.923476656430152,0.02931826710597504,0.12825260831437674,-0.1912119063168066,0.33282179226464303,0.2913177792949714,0.40453258741472436,-1.0,-1.0,-0.06088182906094923,0.4149154733239334,0.11611000451793713,-0.12370548699559404,-6.28318530718,0.820304748437,-6.28318530718,0.523598775598,-6.28318530718,1.1344640138,6.28318530718,5.46288055874,6.28318530718,5.75958653158,6.28318530718,5.14872129338,-0.6085446861053417,-3.0619519917072076,0.6085446861053417,0.08007360304641276,0.7,0.0,1.0,0.5895906650124647,-0.5977661469606323,1.028496443330683,0.0,0.7071067811865475,0.0,-0.007254480090257085,0.6495389807336095,0.015247921321693825,0.0,0.0,0.0,-0.13511835292538965,0.4978392121282889,0.0,-112.31556180327962,12.237440564120643
1.0,5.0,0.8111023306846619,0.39433205127716064,0.06312642246484756,-0.11297806352376938,-0.22974497079849243,-0.06565643846988678,-1.0,-1.0,-1.0,-1.0,-1.0,-1.0,1.0,1.0,1.0,1.0,1.0,1.0,0.040555115789175034,0.019716603681445122,0.0031563211232423782,-0.0056489030830562115,-0.011487248353660107,-0.0032828219700604677,-0.05,-0.05,-0.05,-0.05,-0.05,-0.05,0.05,0.05,0.05,0.05,0.05,0.05,0.7924049499494666,1.7362062158877838,-1.456496136327289,2.6329140461838025,-0.15725378891340897,1.766039875011602,0.9997704830030216,1.82628666784283,-1.4442908705891624,2.6105054629326516,-0.2017072551788313,1.7533401633622545,-0.01834115106015382,0.11439913604600048,0.032119120363491294,-0.05896499322126336,-0.11679199109088695,-0.03344261075243318,1.0,1.0,0.061757251085511375,-0.4367133842170947,-0.1251022529108879,0.08563510270703417,-6.28318530718,0.820304748437,-6.28318530718,0.523598775598,-6.28318530718,1.1344640138,6.28318530718,5.46288055874,6.28318530718,5.75958653158,6.28318530718,5.14872129338,-0.6058546434961738,-3.667806635203381,0.6058546434961738,0.09236841271057038,0.7,0.0,1.0,0.5891766143989258,-0.5943631429437058,1.038864901387644,0.0,0.7071067811865475,0.0,0.0049908680946387386,0.6435737174032681,0.034121916679809135,0.0,0.0,0.0,0.1345021304583971,0.5460238015159072,0.0,64.70891601210882,11.5643014530284
1.0,6.0,-0.26681774854660034,-0.7222051620483398,0.28711074590682983,0.07354924827814102,0.9348925948143005,-0.8164905905723572,-1.0,-1.0,-1.0,-1.0,-1.0,-1.0,1.0,1.0,1.0,1.0,1.0,1.0,-0.013340887613594532,-0.03611025959253311,0.014355537481606007,0.00367746246047318,0.04674462974071503,-0.0408245287835598,-0.05,-0.05,-0.05,-0.05,-0.05,-0.05,0.05,0.05,0.05,0.05,0.05,0.05,0.7937987652261164,1.7515469664812215,-1.4402803904613792,2.6366160603141364,-0.10438082839878617,1.7198634418694962,0.725700511881494,1.5556549179251182,-1.384718448919259,2.6513013584861684,0.07646935979016617,1.561917231093803,-0.02080953206894893,0.12117973518667051,0.14593911367404117,0.038643677160204594,0.475925461750572,-0.4156479230939297,-1.0,-1.0,-0.0796265131440487,0.4142157703297497,0.10093874359825573,-0.04808193795314295,-6.28318530718,0.820304748437,-6.28318530718,0.523598775598,-6.28318530718,1.1344640138,6.28318530718,5.46288055874,6.28318530718,5.75958653158,6.28318530718,5.14872129338,-0.5939824359453041,-4.261789071148685,0.5939824359453041,0.07251216235016113,0.7,0.0,1.0,0.5898078067114629,-0.5826287772894619,1.0348786843783633,0.0,0.7071067811865475,0.0,-0.0064105224611893065,0.6676531507400313,0.04881898214269494,0.0,0.0,0.0,0.5936103775434853,0.620450777838147,0.0,110.18597930042118,17.86247431733753
1.0,7.0,0.736700177192688,0.8024996519088745,0.3296721577644348,0.5849370360374451,-0.3942764401435852,0.5801164507865906,-1.0,-1.0,-1.0,-1.0,-1.0,-1.0,1.0,1.0,1.0,1.0,1.0,1.0,0.03683501109480858,0.040124982595443726,0.0164836086332798,0.029246851801872253,-0.01971382275223732,0.02900582365691662,-0.05,-0.05,-0.05,-0.05,-0.05,-0.05,0.05,0.05,0.05,0.05,0.05,0.05,0.8022647002943796,1.7595200251676595,-1.4216184121573616,2.66969719209395,-0.12667538569369968,1.7500889651948435,0.9779738207001593,1.9521718794584402,-1.3578623472949802,2.7828503193234977,-0.20294994215997275,1.8648925601540793,0.10019447943259484,0.11118599794113178,0.16799649222773141,0.2977728946128557,-0.20072551253081322,0.3021147235769367,1.0,1.0,0.04702358020264356,-0.4764502850584141,-0.12056538348301506,0.06335158317840117,-6.28318530718,0.820304748437,-6.28318530718,0.523598775598,-6.28318530718,1.1344640138,6.28318530718,5.46288055874,6.28318530718,5.75958653158,6.28318530718,5.14872129338,-0.5940995772273124,-4.8558886483759975,0.5940995772273124,0.07230617704180918,0.7,0.0,1.0,0.5936117203295308,-0.5827403581701174,1.045271586786778,0.0,0.7071067811865475,0.0,-0.012458177476702255,0.663696884423356,0.04014267702128864,0.0,0.0,0.0,-0.0058570641004174195,0.553386459848541,0.0,-143.87218599453666,-16.09543631750544
1.0,8.0,-0.7538334131240845,-0.34820425510406494,-0.7124100923538208,0.6180022358894348,0.3193991184234619,-0.4556107521057129,-1.0,-1.0,-1.0,-1.0,-1.0,-1.0,1.0,1.0,1.0,1.0,1.0,1.0,-0.03769167140126228,-0.017410213127732277,-0.03562050685286522,0.03090011142194271,0.015969956293702126,-0.022780537605285645,-0.05,-0.05,-0.05,-0.05,-0.05,-0.05,0.05,0.05,0.05,0.05,0.05,0.05,0.8139237163354652,1.7747924394017724,-1.4619260457649605,2.704648020254371,-0.10861533822425919,1.7255177750428552,0.6138063432880682,1.672468959528998,-1.5997209464216877,2.8241977492036634,-0.046825604225189055,1.6361862771684152,0.0744998746518399,0.11432333473281824,-0.36285252417051483,0.3146032021385449,0.1626074086246843,-0.23508288914326328,-1.0,-1.0,-0.03236479220488268,0.404498977016801,0.12496678825587718,-0.060885152539866316,-6.28318530718,0.820304748437,-6.28318530718,0.523598775598,-6.28318530718,1.1344640138,6.28318530718,5.46288055874,6.28318530718,5.75958653158,6.28318530718,5.14872129338,-0.5826697233240137,-5.438558371700012,0.5826697233240137,0.10206939953323493,0.7,0.0,1.0,0.5946872039061615,-0.5706557551903599,1.052585459259193,0.0,0.7071067811865475,0.0,-0.009367842352380914,0.6598568904280598,0.08066714953753351,0.0,0.0,0.0,0.571492695164938,0.7083202394480836,0.0,138.56394222368527,37.18410710389024
1.0,9.0,-0.2305406928062439,0.012279336340725422,0.29865771532058716,0.6206086874008179,0.06654714792966843,0.12048251926898956,-1.0,-1.0,-1.0,-1.0,-1.0,-1.0,1.0,1.0,1.0,1.0,1.0,1.0,-0.01152703445404768,0.0006139668403193355,0.014932885766029358,0.031030435115098953,0.0033273573499172926,0.006024125963449478,-0.05,-0.05,-0.05,-0.05,-0.05,-0.05,0.05,0.05,0.05,0.05,0.05,0.05,0.8164070213450736,1.7782445723231906,-1.4450537080601698,2.7397462538370503,-0.1048556359267064,1.7323318848510858,0.7562885440652268,1.7778622736033691,-1.3872616169348138,2.8598001958298656,-0.09197855147467272,1.7556384048601026,-0.01728870574369545,0.007094107428618882,0.15178759577823192,0.3159299006103854,0.03389031257844785,0.06133294739214923,-1.0,-1.0,-0.03808014106813153,0.41598309035129627,0.11465283915697701,-0.0827151491722944,-6.28318530718,0.820304748437,-6.28318530718,0.523598775598,-6.28318530718,1.1344640138,6.28318530718,5.46288055874,6.28318530718,5.75958653158,6.28318530718,5.14872129338,-0.5726318467293477,-6.011190218429359,0.5726318467293477,0.09827401367389482,0.7,0.0,1.0,0.6031014553737635,-0.5620728491091279,1.0509118476616983,0.0,0.7071067811865475,0.0,-0.02344667707057344,0.6679066602251241,0.08076819618078039,0.0,0.0,0.0,0.5018938297332964,0.606767831090609,0.0,-16.703727703593962,-24.372578005793926
1.0,10.0,-0.6411987543106079,-0.8468557000160217,0.8387075662612915,-0.03538991138339043,-0.348956435918808,0.9509803652763367,-1.0,-1.0,-1.0,-1.0,-1.0,-1.0,1.0,1.0,1.0,1.0,1.0,1.0,-0.032059937715530396,-0.042342785745859146,0.041935380548238754,-0.001769495545886457,-0.0174478217959404,0.04754902049899101,-0.05,-0.05,-0.05,-0.05,-0.05,-0.05,0.05,0.05,0.05,0.05,0.05,0.05,0.7936198188854068,1.7690328762306367,-1.3976346539314597,2.737744622991698,-0.12459852231435527,1.785202073678818,0.6561073327674216,1.5665306435938948,-1.235376805318976,2.730898776107618,-0.19209474490640838,1.9700769873460409,-0.2510780550429633,-0.11658655356425114,0.42669068556655004,-0.018017251578403046,-0.17761809735120312,0.48651293070321855,-1.0,-1.0,-0.03627897390389178,0.4820500301246772,0.10868814760050087,-0.14145298047757593,-6.28318530718,0.820304748437,-6.28318530718,0.523598775598,-6.28318530718,1.1344640138,6.28318530718,5.46288055874,6.28318530718,5.75958653158,6.28318530718,5.14872129338,-0.5709465564346421,-6.582136774864001,0.5709465564346421,0.07535086598602726,0.7,0.0,1.0,0.6179094593420511,-0.5630476057305892,1.0471010309877886,0.0,0.7071067811865475,0.0,-0.024398760255198566,0.6724773252197299,0.054277027865877785,0.0,0.0,0.0,0.08426451473528274,0.7660767842032107,0.0,-100.2310355995233,38.23414874702442
1.0,11.0,0.03142689913511276,0.8305701613426208,-0.32322078943252563,0.7078314423561096,-0.8857669234275818,-0.3341812491416931,-1.0,-1.0,-1.0,-1.0,-1.0,-1.0,1.0,1.0,1.0,1.0,1.0,1.0,0.0015713450266048312,0.04152850806713104,-0.016161039471626282,0.03539157286286354,-0.04428834840655327,-0.016709063202142715,-0.05,-0.05,-0.05,-0.05,-0.05,-0.05,0.05,0.05,0.05,0.05,0.05,0.05,0.7945025289316857,1.7622539505319526,-1.415899871449062,2.7777942443251584,-0.17469074368798973,1.7704297771118174,0.8014765440184309,1.9766754165662919,-1.478439851289591,2.9147024873060157,-0.3460402643471216,1.7016567576681043,0.018352671280908454,-0.03919813960357864,-0.16455161391702033,0.3612327432055137,-0.4509750020866183,-0.18095887630753069,0.6876134235796362,1.0,0.02854439237442202,-0.38407250015845595,-0.10430421962130554,0.0815254619281412,-6.28318530718,0.820304748437,-6.28318530718,0.523598775598,-6.28318530718,1.1344640138,6.28318530718,5.46288055874,6.28318530718,5.75958653158,6.28318530718,5.14872129338,-0.5514936302380413,-7.133630405102042,0.5514936302380413,0.1179430563215311,0.7,0.0,1.0,0.626212620117174,-0.5441084759742495,1.0514452440575464,0.0,0.7071067811865475,0.0,-0.036433718758026465,0.6547603255458194,0.08964307030558324,0.0,0.0,0.0,0.9726463098300386,1.0565336033232289,0.0,213.21163082274143,69.70963658880437
1.0,12.0,-0.9812696576118469,-0.11962199956178665,-0.6017642021179199,-0.18789392709732056,-0.7592064142227173,-0.013642620295286179,-1.0,-1.0,-1.0,-1.0,-1.0,-1.0,1.0,1.0,1.0,1.0,1.0,1.0,-0.049063485115766525,-0.005981100257486105,-0.030088210478425026,-0.009394696913659573,-0.037960320711135864,-0.0006821310380473733,-0.05,-0.05,-0.05,-0.05,-0.05,-0.05,0.05,0.05,0.05,0.05,0.05,0.05,0.7714415251720902,1.7554887560671173,-1.4499392755085043,2.767168777283962,-0.2176122923883597,1.769658021904239,0.5491851033528531,1.732348449244522,-1.5663409238411872,2.7308207597568606,-0.3644923472436691,1.7670191219215805,-0.2565115442221782,-0.06089554426998767,-0.3055812444577483,-0.0956935141725505,-0.3879688256690278,-0.00684965094311238,-1.0,0.009994502634974053,0.04244197923666804,0.4104986663420569,0.04039559712567999,-0.08174614485174314,-6.28318530718,0.820304748437,-6.28318530718,0.523598775598,-6.28318530718,1.1344640138,6.28318530718,5.46288055874,6.28318530718,5.75958653158,6.28318530718,5.14872129338,-0.5399160500527385,-7.6735464551547805,0.5399160500527385,0.15356921438247612,0.7,0.0,1.0,0.6333468007270027,-0.5322950637520201,1.0610627319766992,0.0,0.7071067811865475,0.0,-0.03472722034204902,0.6284987318562472,0.11118779821658208,0.0,0.0,0.0,0.578879009265143,0.8410548661963515,0.0,-94.50415213557494,-51.71489691045057
1.0,13.0,0.8386167883872986,-0.34002578258514404,-0.23002022504806519,-0.34118542075157166,-0.8599405288696289,0.7283144593238831,-1.0,-1.0,-1.0,-1.0,-1.0,-1.0,1.0,1.0,1.0,1.0,1.0,1.0,0.04193083941936493,-0.017001289874315262,-0.011501011438667774,-0.017059272155165672,-0.042997028678655624,0.03641572222113609,-0.05,-0.05,-0.05,-0.05,-0.05,-0.05,0.05,0.05,0.05,0.05,0.05,0.05,0.7428171666814842,1.7434955483262449,-1.4629575247517832,2.7478729510764794,-0.2662499015072849,1.8108481075419713,0.9810957222689148,1.670482306695541,-1.5074443327018432,2.6818724165081336,-0.4325974357816378,1.9517366330099195,-0.24748812985037158,-0.13891184172437032,-0.11732155487886266,-0.17368787950285214,-0.4377532255901172,0.3707592775472318,1.0,-1.0,-0.019664109918188278,-0.3345513131587047,0.1445259315905052,0.04100942954497483,-6.28318530718,0.820304748437,-6.28318530718,0.523598775598,-6.28318530718,1.1344640138,6.28318530718,5.46288055874,6.28318530718,5.75958653158,6.28318530718,5.14872129338,-0.5391743847366962,-8.212720839891476,0.5391743847366962,0.17592883702804207,0.7,0.0,1.0,0.6429264461205098,-0.5318896593093195,1.0674167406774893,0.0,0.7071067811865475,0.0,-0.014847595178146196,0.6049102979630223,0.11762886717321466,0.0,0.0,0.0,0.03708326580211252,0.5751247368989153,0.0,-130.03097843112732,-63.82323103138469
1.0,14.0,-0.28403982520103455,0.7270150184631348,-0.4714810252189636,0.37848132848739624,-0.8187809586524963,0.5945581793785095,-1.0,-1.0,-1.0,-1.0,-1.0,-1.0,1.0,1.0,1.0,1.0,1.0,1.0,-0.014201991260051727,0.03635075315833092,-0.02357405237853527,0.018924066796898842,-0.04093904793262482,0.029727909713983536,-0.05,-0.05,-0.05,-0.05,-0.05,-0.05,0.05,0.05,0.05,0.05,0.05,0.05,0.7292872237685984,1.7354928697218117,-1.489615509962508,2.7684156181039596,-0.3125509804718189,1.844472489760904,0.6718072103812256,1.9252493141178995,-1.5808277866444596,2.8424932850609737,-0.470945141170409,1.959487656111889,-0.15126319312466552,-0.04825165474642762,-0.2400885049180911,0.19540491244901792,-0.4165684903584038,0.3026337478195663,0.16289204114350797,1.0,0.04930594600355808,-0.10489897000480156,-0.09705235540576092,-0.01902031267668248,-6.28318530718,0.820304748437,-6.28318530718,0.523598775598,-6.28318530718,1.1344640138,6.28318530718,5.46288055874,6.28318530718,5.75958653158,6.28318530718,5.14872129338,-0.5326816753190945,-8.745402515210571,0.5326816753190945,0.20979056013820646,0.7,0.0,1.0,0.6527424451221645,-0.5253605032213431,1.0742484503726693,0.0,0.7071067811865475,0.0,-0.003795416960057436,0.5801863433232152,0.13678958293042662,0.0,0.0,0.0,0.3246354708800858,0.6812781608507334,0.0,69.0125292187136,25.476821748436357
1.0,15.0,-0.11896082013845444,-0.5934079885482788,-0.2175220400094986,-0.49659591913223267,0.9999937415122986,0.02607470192015171,-1.0,-1.0,-1.0,-1.0,-1.0,-1.0,1.0,1.0,1.0,1.0,1.0,1.0,-0.005948041100054979,-0.02967040054500103,-0.01087610237300396,-0.024829795584082603,0.04999968782067299,0.0013037350727245212,-0.05,-0.05,-0.05,-0.05,-0.05,-0.05,0.05,0.05,0.05,0.05,0.05,0.05,0.703918428117162,1.7364155543124822,-1.5019310203678555,2.7403301756833596,-0.25712411675802516,1.8459477113028104,0.6995470182683236,1.5871408669968066,-1.5439960218275277,2.6442666401835466,-0.06255254136845395,1.8509911651245265,-0.2149790926560455,-0.021723951870915373,-0.11069737226229504,-0.25280411199519676,0.5118064041990528,0.013302400183763517,1.0,-1.0,-0.0663758262400015,-0.3643433600593333,0.08349901610567646,0.07561196793508873,-6.28318530718,0.820304748437,-6.28318530718,0.523598775598,-6.28318530718,1.1344640138,6.28318530718,5.46288055874,6.28318530718,5.75958653158,6.28318530718,5.14872129338,-0.5256640972189819,-9.271066612429554,0.5256640972189819,0.18360158967971973,0.7,0.0,1.0,0.6626054786295275,-0.520400815798816,1.0640888741705394,0.0,0.7071067811865475,0.0,-0.012642982558880618,0.5952516088045304,0.11528567952971107,0.0,0.0,0.0,0.35087890500563046,0.7501581798251284,0.0,6.298424190130714,16.5312045538548
1.0,16.0,-0.5234465003013611,0.047002363950014114,0.27333641052246094,0.04308481141924858,0.05598638579249382,-0.23517702519893646,-1.0,-1.0,-1.0,-1.0,-1.0,-1.0,1.0,1.0,1.0,1.0,1.0,1.0,-0.026172325015068054,0.0023501182440668344,0.013666820712387562,0.0021542406175285578,0.0027993193361908197,-0.011758851818740368,-0.05,-0.05,-0.05,-0.05,-0.05,-0.05,0.05,0.05,0.05,0.05,0.05,0.05,0.6903050187275839,1.7321184554526161,-1.4864541451039468,2.7426827652864243,-0.25395399749409725,1.832646792538849,0.5730568030418217,1.7481661455328164,-1.4335969168059177,2.7511013787710024,-0.24312752007707106,1.7871534522091086,-0.1661978276229929,-0.01514218303586551,0.13934112974920487,0.022156727378227725,0.02848704541804574,-0.11971931665721136,-1.0,1.0,0.045408446924450376,0.3678252030180397,-0.11330714930639148,-0.08314058185981213,-6.28318530718,0.820304748437,-6.28318530718,0.523598775598,-6.28318530718,1.1344640138,6.28318530718,5.46288055874,6.28318530718,5.75958653158,6.28318530718,5.14872129338,-0.5113238504633747,-9.782390462892929,0.5113238504633747,0.17616371828428556,0.7,0.0,1.0,0.6711488445759427,-0.5072062871772502,1.0579782125565906,0.0,0.7071067811865475,0.0,-0.033366778767581894,0.6023852549176062,0.11000733944898612,0.0,0.0,0.0,0.7170123377803594,0.8432450305217838,0.0,87.87202386593495,22.340844167197282
1.0,17.0,0.981587290763855,-0.12631545960903168,-0.6221689581871033,0.8789788484573364,0.14401467144489288,-0.9162842631340027,-1.0,-1.0,-1.0,-1.0,-1.0,-1.0,1.0,1.0,1.0,1.0,1.0,1.0,0.04907936602830887,-0.006315772887319326,-0.031108448281884193,0.043948944658041,0.007200733758509159,-0.045814212411642075,-0.05,-0.05,-0.05,-0.05,-0.05,-0.05,0.05,0.05,0.05,0.05,0.05,0.05,0.6995861431867747,1.7294297380751427,-1.5216585624247094,2.792393031073666,-0.24581290275739193,1.7808841463409615,0.9357018488691282,1.7005395910160195,-1.6419963865133678,2.9624274885766293,-0.21795032870155145,1.6035757304806386,0.095479191533412,-0.06320171070667707,-0.31692775292493003,0.44745719068367357,0.07332559837334729,-0.4666010943692706,1.0,-1.0,-0.03716312736183007,-0.4535761416139244,0.09530004340390666,0.12616101875588792,-6.28318530718,0.820304748437,-6.28318530718,0.523598775598,-6.28318530718,1.1344640138,6.28318530718,5.46288055874,6.28318530718,5.75958653158,6.28318530718,5.14872129338,-0.48615271439526103,-10.26854317728819,0.48615271439526103,0.20908805163421154,0.7,0.0,1.0,0.6748438488205148,-0.48254890457254396,1.05346199086784,0.0,0.7071067811865475,0.0,-0.0585512905388507,0.5983167842066305,0.14963119622890234,0.0,0.0,0.0,1.258556803405683,1.2669212994738666,0.0,129.97067175007768,101.68230454849987
1.0,18.0,0.5484728217124939,-0.10863067954778671,0.24425509572029114,0.7643159031867981,-0.05046769604086876,-0.7614941596984863,-1.0,-1.0,-1.0,-1.0,-1.0,-1.0,1.0,1.0,1.0,1.0,1.0,1.0,0.027423640713095665,-0.005431534256786108,0.012212755158543587,0.038215797394514084,-0.0025233847554773092,-0.038074709475040436,-0.05,-0.05,-0.05,-0.05,-0.05,-0.05,0.05,0.05,0.05,0.05,0.05,0.05,0.7127238062727854,1.7232566947221428,-1.5079331619482517,2.8356203074273165,-0.24845378254968953,1.73780368166008,0.836704346752253,1.7022720667912121,-1.4605947866319915,2.9834720180462364,-0.2584298265347785,1.5905105989657593,0.13717150421894364,-0.05522270508139637,0.1232938633540717,0.3891054701379513,-0.023149446575069406,-0.38781479646551226,1.0,0.1483148414647321,-0.0268219449101708,-0.46482724698972827,-0.0462998986560948,0.11291776003485905,-6.28318530718,0.820304748437,-6.28318530718,0.523598775598,-6.28318530718,1.1344640138,6.28318530718,5.46288055874,6.28318530718,5.75958653158,6.28318530718,5.14872129338,-0.46717391255121526,-10.735717089839406,0.46717391255121526,0.23418600477383106,0.7,0.0,1.0,0.6755693567001644,-0.4644315782900639,1.0442483595556604,0.0,0.7071067811865475,0.0,-0.07112086144836745,0.6067828989140085,0.1895583469698567,0.0,0.0,0.0,0.9489400922022884,1.0169253601740553,0.0,-74.30801068881473,-59.99902543195469
1.0,19.0,-0.8706827163696289,-0.5121644735336304,0.20466329157352448,-0.029595358297228813,-0.6577582359313965,-0.11563846468925476,-1.0,-1.0,-1.0,-1.0,-1.0,-1.0,1.0,1.0,1.0,1.0,1.0,1.0,-0.043534137308597565,-0.025608224794268608,0.010233164764940739,-0.0014797679614275694,-0.032887913286685944,-0.005781923420727253,-0.05,-0.05,-0.05,-0.05,-0.05,-0.05,0.05,0.05,0.05,0.05,0.05,0.05,0.702832312599718,1.708472589354826,-1.4963584772505871,2.833946368852316,-0.28567015992741285,1.7312653413379808,0.4950531197297976,1.5952155707507998,-1.456767338123548,2.8282214676201787,-0.41289334898311925,1.7088940645564437,-0.12661677746552205,-0.1712313377421141,0.10418720822905014,-0.015070726618359431,-0.33532367230741944,-0.058824926637064616,-1.0,-1.0,0.03593261133854795,0.4271806152519792,0.16210170655474482,-0.05899326204799302,-6.28318530718,0.820304748437,-6.28318530718,0.523598775598,-6.28318530718,1.1344640138,6.28318530718,5.46288055874,6.28318530718,5.75958653158,6.28318530718,5.14872129338,-0.4602571239556227,-11.19597421379503,0.4602571239556227,0.256342286589144,0.7,0.0,1.0,0.6787880552893037,-0.45803331520613044,1.0399018259578847,0.0,0.7071067811865475,0.0,-0.05913809803677156,0.6003710723794942,0.2172302414843442,0.0,0.0,0.0,0.3458394297796291,0.41889779605396027,0.0,-144.74415898143823,-143.52661538882282
1.0,20.0,-0.5044878125190735,-0.6025803685188293,-0.9551674127578735,0.38490867614746094,0.0778329148888588,-0.6663471460342407,-1.0,-1.0,-1.0,-1.0,-1.0,-1.0,1.0,1.0,1.0,1.0,1.0,1.0,-0.025224391371011734,-0.030129019170999527,-0.04775837063789368,0.019245434552431107,0.003891645697876811,-0.033317357301712036,-0.05,-0.05,-0.05,-0.05,-0.05,-0.05,0.05,0.05,0.05,0.05,0.05,0.05,0.696541505871018,1.6913558222368228,-1.5503822805347314,2.854861685664887,-0.2813193225518424,1.6935845942538947,0.5767103557446593,1.5578274934998284,-1.7351503304400555,2.9301735416144714,-0.2662119314380288,1.5646785548294206,-0.09833055287836678,-0.20361266278641998,-0.48623171027716905,0.19818311873037472,0.03890737879075067,-0.33915588204746805,-1.0,-1.0,0.04069376392842328,0.37344932171085826,0.1593379273763758,-0.025424513632390226,-6.28318530718,0.820304748437,-6.28318530718,0.523598775598,-6.28318530718,1.1344640138,6.28318530718,5.46288055874,6.28318530718,5.75958653158,6.28318530718,5.14872129338,-0.44128910268928273,-11.637263316484312,0.44128910268928273,0.28627376569911,0.7,0.0,1.0,0.6813617453617759,-0.4398135597538629,1.0308661671249988,0.0,0.7071067811865475,0.0,-0.08044245772448601,0.5851720321543286,0.23773821247208046,0.0,0.0,0.0,0.9484010633169976,1.0249713409089598,0.0,144.61479204896844,145.4576507651999
1.0,21.0,0.9336523413658142,-0.2758055627346039,-0.4086115062236786,-0.07798207551240921,0.5837824940681458,-0.7492063045501709,-1.0,-1.0,-1.0,-1.0,-1.0,-1.0,1.0,1.0,1.0,1.0,1.0,1.0,0.04668261855840683,-0.013790278695523739,-0.02043057605624199,-0.0038991037290543318,0.029189124703407288,-0.037460315972566605,-0.05,-0.05,-0.05,-0.05,-0.05,-0.05,0.05,0.05,0.05,0.05,0.05,0.05,0.6832352308441468,1.6757577026462471,-1.5735463380831984,2.850448974878486,-0.24814727153021418,1.65120457714993,0.9299545986630522,1.622404428759204,-1.6525351608159413,2.8353661670196155,-0.13537369903480595,1.5062830143910617,-0.10592994554157581,-0.14040335233432397,-0.21145233425050025,-0.0397659463414188,0.3068115731429664,-0.38200484513621735,1.0,0.6377460155390664,-0.0347919654834917,-0.406870547748886,-0.11899920266127545,0.08024239314683569,-6.28318530718,0.820304748437,-6.28318530718,0.523598775598,-6.28318530718,1.1344640138,6.28318530718,5.46288055874,6.28318530718,5.75958653158,6.28318530718,5.14872129338,-0.4245744761785535,-12.061837792662866,0.4245744761785535,0.2972004685644809,0.7,0.0,1.0,0.684818849171538,-0.4241114858181061,1.0127462182224751,0.0,0.7071067811865475,0.0,-0.09824185036129085,0.5906110632681346,0.2493697385537252,0.0,0.0,0.0,0.8357313255364623,1.2112382516102203,0.0,-27.040737067328457,44.70405856830251
1.0,22.0,-0.8700937628746033,0.32432669401168823,-0.8254749774932861,-0.769726574420929,-0.14966259896755219,-0.4902132451534271,-1.0,-1.0,-1.0,-1.0,-1.0,-1.0,1.0,1.0,1.0,1.0,1.0,1.0,-0.04350468888878822,0.0162163358181715,-0.041273750364780426,-0.03848632797598839,-0.007483129855245352,-0.024510663002729416,-0.05,-0.05,-0.05,-0.05,-0.05,-0.05,0.05,0.05,0.05,0.05,0.05,0.05,0.6506607942612828,1.6614202717005626,-1.6202101150868768,2.806917672080758,-0.2565261916900404,1.6234743936503317,0.4657117864002057,1.7568393817371046,-1.7799150899071006,2.658017334998544,-0.28556292080644097,1.5286512621362829,-0.3376787679277141,-0.1080744297978779,-0.4200110633589194,-0.3918417298821151,-0.07641470687875104,-0.24953455661591795,-1.0,1.0,0.04355506678730992,0.4350734139399345,-0.05702876063284984,-0.06739173075910367,-6.28318530718,0.820304748437,-6.28318530718,0.523598775598,-6.28318530718,1.1344640138,6.28318530718,5.46288055874,6.28318530718,5.75958653158,6.28318530718,5.14872129338,-0.41546030177575044,-12.477298094438616,0.41546030177575044,0.31094891201399666,0.7,0.0,1.0,0.687036778370157,-0.41514536992007534,1.0096715598792028,0.0,0.7071067811865475,0.0,-0.10698394106606467,0.5691415937423121,0.24772106190842902,0.0,0.0,0.0,0.4557087201401522,0.48673393182225544,0.0,-91.20542529511444,-173.88103674911156
1.0,23.0,-0.7204537987709045,-0.4643690586090088,0.8887103796005249,-0.7182351350784302,0.5493102073669434,-0.24461254477500916,-1.0,-1.0,-1.0,-1.0,-1.0,-1.0,1.0,1.0,1.0,1.0,1.0,1.0,-0.03602268919348717,-0.02321845293045044,0.044435519725084305,-0.03591175749897957,0.027465511113405228,-0.012230627238750458,-0.05,-0.05,-0.05,-0.05,-0.05,-0.05,0.05,0.05,0.05,0.05,0.05,0.05,0.6140832984148011,1.6499755683109425,-1.5699545652488591,2.766273879793183,-0.23274249789844512,1.6096428812715446,0.4705473482938469,1.5453280070483104,-1.3980325164614553,2.62735888458586,-0.11919863612301423,1.5623212574565795,-0.3777261845288269,-0.1408982982669361,0.45273710849535104,-0.36680604714294907,0.29759296636716986,-0.12449315746156477,-0.8397886085085161,-1.0,-0.032022307742584674,0.3369103564968104,0.11102387598894789,-0.061314075287980024,-6.28318530718,0.820304748437,-6.28318530718,0.523598775598,-6.28318530718,1.1344640138,6.28318530718,5.46288055874,6.28318530718,5.75958653158,6.28318530718,5.14872129338,-0.40085519235052686,-12.878153286789143,0.40085519235052686,0.289129817935179,0.7,0.0,1.0,0.6992105905787114,-0.400678936626516,0.988140328377738,0.0,0.7071067811865475,0.0,-0.1260045596526675,0.5950599742081769,0.22882799526340442,0.0,0.0,0.0,0.7302554712611792,1.432718854046231,0.0,65.89122026904649,227.03638133375415
1.0,24.0,-0.02858189307153225,0.041229333728551865,0.6055200695991516,0.4842650294303894,0.9763436317443848,-0.027404937893152237,-1.0,-1.0,-1.0,-1.0,-1.0,-1.0,1.0,1.0,1.0,1.0,1.0,1.0,-0.0014290947001427412,0.0020614666864275932,0.03027600422501564,0.02421325258910656,0.04881718382239342,-0.0013702468713745475,-0.05,-0.05,-0.05,-0.05,-0.05,-0.05,0.05,0.05,0.05,0.05,0.05,0.05,0.6050685425004836,1.6438129886255066,-1.5357003476144566,2.7936614169974385,-0.17751939578438947,1.6080926089829266,0.6069378249140874,1.6602829017430805,-1.418574544123781,2.887340142738716,0.01134342121352197,1.602791646914672,-0.07631773762262285,-0.03625736585376786,0.30822579865967314,0.24652368269803832,0.4972984732382933,-0.013970494151651995,1.0,1.0,-0.04318679566240894,-0.4354707530131895,-0.18865444306302975,0.05262202965440211,-6.28318530718,0.820304748437,-6.28318530718,0.523598775598,-6.28318530718,1.1344640138,6.28318530718,5.46288055874,6.28318530718,5.75958653158,6.28318530718,5.14872129338,-0.3841028316280631,-13.262256118417206,0.3841028316280631,0.29077776290159096,0.7,0.0,1.0,0.7112929940964142,-0.3822632264611642,0.9641910731166763,0.0,0.7071067811865475,0.0,-0.1308689792671961,0.6303772504847489,0.24748848526340253,0.0,0.0,0.0,0.8376180361231889,1.6268755969790172,0.0,25.76701556688232,46.597618303868686
1.0,25.0,0.37521010637283325,0.2369096875190735,-0.7894565463066101,0.4315994083881378,-0.6289100646972656,-0.45023852586746216,-1.0,-1.0,-1.0,-1.0,-1.0,-1.0,1.0,1.0,1.0,1.0,1.0,1.0,0.018760506063699722,0.011845484375953674,-0.039472829550504684,0.02157997153699398,-0.03144550323486328,-0.022511927410960197,-0.05,-0.05,-0.05,-0.05,-0.05,-0.05,0.05,0.05,0.05,0.05,0.05,0.05,0.601000651239182,1.634972553772174,-1.580347261923475,2.818070898617074,-0.20065686523486106,1.5826262090195824,0.6988710728189822,1.703040410505275,-1.73306449536698,2.9015612746824084,-0.3347469119587059,1.4955329719281256,-0.027136553792241405,-0.07839159721340941,-0.401887456430276,0.21971161392488567,-0.35249223395251006,-0.22921767331449627,1.0,1.0,0.013749103729248131,-0.4197081383802566,-0.11898510277952236,0.08227458823109354,-6.28318530718,0.820304748437,-6.28318530718,0.523598775598,-6.28318530718,1.1344640138,6.28318530718,5.46288055874,6.28318530718,5.75958653158,6.28318530718,5.14872129338,-0.36746199597348495,-13.629718114390691,0.36746199597348495,0.33257329043147893,0.7,0.0,1.0,0.7104736924527144,-0.365970554947249,0.9686284657240676,0.0,0.7071067811865475,0.0,-0.1303454143429964,0.6072991622989253,0.28842161623090984,0.0,0.0,0.0,0.8320417827289067,0.845300025724362,0.0,-1.338300814627713,-187.57813710111725
1.0,26.0,0.6238273978233337,0.06153930723667145,0.333243191242218,-0.1435595601797104,-0.31899258494377136,-0.43609240651130676,-1.0,-1.0,-1.0,-1.0,-1.0,-1.0,1.0,1.0,1.0,1.0,1.0,1.0,0.031191369518637657,0.00307696545496583,0.01666215993463993,-0.007177978288382292,-0.015949629247188568,-0.021804621443152428,-0.05,-0.05,-0.05,-0.05,-0.05,-0.05,0.05,0.05,0.05,0.05,0.05,0.05,0.5920329727677872,1.6339712056966296,-1.5615007709252784,2.8099519589428334,-0.2186893313748228,1.5579624607731086,0.7569574988323703,1.6503573810470031,-1.4970364622502754,2.7821810071751627,-0.2804050114708039,1.4736031018038203,-0.05868243038452528,0.021172187836463303,0.16964291756579708,-0.07308044291014407,-0.16182455462633982,-0.2220397943972517,1.0,1.0,-0.019039325421931975,-0.387360640360255,-0.1494009415370366,0.0698380301012089,-6.28318530718,0.820304748437,-6.28318530718,0.523598775598,-6.28318530718,1.1344640138,6.28318530718,5.46288055874,6.28318530718,5.75958653158,6.28318530718,5.14872129338,-0.35863987168205513,-13.988357986072746,0.35863987168205513,0.3355473094588663,0.7,0.0,1.0,0.7088280996784546,-0.35722603153319127,0.9694355662372802,0.0,0.7071067811865475,0.0,-0.15736833556249116,0.6013659971383983,0.27561478749992646,0.0,0.0,0.0,0.4411062145714906,0.44672720019081036,0.0,-93.82453635777988,-95.6574781280524
1.0,27.0,0.3880424201488495,-0.10428611934185028,0.6741282939910889,-0.014080914668738842,-0.35839271545410156,0.8866531848907471,-1.0,-1.0,-1.0,-1.0,-1.0,-1.0,1.0,1.0,1.0,1.0,1.0,1.0,0.019402122125029564,-0.0052143060602247715,0.0337064154446125,-0.0007040457567200065,-0.01791963540017605,0.04433266073465347,-0.05,-0.05,-0.05,-0.05,-0.05,-0.05,0.05,0.05,0.05,0.05,0.05,0.05,0.5895475926310607,1.6315719873806847,-1.5233806742101828,2.80915551424146,-0.23898823460168261,1.6034484461281837,0.689043583392935,1.6078996753955057,-1.3929686937022159,2.8064317301592334,-0.30828750837570307,1.779625764446376,0.0032560192612037814,-0.050645469761970485,0.3431894223893867,-0.007169409816877199,-0.1827924068244054,0.46365786447533064,1.0,-1.0,-0.020137319569287142,-0.3566791253459694,0.0966140864372164,0.011138151947974993,-6.28318530718,0.820304748437,-6.28318530718,0.523598775598,-6.28318530718,1.1344640138,6.28318530718,5.46288055874,6.28318530718,5.75958653158,6.28318530718,5.14872129338,-0.3668886038204748,-14.35524658989322,0.3668886038204748,0.30882370192626335,0.7,0.0,1.0,0.7164706418187268,-0.36513344923870367,0.9681640169232436,0.0,0.7071067811865475,0.0,-0.157148179949312,0.6068430568543391,0.24402090446259728,0.0,0.0,0.0,-0.4124366069209823,0.5535172598783927,0.0,-204.85027715819348,25.62961432501977
1.0,28.0,-0.8040037155151367,0.8353450298309326,-0.27656129002571106,-0.5925226807594299,0.4616483747959137,0.02271934412419796,-1.0,-1.0,-1.0,-1.0,-1.0,-1.0,1.0,1.0,1.0,1.0,1.0,1.0,-0.040200185030698776,0.04176725074648857,-0.013828064315021038,-0.029626134783029556,0.023082418367266655,0.001135967206209898,-0.05,-0.05,-0.05,-0.05,-0.05,-0.05,0.05,0.05,0.05,0.05,0.05,0.05,0.5756576019553852,1.6357968465755839,-1.5390021949461534,2.7756456421329214,-0.2128753447305083,1.6047329563303145,0.38854666747756683,1.8404082411131275,-1.592520995785288,2.6610248403263124,-0.12357614276534934,1.6091282821592332,-0.15478862804567514,0.06956878002261345,-0.14056176792135375,-0.30163239578814854,0.23499510760726083,0.01156664691820686,-1.0,1.0,0.018874634531765726,0.4033139037123782,-0.11146655179083945,-0.08054463451261075,-6.28318530718,0.820304748437,-6.28318530718,0.523598775598,-6.28318530718,1.1344640138,6.28318530718,5.46288055874,6.28318530718,5.75958653158,6.28318530718,5.14872129338,-0.37019741364221376,-14.725444003535433,0.37019741364221376,0.29630283614177894,0.7,0.0,1.0,0.7181240914525957,-0.3683403849038314,0.9677044395419497,0.0,0.7071067811865475,0.0,-0.15471705072429795,0.6104570429440591,0.23091516786596983,0.0,0.0,0.0,-0.16544049108694892,0.18186219660368272,0.0,59.27906780016801,-89.19721518593039
1.0,29.0,-0.9379131197929382,-0.2649368345737457,-0.5577942132949829,0.4918745458126068,0.21586769819259644,-0.26442962884902954,-1.0,-1.0,-1.0,-1.0,-1.0,-1.0,1.0,1.0,1.0,1.0,1.0,1.0,-0.04689565673470497,-0.013246841728687286,-0.027889711782336235,0.02459372766315937,0.010793385095894337,-0.013221481814980507,-0.05,-0.05,-0.05,-0.05,-0.05,-0.05,0.05,0.05,0.05,0.05,0.05,0.05,0.5768782713971679,1.6374514992285418,-1.5705544351040999,2.79830573904609,-0.20067666767790776,1.5897789424465965,0.3411793182818603,1.5695626379321475,-1.6784507538578346,2.8986142804487183,-0.1589084192510366,1.538625547255412,-0.0027149512165911167,-0.016119200437576472,-0.2839376809308808,0.26396902784153065,0.10963870809370022,-0.13459352665011295,-1.0,-1.0,0.01207304982939574,0.3588662471562746,0.15121769711104327,-0.036005645467098134,-6.28318530718,0.820304748437,-6.28318530718,0.523598775598,-6.28318530718,1.1344640138,6.28318530718,5.46288055874,6.28318530718,5.75958653158,6.28318530718,5.14872129338,-0.35937029275899857,-15.084814296294432,0.35937029275899857,0.31329167695812465,0.7,0.0,1.0,0.7180177246124014,-0.3576170452833799,0.9694644823154244,0.0,0.7071067811865475,0.0,-0.17245642187348484,0.5994704319313034,0.23529373003324677,0.0,0.0,0.0,0.5413560441607596,0.5433669963401775,0.0,169.63116845945004,86.76115193675874
1.0,30.0,-0.1436789631843567,0.5900092720985413,0.21948674321174622,-0.9260960817337036,-0.8795221447944641,-0.39619237184524536,-1.0,-1.0,-1.0,-1.0,-1.0,-1.0,1.0,1.0,1.0,1.0,1.0,1.0,-0.007183948066085577,0.029500463977456093,0.010974337346851826,-0.04630480334162712,-0.043976109474897385,-0.019809618592262268,-0.05,-0.05,-0.05,-0.05,-0.05,-0.05,0.05,0.05,0.05,0.05,0.05,0.05,0.5537748153720359,1.6322926436365444,-1.5581312810400207,2.7557123683539944,-0.2503895304079469,1.5673704525601317,0.54095853106674,1.7849538191158223,-1.5156827483698407,2.5667817223379545,-0.4205572150523947,1.4907308494852851,-0.2298866831025469,-0.017678362701794244,0.11198625355776513,-0.49718454447212346,-0.4478127151606454,-0.2016831659864388,1.0,1.0,0.01655038748666987,-0.3459501630087198,-0.1297386356237363,0.04265252773432701,-6.28318530718,0.820304748437,-6.28318530718,0.523598775598,-6.28318530718,1.1344640138,6.28318530718,5.46288055874,6.28318530718,5.75958653158,6.28318530718,5.14872129338,-0.35463349607145905,-15.439447792365891,0.35463349607145905,0.32693297181869224,0.7,0.0,1.0,0.7156614293786573,-0.3535136404194712,0.9765961070961318,0.0,0.7071067811865475,0.0,-0.1574103941904795,0.5883451217557237,0.25717325221360204,0.0,0.0,0.0,0.23683983437697564,0.4279314510482803,0.0,-73.08389034810814,-27.70453087005533
1.0,31.0,0.755121111869812,-0.3939085006713867,-0.49651896953582764,-0.29207441210746765,-0.3030407428741455,0.39553940296173096,-1.0,-1.0,-1.0,-1.0,-1.0,-1.0,1.0,1.0,1.0,1.0,1.0,1.0,0.0377560555934906,-0.019695425406098366,-0.02482594922184944,-0.014603720977902412,-0.015152037143707275,0.019776970148086548,-0.05,-0.05,-0.05,-0.05,-0.05,-0.05,0.05,0.05,0.05,0.05,0.05,0.05,0.5454231401654712,1.6306948790831652,-1.586225922617503,2.739193996768958,-0.26753632184927445,1.5897409449685036,0.7425550933394889,1.5338155166060525,-1.682261027149268,2.6826937634644823,-0.3261497161264833,1.6662553033005645,-0.04690566434209596,-0.04145117137311339,-0.25301485681461827,-0.1486864640075111,-0.15424193062704894,0.2013535745580547,1.0,-1.0,-0.01991624746394919,-0.3700144206673338,0.1175332810129502,0.040225029551237274,-6.28318530718,0.820304748437,-6.28318530718,0.523598775598,-6.28318530718,1.1344640138,6.28318530718,5.46288055874,6.28318530718,5.75958653158,6.28318530718,5.14872129338,-0.36142039114483954,-15.800868183510731,0.36142039114483954,0.3212059955530602,0.7,0.0,1.0,0.7175546338091754,-0.3606078773258308,0.9833118971218076,0.0,0.7071067811865475,0.0,-0.14736207982425858,0.5725233633180177,0.24402232137854712,0.0,0.0,0.0,-0.33934475366902417,0.49752953673187617,0.0,-138.28430113103997,16.70354056406301
1.0,32.0,0.7948009371757507,0.06614618003368378,0.2892730236053467,-0.8239384889602661,0.8790283799171448,-0.430616557598114,-1.0,-1.0,-1.0,-1.0,-1.0,-1.0,1.0,1.0,1.0,1.0,1.0,1.0,0.039740048348903656,0.003307309001684189,0.014463650994002819,-0.041196923702955246,0.04395141825079918,-0.02153082750737667,-0.05,-0.05,-0.05,-0.05,-0.05,-0.05,0.05,0.05,0.05,0.05,0.05,0.05,0.53823979751629,1.6344357607919593,-1.569826155651833,2.6925974408475413,-0.21791128127221307,1.5653952906590285,0.7441233819099895,1.6472314240915862,-1.513907667647489,2.5332093782541816,-0.047779230595278555,1.4820868074316202,-0.029562479385490826,0.03367279815691293,0.14616115896190082,-0.41945338086179024,0.4495425686896612,-0.21937605748967445,1.0,0.11190085018933511,-0.03481534486732255,-0.362639633813215,-0.07050629552896064,0.06418264995099957,-6.28318530718,0.820304748437,-6.28318530718,0.523598775598,-6.28318530718,1.1344640138,6.28318530718,5.46288055874,6.28318530718,5.75958653158,6.28318530718,5.14872129338,-0.3669305831134973,-16.16779876662423,0.3669305831134973,0.2981716659555961,0.7,0.0,1.0,0.7142340572914794,-0.36557257192303255,0.9718550342936212,0.0,0.7071067811865475,0.0,-0.15715680639054455,0.5954264803357867,0.22215486066818332,0.0,0.0,0.0,-0.27550959843288814,0.6460149509052349,0.0,15.320437256672648,35.63649940160609
1.0,33.0,-0.14478446543216705,-0.12601743638515472,-0.4817386269569397,-0.15379956364631653,0.8529371619224548,-0.5277721881866455,-1.0,-1.0,-1.0,-1.0,-1.0,-1.0,1.0,1.0,1.0,1.0,1.0,1.0,-0.007239223457872868,-0.006300871726125479,-0.024086931720376015,-0.007689978461712599,0.0426468588411808,-0.026388609781861305,-0.05,-0.05,-0.05,-0.05,-0.05,-0.05,0.05,0.05,0.05,0.05,0.05,0.05,0.543680636391189,1.6354457925979426,-1.5970830987029445,2.6838992841009186,-0.16967435761422298,1.5355472960897005,0.5020436802269257,1.602931402161332,-1.690260814253713,2.6541475485389783,-0.004676987066309063,1.433452241749722,0.026234801104883014,-0.025848935785961646,-0.24544038709221916,-0.07829510428161737,0.43420673956686034,-0.26867119563152236,-1.0,-1.0,-0.039243346063336265,0.371106497977113,0.13913769081766175,-0.036166474945193004,-6.28318530718,0.820304748437,-6.28318530718,0.523598775598,-6.28318530718,1.1344640138,6.28318530718,5.46288055874,6.28318530718,5.75958653158,6.28318530718,5.14872129338,-0.3678584503375765,-16.535657216961805,0.3678584503375765,0.30373617799149344,0.7,0.0,1.0,0.7090598211500871,-0.36583370100855717,0.9625371873470062,0.0,0.7071067811865475,0.0,-0.14891734804340198,0.6073049235561817,0.24274262844297914,0.0,0.0,0.0,-0.046393361203961314,0.5330646765795367,0.0,54.98789693494244,-27.108065838167555
1.0,34.0,0.1063540130853653,-0.9366029500961304,-0.017475714907050133,0.44352516531944275,0.18980556726455688,-0.8576475977897644,-1.0,-1.0,-1.0,-1.0,-1.0,-1.0,1.0,1.0,1.0,1.0,1.0,1.0,0.005317700561136007,-0.04683014750480652,-0.0008737857569940388,0.022176258265972137,0.00949027854949236,-0.04288237914443016,-0.05,-0.05,-0.05,-0.05,-0.05,-0.05,0.05,0.05,0.05,0.05,0.05,0.05,0.5544792299369311,1.6228098825936055,-1.598090766566163,2.7075895552650873,-0.15894319488759215,1.4870434916301465,0.5702691391968691,1.40129505507391,-1.6014520274879147,2.7947805754307793,-0.12222296486676118,1.3211354003675497,0.07117457190524505,-0.15716270668185872,-0.009132148457840356,0.22944901093999692,0.09663526551702452,-0.4366002401647284,-1.0,-1.0,-0.03602196592105175,0.3274519206804802,0.14121078156843922,-0.007705684256224395,-6.28318530718,0.820304748437,-6.28318530718,0.523598775598,-6.28318530718,1.1344640138,6.28318530718,5.46288055874,6.28318530718,5.75958653158,6.28318530718,5.14872129338,-0.3579450965815744,-16.89360231354338,0.3579450965815744,0.3310924331765894,0.7,0.0,1.0,0.7026430349440242,-0.35433681654740784,0.949372665761212,0.0,0.7071067811865475,0.0,-0.16012733132686263,0.6117256919833675,0.2730653282141639,0.0,0.0,0.0,0.4956676878001054,0.9309378686440044,0.0,130.094651760976,95.48956609547224
1.0,35.0,-0.7168240547180176,0.20101188123226166,-0.23158518970012665,0.9524442553520203,0.6003258228302002,0.0301696565002203,-1.0,-1.0,-1.0,-1.0,-1.0,-1.0,1.0,1.0,1.0,1.0,1.0,1.0,-0.035841204226017,0.010050593875348568,-0.011579259298741817,0.04762221500277519,0.03001629188656807,0.0015084828482940793,-0.05,-0.05,-0.05,-0.05,-0.05,-0.05,0.05,0.05,0.05,0.05,0.05,0.05,0.5669121756296482,1.6145302114187423,-1.6111780141337548,2.761454841348881,-0.12498736501709408,1.4887494568766444,0.3752732088068461,1.6730628519703483,-1.655987063059872,2.9457006302789632,-0.008861735454751801,1.4945859058716169,0.07436882560654601,-0.05877713478053763,-0.11761341215969168,0.4848582287898583,0.3055912896938814,0.015359076302559059,-1.0,1.0,0.0014691610301377962,0.3492141888320423,-0.12734576609487214,-0.0570577332003401,-6.28318530718,0.820304748437,-6.28318530718,0.523598775598,-6.28318530718,1.1344640138,6.28318530718,5.46288055874,6.28318530718,5.75958653158,6.28318530718,5.14872129338,-0.3492883846413933,-17.242890698184773,0.3492883846413933,0.34126945151560084,0.7,0.0,1.0,0.7063720388417738,-0.34334839349734403,0.9361748211973844,0.0,0.7071067811865475,0.0,-0.18291596171565358,0.6156639341086505,0.2730607465151867,0.0,0.0,0.0,0.43283559700905694,0.8786836921321012,0.0,-15.07970178985163,-12.541002362856775
1.0,36.0,0.7216470837593079,0.3907346725463867,0.9486257433891296,-0.8999915719032288,0.40213000774383545,0.535372257232666,-1.0,-1.0,-1.0,-1.0,-1.0,-1.0,1.0,1.0,1.0,1.0,1.0,1.0,0.03608235344290733,0.019536733627319336,0.04743128642439842,-0.04499958083033562,0.020106500014662743,0.02676861360669136,-0.05,-0.05,-0.05,-0.05,-0.05,-0.05,0.05,0.05,0.05,0.05,0.05,0.05,0.5472782434123327,1.612299820308367,-1.557519105294664,2.7312084663143086,-0.1022425391255347,1.5190271797157329,0.7473239428441849,1.712213879555339,-1.3740215820117627,2.5364569371972028,-0.024454864943780366,1.6225925249101012,-0.2476039239741996,0.0009011967999194622,0.4828882191655298,-0.5125052106060105,0.20495798959353925,0.27252739172496676,1.0,1.0,-0.01698488780393642,-0.3361334226184964,-0.18502623328036147,-0.004757143322882236,-6.28318530718,0.820304748437,-6.28318530718,0.523598775598,-6.28318530718,1.1344640138,6.28318530718,5.46288055874,6.28318530718,5.75958653158,6.28318530718,5.14872129338,-0.35537606935645427,-17.598266767541226,0.35537606935645427,0.31038417449563704,0.7,0.0,1.0,0.7162858724636125,-0.3463321607269747,0.9220195186246755,0.0,0.7071067811865475,0.0,-0.18601602610424314,0.6429801096342268,0.24001705195004117,0.0,0.0,0.0,-0.3043842357530496,0.8768687970373014,0.0,-176.93275986290558,-0.43557482275195625
1.0,37.0,0.34383368492126465,0.854557991027832,-0.5320855975151062,-0.6215342879295349,0.498881071805954,0.9880623817443848,-1.0,-1.0,-1.0,-1.0,-1.0,-1.0,1.0,1.0,1.0,1.0,1.0,1.0,0.017191683873534203,0.04272789880633354,-0.02660427987575531,-0.031076714396476746,0.02494405396282673,0.0494031198322773,-0.05,-0.05,-0.05,-0.05,-0.05,-0.05,0.05,0.05,0.05,0.05,0.05,0.05,0.531310452603866,1.6195308610776968,-1.5875924602023712,2.6960577691768277,-0.07402358458721013,1.5749065581549793,0.6332366627800037,1.8259393143400346,-1.6905405046734405,2.575824894331925,0.022477730688598943,1.7660427788771194,-0.11627522246138475,0.10035674568171689,-0.27064205300737926,-0.316401550519332,0.2539478040224627,0.5029900545319477,1.0,1.0,0.04160382492453364,-0.3387293554041462,-0.1419649303853921,-0.013252025781707883,-6.28318530718,0.820304748437,-6.28318530718,0.523598775598,-6.28318530718,1.1344640138,6.28318530718,5.46288055874,6.28318530718,5.75958653158,6.28318530718,5.14872129338,-0.36923235834233137,-17.967499125883556,0.36923235834233137,0.27887025487114986,0.7,0.0,1.0,0.7256960223159634,-0.36052392998758587,0.924536467148141,0.0,0.7071067811865475,0.0,-0.14441181448684617,0.6512489591794498,0.23193317731536203,0.0,0.0,0.0,-0.6928144492938548,0.8606571106716986,0.0,-93.22325124979325,-3.8908047277446656
1.0,38.0,0.7245782613754272,-0.22573961317539215,0.8234191536903381,0.3029138147830963,-0.6274240016937256,-0.7507749199867249,-1.0,-1.0,-1.0,-1.0,-1.0,-1.0,1.0,1.0,1.0,1.0,1.0,1.0,0.03622891381382942,-0.011286980472505093,0.041170958429574966,0.015145691111683846,-0.03137120231986046,-0.03753874823451042,-0.05,-0.05,-0.05,-0.05,-0.05,-0.05,0.05,0.05,0.05,0.05,0.05,0.05,0.546820651117187,1.6144951950736557,-1.5410413716059652,2.7131889786006758,-0.10951199080087257,1.5441380159503226,0.7124550216730131,1.5630959587151714,-1.3817376680544964,2.771786224735247,-0.23087959618651244,1.3872128169824272,0.18487657200979357,-0.07065617238629285,0.4192202725038652,0.15420397621191806,-0.3196390611777314,-0.4129473084642887,1.0,-1.0,-0.0348550536342926,-0.4044329126796012,0.12625854123194705,0.10341021869193978,-6.28318530718,0.820304748437,-6.28318530718,0.523598775598,-6.28318530718,1.1344640138,6.28318530718,5.46288055874,6.28318530718,5.75958653158,6.28318530718,5.14872129338,-0.36652940698708547,-18.33402853287064,0.36652940698708547,0.2912969907100031,0.7,0.0,1.0,0.7178027538131466,-0.3581864260939423,0.9243075148708815,0.0,0.7071067811865475,0.0,-0.1645424715549448,0.6507573652471598,0.23364743228199786,0.0,0.0,0.0,0.13514756776229486,0.411764590681438,0.0,198.71088409347593,-107.73420479766254
1.0,39.0,-0.10077238827943802,-0.16278572380542755,-0.7959192395210266,-0.0018226576503366232,0.4431806802749634,-0.9907755851745605,-1.0,-1.0,-1.0,-1.0,-1.0,-1.0,1.0,1.0,1.0,1.0,1.0,1.0,-0.005038619507104158,-0.008139286190271378,-0.03979596123099327,-9.113288251683116e-05,0.0221590343862772,-0.04953878000378609,-0.05,-0.05,-0.05,-0.05,-0.05,-0.05,0.05,0.05,0.05,0.05,0.05,0.05,0.5563446249235043,1.612859002095982,-1.586064145118419,2.7130859182300084,-0.08446034533581628,1.4881055796404885,0.5216275535816662,1.5737987641222988,-1.7400211777609316,2.7127333141880916,0.0012831811305134277,1.2964441159313922,0.06270079943066494,-0.051228985035740596,-0.40540998703550984,-0.00092853034498563,0.22564326280396257,-0.5043722729186745,-1.0,-1.0,-0.02357378980553638,0.3595052451503019,0.1437245999586181,-0.0047300091355615605,-6.28318530718,0.820304748437,-6.28318530718,0.523598775598,-6.28318530718,1.1344640138,6.28318530718,5.46288055874,6.28318530718,5.75958653158,6.28318530718,5.14872129338,-0.3617968912990754,-18.695825424169715,0.3617968912990754,0.3186519861049127,0.7,0.0,1.0,0.706532891267285,-0.35299366632246937,0.9209444282698181,0.0,0.7071067811865475,0.0,-0.16464886772613835,0.6454847260698473,0.2655729488706577,0.0,0.0,0.0,0.2366257844005043,0.6428158899192936,0.0,24.354771993170267,55.452311817085345
1.0,40.0,0.4320666790008545,-0.19475725293159485,0.31228724122047424,0.7745482325553894,0.9095996022224426,0.8514490723609924,-1.0,-1.0,-1.0,-1.0,-1.0,-1.0,1.0,1.0,1.0,1.0,1.0,1.0,0.021603334695100784,-0.009737863205373287,0.015614362433552742,0.03872741386294365,0.04547997936606407,0.04257245361804962,-0.05,-0.05,-0.05,-0.05,-0.05,-0.05,0.05,0.05,0.05,0.05,0.05,0.05,0.5785706194575743,1.605365850766721,-1.5684189357199818,2.7568999143418247,-0.034002686321733235,1.5293238208643138,0.6643612983990083,1.5641696860691157,-1.5079923329506553,2.9067229875447267,0.14293955149450407,1.7009678477307366,0.2257649445827212,-0.10588898968282194,0.1589216803336026,0.39477784776953595,0.4651390969355202,0.45173026723131293,0.6035077802897183,-1.0,-0.037057128181566,-0.2571317340063465,0.09378151998479986,-0.018461535291870907,-6.28318530718,0.820304748437,-6.28318530718,0.523598775598,-6.28318530718,1.1344640138,6.28318530718,5.46288055874,6.28318530718,5.75958653158,6.28318530718,5.14872129338,-0.3749533616120011,-19.070778785781716,0.3749533616120011,0.29778254959978423,0.7,0.0,1.0,0.7113846986853933,-0.36117896679426403,0.8999491830847405,0.0,0.7071067811865475,0.0,-0.18007308918813178,0.66776245827004,0.23271131994784128,0.0,0.0,0.0,-0.6578235156462858,1.1525401288214436,0.0,-214.66783201122962,122.333817336516
1.0,41.0,-0.9940829873085022,0.49536389112472534,-0.5698325634002686,-0.37011784315109253,0.5869789123535156,-0.11267594993114471,-1.0,-1.0,-1.0,-1.0,-1.0,-1.0,1.0,1.0,1.0,1.0,1.0,1.0,-0.04970414936542511,0.024768194183707237,-0.028491629287600517,-0.018505891785025597,0.02934894524514675,-0.005633797496557236,-0.05,-0.05,-0.05,-0.05,-0.05,-0.05,0.05,0.05,0.05,0.05,0.05,0.05,0.5769090231928207,1.5983224422485662,-1.600631261491053,2.7359678263513736,-0.0007928765500524477,1.5229510902255603,0.3300498726304487,1.7292068216852572,-1.7108770821579844,2.6643704554166967,0.11274203990400053,1.5011548333815277,-0.03776762004291786,-0.044093679647532344,-0.2898353404974007,-0.188413792861481,0.2987735966274337,-0.05735857064219141,-1.0,1.0,0.0034912280523759567,0.40721626036357633,-0.1288803468596738,-0.06016051967003469,-6.28318530718,0.820304748437,-6.28318530718,0.523598775598,-6.28318530718,1.1344640138,6.28318530718,5.46288055874,6.28318530718,5.75958653158,6.28318530718,5.14872129338,-0.3827484149328048,-19.45352720071452,0.3827484149328048,0.2895517028537952,0.7,0.0,1.0,0.7090440943821755,-0.36640461009402214,0.8897175662572301,0.0,0.7071067811865475,0.0,-0.18501799777790662,0.6682724442236532,0.21836262517253147,0.0,0.0,0.0,-0.38975266604018566,0.5862417575231705,0.0,64.33700390546404,-135.91160911158553
1.0,42.0,0.7447967529296875,-0.583636999130249,-0.25867363810539246,0.5077921748161316,-0.6758071184158325,-0.39143723249435425,-1.0,-1.0,-1.0,-1.0,-1.0,-1.0,1.0,1.0,1.0,1.0,1.0,1.0,0.037239838391542435,-0.02918185107409954,-0.012933681719005108,0.02538960985839367,-0.033790357410907745,-0.019571861252188683,-0.05,-0.05,-0.05,-0.05,-0.05,-0.05,0.05,0.05,0.05,0.05,0.05,0.05,0.5958303757196043,1.5797476171961258,-1.6152805354180937,2.7646858028973345,-0.03900879903839687,1.5008133696203294,0.7631082151505328,1.4524131868780685,-1.6652996700860785,2.862915875643342,-0.16974466360459117,1.4250917839646169,0.20435289186181926,-0.2111340889086476,-0.13193074891038234,0.25849973049921626,-0.34403936250634826,-0.19926733067292757,1.0,-1.0,0.018907772852204123,-0.4320184453280706,0.14091072947217675,0.07842389149578285,-6.28318530718,0.820304748437,-6.28318530718,0.523598775598,-6.28318530718,1.1344640138,6.28318530718,5.46288055874,6.28318530718,5.75958653158,6.28318530718,5.14872129338,-0.3814859222579876,-19.83501312297251,0.3814859222579876,0.30705199085399887,0.7,0.0,1.0,0.7019432999514298,-0.3644890659135439,0.8874146843687047,0.0,0.7071067811865475,0.0,-0.19386699576665528,0.6484240851337701,0.2306276440514388,0.0,0.0,0.0,0.0631246337408603,0.38533704742592484,0.0,108.69055194745103,-48.217130423338965
1.0,43.0,-0.8342226147651672,-0.09783487766981125,0.41012805700302124,0.5200129151344299,0.5578306317329407,-0.8105378150939941,-1.0,-1.0,-1.0,-1.0,-1.0,-1.0,1.0,1.0,1.0,1.0,1.0,1.0,-0.04171113297343254,-0.0048917438834905624,0.020506402477622032,0.026000646874308586,0.027891531586647034,-0.040526892989873886,-0.05,-0.05,-0.05,-0.05,-0.05,-0.05,0.05,0.05,0.05,0.05,0.05,0.05,0.6145769532253219,1.5714415057268258,-1.592081133746685,2.7940948839120203,-0.0074557083789799855,1.4549735745556867,0.3872747108524416,1.555288897778673,-1.5127485230299835,2.8946890372688774,0.10044885889483829,1.29817890467096,0.1423684818437077,-0.05491095681392654,0.20877002820184568,0.26471119915098545,0.2845480237621782,-0.4126315898597762,-1.0,1.0,-0.040397917372154445,0.341932417592146,-0.15017504120832045,0.0015529740755510309,-6.28318530718,0.820304748437,-6.28318530718,0.523598775598,-6.28318530718,1.1344640138,6.28318530718,5.46288055874,6.28318530718,5.75958653158,6.28318530718,5.14872129338,-0.3797524773658317,-20.21476560033834,0.3797524773658317,0.33163792030016487,0.7,0.0,1.0,0.6915827644519255,-0.3566198726819245,0.8697565332942083,0.0,0.7071067811865475,0.0,-0.2255309354014843,0.659547356533992,0.23652677626164537,0.0,0.0,0.0,0.08667224460779666,1.0966713241928878,0.0,5.651426608064725,170.72022642407114
1.0,44.0,-0.8950473070144653,-0.8978488445281982,0.9598057270050049,0.12358588725328445,-0.8075059056282043,0.5552623271942139,-1.0,-1.0,-1.0,-1.0,-1.0,-1.0,1.0,1.0,1.0,1.0,1.0,1.0,-0.044752366840839386,-0.04489244148135185,0.04799028858542442,0.006179294548928738,-0.04037529602646828,0.027763117104768753,-0.05,-0.05,-0.05,-0.05,-0.05,-0.05,0.05,0.05,0.05,0.05,0.05,0.05,0.6134472175799637,1.55232031316981,-1.5377995432821892,2.801084384306449,-0.05313334128161266,1.4812037698627518,0.390815119021125,1.3469792983200666,-1.3521296908195628,2.824991356656664,-0.20933218851132138,1.5937891600795304,-0.04269611422258647,-0.21404581550945662,0.48860487490164806,0.06291923793744786,-0.41143485647481753,0.29628964244861455,-1.0,-1.0,-0.007333307140574581,0.3941812559550531,0.13349202376477678,-0.08206312087667136,-6.28318530718,0.820304748437,-6.28318530718,0.523598775598,-6.28318530718,1.1344640138,6.28318530718,5.46288055874,6.28318530718,5.75958653158,6.28318530718,5.14872129338,-0.38569074756684635,-20.600456347905187,0.38569074756684635,0.323111578663469,0.7,0.0,1.0,0.6963817097394066,-0.3589206412222168,0.8588609407750794,0.0,0.7071067811865475,0.0,-0.23823981506388672,0.6595881674946091,0.21140709097099109,0.0,0.0,0.0,-0.29691351005073363,0.6062947882242089,0.0,-92.06058111804727,-117.69036863248294
1.0,45.0,-0.7934858798980713,-0.06448160856962204,0.7266469597816467,0.8112891912460327,-0.37023037672042847,0.272174596786499,-1.0,-1.0,-1.0,-1.0,-1.0,-1.0,1.0,1.0,1.0,1.0,1.0,1.0,-0.039674293249845505,-0.003224080428481102,0.036332350224256516,0.040564458817243576,-0.018511518836021423,0.013608730398118496,-0.05,-0.05,-0.05,-0.05,-0.05,-0.05,0.05,0.05,0.05,0.05,0.05,0.05,0.6198177049314665,1.5390483961991719,-1.4967085285511676,2.844734521235369,-0.07402365545265871,1.496594811276342,0.41507575133073615,1.5361999110274045,-1.3561377921609066,3.0039066783926667,-0.14569093546171977,1.5492474218533443,0.02968076295566725,-0.09588454006810451,0.3699229905006868,0.41886035928308524,-0.1877183463606694,0.13852717666568698,-1.0,1.0,-0.033727040511047905,0.32419295549129334,-0.13405309099022916,-0.0513424119813324,-6.28318530718,0.820304748437,-6.28318530718,0.523598775598,-6.28318530718,1.1344640138,6.28318530718,5.46288055874,6.28318530718,5.75958653158,6.28318530718,5.14872129338,-0.3819521707799304,-20.982408518685116,0.3819521707799304,0.3352762932829884,0.7,0.0,1.0,0.700483047231049,-0.3499597669200748,0.8469791224501683,0.0,0.7071067811865475,0.0,-0.2553420749387631,0.6614510435946127,0.2097181058524,0.0,0.0,0.0,0.18692883934579851,0.7718417003915592,0.0,116.12216385516771,39.731258920164066
1.0,46.0,-0.6929342746734619,0.996344804763794,0.8075282573699951,-0.445949912071228,-0.3579031527042389,-0.9903788566589355,-1.0,-1.0,-1.0,-1.0,-1.0,-1.0,1.0,1.0,1.0,1.0,1.0,1.0,-0.034646715968847275,0.04981724172830582,0.040376413613557816,-0.02229749597609043,-0.017895158380270004,-0.04951894283294678,-0.05,-0.05,-0.05,-0.05,-0.05,-0.05,0.05,0.05,0.05,0.05,0.05,0.05,0.5960317410402151,1.532250256259904,-1.4510341369727935,2.819512984766532,-0.09420166854907663,1.4413132315443962,0.4465841250872301,1.788134604840701,-1.2948264604833786,2.733247041354917,-0.16349944735400873,1.2490000971116082,-0.25992892055606603,-0.038477981417341475,0.4110728328668811,-0.22702716281561436,-0.181568063929998,-0.5061194570202103,-1.0,1.0,-0.030443031482344125,0.3304152894319185,-0.1414001612861337,0.0037731489600416816,-6.28318530718,0.820304748437,-6.28318530718,0.523598775598,-6.28318530718,1.1344640138,6.28318530718,5.46288055874,6.28318530718,5.75958653158,6.28318530718,5.14872129338,-0.3678880635410012,-21.350296582226118,0.3678880635410012,0.36438435167602684,0.7,0.0,1.0,0.6965957097610764,-0.33148436472466464,0.8404752243474312,0.0,0.7071067811865475,0.0,-0.28422121102799885,0.6595085834313456,0.21814224211265007,0.0,0.0,0.0,0.7032053619464601,0.9984394941838075,0.0,123.90636542415878,54.383470510139595
1.0,47.0,0.5453218817710876,-0.08916109055280685,0.47772711515426636,0.9094355702400208,0.5669893026351929,0.756125807762146,-1.0,-1.0,-1.0,-1.0,-1.0,-1.0,1.0,1.0,1.0,1.0,1.0,1.0,0.027266094461083412,-0.004458054434508085,0.023886356502771378,0.04547178000211716,0.028349464759230614,0.03780629113316536,-0.05,-0.05,-0.05,-0.05,-0.05,-0.05,0.05,0.05,0.05,0.05,0.05,0.05,0.5983208826500487,1.5333115937670987,-1.424016391099805,2.870947750871184,-0.062256174842659565,1.4798994162759307,0.7323622133456321,1.5099599840873636,-1.3316023544589366,3.0468718847771177,0.047545655247076435,1.630344687210223,0.03267964452337004,-0.022340532866620397,0.24319483326544322,0.46298042651992416,0.2876176903710814,0.39595497663081153,1.0,-1.0,0.009619431065644347,-0.3452554694176085,0.11003764541699607,-0.005861047169960571,-6.28318530718,0.820304748437,-6.28318530718,0.523598775598,-6.28318530718,1.1344640138,6.28318530718,5.46288055874,6.28318530718,5.75958653158,6.28318530718,5.14872129338,-0.3658062378747068,-21.716102820100826,0.3658062378747068,0.3731450024156233,0.7,0.0,1.0,0.7057877902096021,-0.32189690890713174,0.8263247709413634,0.0,0.7071067811865475,0.0,-0.29532371960866755,0.6762111368132405,0.21564371074873928,0.0,0.0,0.0,0.10409128331471951,0.9703723301169115,0.0,-143.78737887161773,-6.736119376055045
1.0,48.0,-0.7509377002716064,0.3290269374847412,0.3143616318702698,0.42642518877983093,0.8003503680229187,0.7174896597862244,-1.0,-1.0,-1.0,-1.0,-1.0,-1.0,1.0,1.0,1.0,1.0,1.0,1.0,-0.03754688426852226,0.01645134761929512,0.01571808196604252,0.021321259438991547,0.040017519146203995,0.03587448224425316,-0.05,-0.05,-0.05,-0.05,-0.05,-0.05,0.05,0.05,0.05,0.05,0.05,0.05,0.5885912853423805,1.5365334370557173,-1.4062377422665235,2.8950606362968085,-0.016806193143535205,1.5204714489766353,0.41058646130743737,1.6155683318635743,-1.3454259812695923,2.9775540480661418,0.13783142088836042,1.6592718274971965,-0.1342768690723495,0.05548462281381758,0.16003094999192446,0.21702777252172692,0.4100579547384421,0.3651784199218564,-1.0,1.0,-0.08065024796098436,0.3105047788269962,-0.17678623210834876,-0.07349628655688817,-6.28318530718,0.820304748437,-6.28318530718,0.523598775598,-6.28318530718,1.1344640138,6.28318530718,5.46288055874,6.28318530718,5.75958653158,6.28318530718,5.14872129338,-0.3669343261930451,-22.083037146293872,0.3669343261930451,0.37863341813665896,0.7,0.0,1.0,0.7162869159302973,-0.3150306435442208,0.8125667325783986,0.0,0.7071067811865475,0.0,-0.31127516254753385,0.6917015320996132,0.19708688196858618,0.0,0.0,0.0,-0.05640441591691636,0.9309415402291408,0.0,-38.51896781559261,-9.46338957306497
1.0,49.0,-0.8302213549613953,0.1368691772222519,0.1615782082080841,-0.03716564550995827,-0.06321056187152863,-0.8348333835601807,-1.0,-1.0,-1.0,-1.0,-1.0,-1.0,1.0,1.0,1.0,1.0,1.0,1.0,-0.04151106998324394,0.006843458861112595,0.008078910410404205,-0.001858282252214849,-0.00316052814014256,-0.04174166917800903,-0.05,-0.05,-0.05,-0.05,-0.05,-0.05,0.05,0.05,0.05,0.05,0.05,0.05,0.5659370432213321,1.53989657883099,-1.3970997245712078,2.892950539243286,-0.019964288962623727,1.4786882875232148,0.38103593542616077,1.5707507313612803,-1.3658431902145025,2.8857692250357343,-0.03260883384424801,1.3117631030865902,-0.2553788593503148,0.06355853222565844,0.08225403778080344,-0.018960935498151116,-0.03005764277923454,-0.439360932630653,-1.0,1.0,-0.05486314047122514,0.28749910799998557,-0.14566383258268134,0.004529804554407311,-6.28318530718,0.820304748437,-6.28318530718,0.523598775598,-6.28318530718,1.1344640138,6.28318530718,5.46288055874,6.28318530718,5.75958653158,6.28318530718,5.14872129338,-0.3462684170521312,-22.429305563346002,0.3462684170521312,0.406201887662495,0.7,0.0,1.0,0.7154609971176433,-0.2919263978062944,0.8144151070809964,0.0,0.7071067811865475,0.0,-0.32380958843841817,0.6877995476143012,0.22426444232611875,0.0,0.0,0.0,1.0332954570456965,1.1596387382558386,0.0,261.5279695110271,54.88732752640749
1.0,50.0,0.6637293696403503,-0.9117740392684937,0.6014085412025452,-0.3120875060558319,-0.21807861328125,-0.5703577399253845,-1.0,-1.0,-1.0,-1.0,-1.0,-1.0,1.0,1.0,1.0,1.0,1.0,1.0,0.03318646922707558,-0.04558870196342468,0.030070427805185318,-0.01560437586158514,-0.010903931222856045,-0.028517886996269226,-0.05,-0.05,-0.05,-0.05,-0.05,-0.05,0.05,0.05,0.05,0.05,0.05,0.05,0.5381954903746172,1.5402209505864357,-1.363087204635893,2.875305501183514,-0.03255893089046427,1.446438789738581,0.73186938935671,1.3119530690138665,-1.2467475855452812,2.8149286599353602,-0.07448394507690395,1.3360988525418687,-0.24207737919438752,-0.026573733352209673,0.3061568923437152,-0.1588455928608556,-0.112508296805598,-0.29030863472052365,1.0,-1.0,0.037240248151755306,-0.2926580234068591,0.138648263682128,0.046059269505845934,-6.28318530718,0.820304748437,-6.28318530718,0.523598775598,-6.28318530718,1.1344640138,6.28318530718,5.46288055874,6.28318530718,5.75958653158,6.28318530718,5.14872129338,-0.3317434183423183,-22.76104898168832,0.3317434183423183,0.42908857873284595,0.7,0.0,1.0,0.7158753263444184,-0.27349873222768156,0.8129168283977536,0.0,0.7071067811865475,0.0,-0.3421800254113383,0.6864758887840522,0.2336684027238622,0.0,0.0,0.0,0.7262499354906443,0.9246558365116357,0.0,-73.69092517321252,-56.39589641860869
1.0,51.0,-0.40187790989875793,-0.04370590299367905,0.33768966794013977,-0.09254667907953262,0.758491575717926,0.5432284474372864,-1.0,-1.0,-1.0,-1.0,-1.0,-1.0,1.0,1.0,1.0,1.0,1.0,1.0,-0.020093895494937897,-0.0021852951031178236,0.01688448339700699,-0.004627333953976631,0.03792458027601242,0.02716142311692238,-0.05,-0.05,-0.05,-0.05,-0.05,-0.05,0.05,0.05,0.05,0.05,0.05,0.05,0.5155016009853577,1.5399585493949317,-1.3439702844879067,2.8701488287363284,0.009964747700882268,1.4753816671341842,0.43772601289992774,1.5292944750708466,-1.2786647876508581,2.8521688314136306,0.15706397048959783,1.582245905323193,-0.2046793671429716,-0.028063353484434336,0.17225600145774111,-0.04665229726862487,0.38529132259632093,0.2813835815853417,0.633745950316444,-0.15805283919107463,-0.009423743095568978,-0.20614534575134827,0.007728701408858852,-0.017759127668457397,-6.28318530718,0.820304748437,-6.28318530718,0.523598775598,-6.28318530718,1.1344640138,6.28318530718,5.46288055874,6.28318530718,5.75958653158,6.28318530718,5.14872129338,-0.3349310281038928,-23.09598000979221,0.3349310281038928,0.4343603299625255,0.7,0.0,1.0,0.7253559000676162,-0.26665420235350606,0.7989243717261907,0.0,0.7071067811865475,0.0,-0.3562980370418043,0.700877280593342,0.21332407053824487,0.0,0.0,0.0,-0.1593804880787253,0.9117534083087298,0.0,-212.55130165664872,-3.096582768697438
1.0,52.0,-0.9278807044029236,0.8670809268951416,-0.6979212760925293,0.477742075920105,-0.41958853602409363,0.10519687831401825,-1.0,-1.0,-1.0,-1.0,-1.0,-1.0,1.0,1.0,1.0,1.0,1.0,1.0,-0.04639403522014618,0.04335404559969902,-0.034896064549684525,0.02388710342347622,-0.02097942680120468,0.00525984400883317,-0.05,-0.05,-0.05,-0.05,-0.05,-0.05,0.05,0.05,0.05,0.05,0.05,0.05,0.5055976322324465,1.5357264365708283,-1.3834410595247524,2.896288620137403,-0.006291958526824226,1.4813249938842843,0.2835314248846268,1.7567287773934268,-1.5184506072363293,2.9895843458537095,-0.09493238630514114,1.50168088717835,-0.13329059290442236,-0.024042772083686763,-0.35528828345151814,0.24546784550222825,-0.23096595507877546,0.05351398560095209,-1.0,1.0,-0.02615841315102231,0.27554527930612444,-0.12078651941421642,-0.03459269809930414,-6.28318530718,0.820304748437,-6.28318530718,0.523598775598,-6.28318530718,1.1344640138,6.28318530718,5.46288055874,6.28318530718,5.75958653158,6.28318530718,5.14872129338,-0.31709850326776845,-23.41307851305998,0.31709850326776845,0.4456207628988175,0.7,0.0,1.0,0.7313538485403013,-0.248157684386825,0.8050996135556941,0.0,0.7071067811865475,0.0,-0.37127027396738527,0.6736069082227056,0.21950626594761133,0.0,0.0,0.0,0.8916262418062176,1.0200859944455538,0.0,252.24161517238628,25.999820672837775
1.0,53.0,-0.1298799067735672,-0.23300424218177795,-0.9584325551986694,-0.13601838052272797,-0.34721437096595764,0.00113762728869915,-1.0,-1.0,-1.0,-1.0,-1.0,-1.0,1.0,1.0,1.0,1.0,1.0,1.0,-0.0064939954318106174,-0.011650212109088898,-0.04792162775993347,-0.006800919305533171,-0.017360718920826912,5.688136661774479e-05,-0.05,-0.05,-0.05,-0.05,-0.05,-0.05,0.05,0.05,0.05,0.05,0.05,0.05,0.4850471508582086,1.5263169911237975,-1.437644988051383,2.8886011627476056,-0.026181742759427067,1.4813960562133466,0.4731276550733934,1.4774753760253838,-1.6230491983244197,2.862284023609737,-0.09309555313095878,1.481609400717373,-0.1760083203687533,-0.11806901674772247,-0.4879058165079915,-0.06916571029229246,-0.18064524523007902,0.0006860454484712503,1.0,-1.0,0.08694698238956317,-0.3204227252891456,0.17850263305014358,0.02671865812756592,-6.28318530718,0.820304748437,-6.28318530718,0.523598775598,-6.28318530718,1.1344640138,6.28318530718,5.46288055874,6.28318530718,5.75958653158,6.28318530718,5.14872129338,-0.30145849368924565,-23.714537006749225,0.30145849368924565,0.4471063815567198,0.7,0.0,1.0,0.7375517071238196,-0.23370075604195362,0.8133156425007839,0.0,0.7071067811865475,0.0,-0.3739188727393897,0.6452138047733778,0.2234816966791924,0.0,0.0,0.0,0.7820004789261398,0.8872983712041149,0.0,-26.310183091218686,-31.869029577945334
1.0,54.0,-0.3629215955734253,-0.758661150932312,0.8556509613990784,0.9047072529792786,0.6420261263847351,-0.5217621922492981,-1.0,-1.0,-1.0,-1.0,-1.0,-1.0,1.0,1.0,1.0,1.0,1.0,1.0,-0.018146080896258354,-0.03793305903673172,0.04278254881501198,0.04523536190390587,0.032101307064294815,-0.026088109239935875,-0.05,-0.05,-0.05,-0.05,-0.05,-0.05,0.05,0.05,0.05,0.05,0.05,0.05,0.4798158906467985,1.5222525075669038,-1.3892539444961138,2.9300137885395974,-0.0016073506020785836,1.451897826650116,0.3943167463769168,1.3366516959401389,-1.2237322439763232,3.114777972267135,0.134324792562047,1.3509555100136672,-0.06153371843000689,-0.049020430726149124,0.4355834224205019,0.4862585220590441,0.35593106608989844,-0.26559283511503756,-1.0,-1.0,-0.013439589633833016,0.3724390814518833,0.0682313770554301,-0.015898988224843185,-6.28318530718,0.820304748437,-6.28318530718,0.523598775598,-6.28318530718,1.1344640138,6.28318530718,5.46288055874,6.28318530718,5.75958653158,6.28318530718,5.14872129338,-0.2969528257770176,-24.011489832526244,0.2969528257770176,0.4864968260272409,0.7,0.0,1.0,0.7306195828574928,-0.21099241416010278,0.7932982267868015,0.0,0.7071067811865475,0.0,-0.3944697332522915,0.6600265667762416,0.25375112540264316,0.0,0.0,0.0,0.2252833956114031,1.5527556711643387,0.0,-133.6120999955368,159.7097519904537
1.0,55.0,0.5814642310142517,0.6757710576057434,-0.6428074240684509,-0.4270770847797394,0.8970340490341187,0.41243410110473633,-1.0,-1.0,-1.0,-1.0,-1.0,-1.0,1.0,1.0,1.0,1.0,1.0,1.0,0.029073212295770645,0.03378855437040329,-0.03214037045836449,-0.02135385386645794,0.04485170170664787,0.020621705800294876,-0.05,-0.05,-0.05,-0.05,-0.05,-0.05,0.05,0.05,0.05,0.05,0.05,0.05,0.4578998546017644,1.5162390769042375,-1.4256077668635834,2.9248612136928624,0.049761811933341525,1.4731889746721238,0.6251819521256518,1.6911952794189202,-1.5499557967879363,2.8232445192073077,0.22265115793116078,1.5550063556515903,-0.2690992872250316,-0.04729574749608463,-0.3272316576956658,-0.2674907835135787,0.4583537513844757,0.21524409578021572,1.0,1.0,-0.027340072993797458,-0.3912961995241329,-0.10985530539551383,-0.006752147282791895,-6.28318530718,0.820304748437,-6.28318530718,0.523598775598,-6.28318530718,1.1344640138,6.28318530718,5.46288055874,6.28318530718,5.75958653158,6.28318530718,5.14872129338,-0.2981390436524808,-24.309628876178724,0.2981390436524808,0.48675020189849966,0.7,0.0,1.0,0.738535753967794,-0.20033157626665588,0.7825853165798903,0.0,0.7071067811865475,0.0,-0.3953880825692612,0.6655747531793287,0.25098439907870335,0.0,0.0,0.0,-0.05931089377315957,0.8530616547754086,0.0,-68.30262945229504,-167.9265639333432
1.0,56.0,-0.6480004191398621,0.8534708619117737,-0.681236743927002,0.23902684450149536,-0.6056644916534424,-0.8242733478546143,-1.0,-1.0,-1.0,-1.0,-1.0,-1.0,1.0,1.0,1.0,1.0,1.0,1.0,-0.03240002319216728,0.042673543095588684,-0.03406183794140816,0.011951342225074768,-0.03028322570025921,-0.04121366888284683,-0.05,-0.05,-0.05,-0.05,-0.05,-0.05,0.05,0.05,0.05,0.05,0.05,0.05,0.4433980732852844,1.5085222512092513,-1.464134899542446,2.9330453464064443,0.019195651373042907,1.4324244566023259,0.295899738640928,1.729606792382181,-1.5959169565706242,2.9846179248182363,-0.10165431656795451,1.2671206302578897,-0.15812263216206213,-0.045200489719024,-0.34679488691625854,0.1356291926683162,-0.3141716616896218,-0.43509107866753116,-1.0,1.0,-0.0362464081114529,0.2882058226507076,-0.10609479353255828,0.017811945871849977,-6.28318530718,0.820304748437,-6.28318530718,0.523598775598,-6.28318530718,1.1344640138,6.28318530718,5.46288055874,6.28318530718,5.75958653158,6.28318530718,5.14872129338,-0.2754591523837754,-24.5850880285625,0.2754591523837754,0.5048359452857266,0.7,0.0,1.0,0.734027803441751,-0.17794104044403428,0.7924985798829027,0.0,0.7071067811865475,0.0,-0.3864472193720294,0.6444056280955099,0.2962726203089094,0.0,0.0,0.0,1.13399456343527,1.2449201798551244,0.0,286.3933097300231,94.04604601913178
1.0,57.0,-0.3210592269897461,0.6369926333427429,0.4427986145019531,-0.8558060526847839,-0.2857857346534729,-0.957126259803772,-1.0,-1.0,-1.0,-1.0,-1.0,-1.0,1.0,1.0,1.0,1.0,1.0,1.0,-0.016052961349487305,0.031849633902311325,0.022139931097626686,-0.042790304869413376,-0.01428928691893816,-0.04785631224513054,-0.05,-0.05,-0.05,-0.05,-0.05,-0.05,0.05,0.05,0.05,0.05,0.05,0.05,0.40929951075311866,1.510842557560747,-1.4390925272588475,2.888969986038305,0.002817640592844411,1.378299224345097,0.3631332665378479,1.667770420720808,-1.3534352440543125,2.7190938220593774,-0.05225078322164789,1.1931428953766732,-0.31461244748263173,0.051735099347641714,0.2254139031698288,-0.4470976075804263,-0.14243589012014063,-0.4873093705404086,1.0,1.0,-0.027553529759958152,-0.3955286397117414,-0.11669425389893605,0.055638354646508924,-6.28318530718,0.820304748437,-6.28318530718,0.523598775598,-6.28318530718,1.1344640138,6.28318530718,5.46288055874,6.28318530718,5.75958653158,6.28318530718,5.14872129338,-0.26258017803711203,-24.84766820659961,0.26258017803711203,0.5298583542786274,0.7,0.0,1.0,0.7286878787071429,-0.16233352596706302,0.7956151134247286,0.0,0.7071067811865475,0.0,-0.4163317968802675,0.6286981839880701,0.2946913970097236,0.0,0.0,0.0,0.6439487173331676,0.839377873245227,0.0,-117.61100306450456,-97.33015358637539
1.0,58.0,-0.9472033381462097,0.8548622727394104,-0.7440920472145081,-0.8052781820297241,-0.5250603556632996,-0.8744255304336548,-1.0,-1.0,-1.0,-1.0,-1.0,-1.0,1.0,1.0,1.0,1.0,1.0,1.0,-0.047360166907310486,0.04274311289191246,-0.03720460459589958,-0.040263909846544266,-0.026253018528223038,-0.0437212772667408,-0.05,-0.05,-0.05,-0.05,-0.05,-0.05,0.05,0.05,0.05,0.05,0.05,0.05,0.37418602501159803,1.5168779234690704,-1.4811741304150645,2.8434258452458248,-0.02586754337732399,1.3288435375557053,0.17249867621656623,1.7245581220203092,-1.6251155502383454,2.687650436805584,-0.1284474520482708,1.1596928380113931,-0.3694228791019963,0.10171107924562535,-0.37879321006126565,-0.4099579659206805,-0.2688484956580507,-0.4451616961184689,-1.0,1.0,-0.0010620405324124284,0.34455653854887996,-0.09410505787754031,-0.008179139651694221,-6.28318530718,0.820304748437,-6.28318530718,0.523598775598,-6.28318530718,1.1344640138,6.28318530718,5.46288055874,6.28318530718,5.75958653158,6.28318530718,5.14872129338,-0.2357301631609202,-25.08339836976053,0.2357301631609202,0.5442112356186847,0.7,0.0,1.0,0.7258557499846668,-0.14566248314888652,0.8164717160231023,0.0,0.7071067811865475,0.0,-0.4250374058258616,0.5941120719984255,0.30568490172283735,0.0,0.0,0.0,1.3425007438095924,1.3425186159720826,0.0,167.65248635434196,120.75377825444535
1.0,59.0,0.6872228384017944,-0.6049744486808777,0.7844509482383728,0.07051252573728561,-0.9673947095870972,-0.46356862783432007,-1.0,-1.0,-1.0,-1.0,-1.0,-1.0,1.0,1.0,1.0,1.0,1.0,1.0,0.03436114266514778,-0.030248722061514854,0.03922254964709282,0.003525626379996538,-0.04836973547935486,-0.023178432136774063,-0.05,-0.05,-0.05,-0.05,-0.05,-0.05,0.05,0.05,0.05,0.05,0.05,0.05,0.35689003943934694,1.5223699564043447,-1.4368096883649395,2.8474174242577583,-0.0807745486682266,1.302632231830049,0.5459917383373369,1.365634313161496,-1.2850613821796004,2.8610539771458074,-0.2677162207740983,1.212951376871835,-0.14400819933962922,0.030552221938266223,0.3993376478561556,0.03591161046761077,-0.49345179345166357,-0.23595176183088534,1.0,-1.0,0.034866836659522484,-0.32715942539824494,0.14223048076044353,0.03773517150907397,-6.28318530718,0.820304748437,-6.28318530718,0.523598775598,-6.28318530718,1.1344640138,6.28318530718,5.46288055874,6.28318530718,5.75958653158,6.28318530718,5.14872129338,-0.21686192828924547,-25.300260298049775,0.21686192828924547,0.5675875795910805,0.7,0.0,1.0,0.7223282445782202,-0.1287261284195383,0.8269100543142336,0.0,0.7071067811865475,0.0,-0.442434965837185,0.5769251069980056,0.3161181074824214,0.0,0.0,0.0,0.9434117435837358,1.0102503553462923,0.0,-95.78136005420558,-79.74438255018967
1.0,60.0,-0.9467203617095947,0.532831609249115,0.3084409236907959,-0.6436430811882019,0.33550912141799927,-0.9206608533859253,-1.0,-1.0,-1.0,-1.0,-1.0,-1.0,1.0,1.0,1.0,1.0,1.0,1.0,-0.047336019575595856,0.02664158120751381,0.015422046184539795,-0.032182153314352036,0.016775457188487053,0.0,-0.05,-0.05,-0.05,-0.05,-0.05,-0.05,0.05,0.05,0.05,0.05,0.05,0.05,0.32337016312549877,1.5361132545714558,-1.419365884216448,2.811016172048678,-0.061789815803213445,1.2713913272753066,0.12020994156136766,1.6555778624419137,-1.3596994574422405,2.686506657685998,0.003102737274208664,1.164533101586986,-0.3535518713039024,0.16618122717765613,0.15701691256370387,-0.32767272796358454,0.17173549367409777,-0.28123771460988284,-1.0,1.0,-0.038637557004720574,0.31836275194417296,-0.15354785910405633,-0.007404324094604013,-6.28318530718,0.820304748437,-6.28318530718,0.523598775598,-6.28318530718,1.1344640138,6.28318530718,5.46288055874,6.28318530718,5.75958653158,6.28318530718,5.14872129338,-0.20553866254456363,-25.505798960594337,0.20553866254456363,0.5866204515159741,0.7,0.0,1.0,0.7204616205089844,-0.11438243762689984,0.8304590850287675,0.0,0.7071067811865475,0.0,-0.4682045664561894,0.5721732622129856,0.30814076565413084,0.0,0.0,0.0,0.5661632872340921,0.7446834394280843,0.0,-90.53962952391447,-63.7360598203699
1.0,61.0,-0.5076648592948914,0.38066503405570984,0.4676821231842041,0.5581666827201843,-0.17040318250656128,0.7341830730438232,-1.0,-1.0,-1.0,-1.0,-1.0,-1.0,1.0,1.0,1.0,1.0,1.0,1.0,-0.025383243337273598,0.019033251330256462,0.023384107276797295,0.027908334508538246,-0.008520158939063549,0.03670915588736534,-0.05,-0.05,-0.05,-0.05,-0.05,-0.05,0.05,0.05,0.05,0.05,0.05,0.05,0.3052764441207807,1.5560342214461398,-1.3928715551803394,2.842579984898436,-0.07148729516327887,1.3119061079263021,0.19645394643913078,1.631279511222738,-1.3024453478324616,2.950557844591369,-0.10439061049853118,1.4549371067121333,-0.22049940974505092,0.19801392046473243,0.23993698927542642,0.28406697710614254,-0.09266173756233065,0.3765610741119603,-1.0,-0.6424029219695843,-0.00896100376093608,0.39077294019736536,0.05485147164061899,-0.08265721265555832,-6.28318530718,0.820304748437,-6.28318530718,0.523598775598,-6.28318530718,1.1344640138,6.28318530718,5.46288055874,6.28318530718,5.75958653158,6.28318530718,5.14872129338,-0.18771035742077524,-25.693509318015114,0.18771035742077524,0.598189119897307,0.7,0.0,1.0,0.731224435406539,-0.09525499860434508,0.841296823732276,0.0,0.7071067811865475,0.0,-0.4911064542659261,0.5597632637757569,0.28942384100422247,0.0,0.0,0.0,0.8914152561894192,1.2238808033118451,0.0,78.06047254927849,115.00736733210259
1.0,62.0,0.6319869756698608,0.6702446341514587,-0.9324076175689697,0.12518277764320374,-0.5884708166122437,-0.9575570821762085,-1.0,-1.0,-1.0,-1.0,-1.0,-1.0,1.0,1.0,1.0,1.0,1.0,1.0,0.03159935027360916,0.03351223096251488,-0.04662038013339043,0.006259139161556959,-0.029423540458083153,0.0,-0.05,-0.05,-0.05,-0.05,-0.05,-0.05,0.05,0.05,0.05,0.05,0.05,0.05,0.28247123725378875,1.5753942706154245,-1.4456034129778985,2.8496584112731003,-0.10104484549525672,1.2827011628623997,0.4632731954888265,1.7235953762587142,-1.6259734558472916,2.8738756807062207,-0.21860499745369463,1.1682725411295225,-0.2026529459002723,0.2230924214817595,-0.4746580075510342,0.06371983729687336,-0.3086293495618828,-0.3011553380983337,1.0,1.0,0.027327364671652844,-0.42255813679150045,-0.07416368704455696,0.030523671678595477,-6.28318530718,0.820304748437,-6.28318530718,0.523598775598,-6.28318530718,1.1344640138,6.28318530718,5.46288055874,6.28318530718,5.75958653158,6.28318530718,5.14872129338,-0.15003976592495397,-25.84354908394007,0.15003976592495397,0.6209595210488383,0.7,0.0,1.0,0.7262628000636034,-0.07225846929771249,0.8711554801072793,0.0,0.7071067811865475,0.0,-0.4956766005519506,0.5181310559789071,0.31173961341259215,0.0,0.0,0.0,1.8835295747910639,1.9006561669247308,0.0,238.1074364643947,162.42608726709256
1.0,63.0,0.8864546418190002,0.5640851259231567,-0.45247572660446167,0.4196530878543854,0.5111103653907776,-0.9611830711364746,-1.0,-1.0,-1.0,-1.0,-1.0,-1.0,1.0,1.0,1.0,1.0,1.0,1.0,0.04432273283600807,0.028204256668686867,-0.022623786702752113,0.0209826547652483,0.02555551938712597,0.0,-0.05,-0.05,-0.05,-0.05,-0.05,-0.05,0.05,0.05,0.05,0.05,0.05,0.05,0.27256152586899624,1.6069066759027788,-1.4710442128074115,2.8733924899368573,-0.07279237479737534,1.2501056887118371,0.5040849014338291,1.7164155539588588,-1.558722346491659,2.9545716850993418,0.026732751440373126,1.1385236999567543,-0.07800910882845898,0.2881812580423159,-0.22729108497774358,0.21361156250549518,0.24980195634149027,-0.2932884508667216,1.0,-0.8152342762989827,0.035124509514371814,-0.3555297082985251,0.10496446329536775,0.03307802140822498,-6.28318530718,0.820304748437,-6.28318530718,0.523598775598,-6.28318530718,1.1344640138,6.28318530718,5.46288055874,6.28318530718,5.75958653158,6.28318530718,5.14872129338,-0.12448240054690925,-25.96803148448698,0.12448240054690925,0.6559601799314689,0.7,0.0,1.0,0.7171229511792527,-0.054590481863970586,0.8894443494040509,0.0,0.7071067811865475,0.0,-0.5250217107823828,0.49047620499933997,0.3162733640081651,0.0,0.0,0.0,1.277868268902236,1.3510897062575318,0.0,-145.35871341331867,-131.89595056012777
1.0,64.0,0.9947718977928162,-0.6484038233757019,0.8795848488807678,-0.9193967580795288,0.5290809273719788,0.18790169060230255,-1.0,-1.0,-1.0,-1.0,-1.0,-1.0,1.0,1.0,1.0,1.0,1.0,1.0,0.04973859712481499,-0.032420191913843155,0.04397924244403839,-0.04596984013915062,0.026454046368598938,0.009395084343850613,-0.05,-0.05,-0.05,-0.05,-0.05,-0.05,0.05,0.05,0.05,0.05,0.05,0.05,0.2457220642669593,1.6306846836598572,-1.4212994978316584,2.832136286268989,-0.0431926718415895,1.260006692718858,0.5212545114930711,1.444805716333563,-1.2511480005872195,2.643543289241104,0.05947785704561935,1.2970811104310902,-0.2679011817295934,0.1914149130883656,0.44776709801168163,-0.49628622337459094,0.2693134148735156,0.09758954287697359,1.0,-1.0,-0.012554853750354387,-0.2686147461899325,0.08712273703941552,-0.030892891132681587,-6.28318530718,0.820304748437,-6.28318530718,0.523598775598,-6.28318530718,1.1344640138,6.28318530718,5.46288055874,6.28318530718,5.75958653158,6.28318530718,5.14872129338,-0.12178592927957295,-26.08981741376655,0.12178592927957295,0.6565368899602231,0.7,0.0,1.0,0.7241368598413058,-0.0510594860179506,0.8921011888152932,0.0,0.7071067811865475,0.0,-0.5484282234047558,0.5032481704498308,0.2802165789608173,0.0,0.0,0.0,0.1348235633668149,0.41449258751322693,0.0,-274.3307293285011,-224.78330849863318
1.0,65.0,0.09577950835227966,-0.5698657631874084,0.8384382724761963,-0.3838154673576355,0.20210742950439453,0.1892431378364563,-1.0,-1.0,-1.0,-1.0,-1.0,-1.0,1.0,1.0,1.0,1.0,1.0,1.0,0.0047889756970107555,-0.028493288904428482,0.041921913623809814,-0.019190773367881775,0.010105371475219727,0.009462157264351845,-0.05,-0.05,-0.05,-0.05,-0.05,-0.05,0.05,0.05,0.05,0.05,0.05,0.05,0.23354907610651301,1.6440928214887027,-1.3738818178407373,2.8104303821888013,-0.03181891979719963,1.270710842054498,0.2696669427520131,1.4882182391377148,-1.2116899297126094,2.7361824194295803,0.007334185534509131,1.3073174790406172,-0.08244850185709146,0.09880485364927367,0.4268207582319157,-0.19538155927282572,0.10238228581382872,0.0963507172662148,1.0,-1.0,-0.006238041755283104,-0.2713648256545127,0.11250486472210068,-0.005479005049408311,-6.28318530718,0.820304748437,-6.28318530718,0.523598775598,-6.28318530718,1.1344640138,6.28318530718,5.46288055874,6.28318530718,5.75958653158,6.28318530718,5.14872129338,-0.12275944555738147,-26.21257685932393,0.12275944555738147,0.6512576662363543,0.7,0.0,1.0,0.7288672874995059,-0.05212718853685716,0.8926719169964379,0.0,0.7071067811865475,0.0,-0.5539277608224412,0.5240588433217919,0.2648345416243538,0.0,0.0,0.0,-0.048675813890425995,0.24414475805910968,0.0,-44.03985054173781,-40.88347906898814
1.0,66.0,0.6551289558410645,0.5654171705245972,0.3574237525463104,0.3379923701286316,0.734549343585968,0.0936373770236969,-1.0,-1.0,-1.0,-1.0,-1.0,-1.0,1.0,1.0,1.0,1.0,1.0,1.0,0.03275644779205322,0.028270859271287918,0.01787118799984455,0.01689961925148964,0.03672746941447258,0.004681868944317102,-0.05,-0.05,-0.05,-0.05,-0.05,-0.05,0.05,0.05,0.05,0.05,0.05,0.05,0.243122204151572,1.6649322573045702,-1.353667800865307,2.829544859906541,0.00976878644334853,1.2760055169778912,0.3973313150667791,1.7854471178451423,-1.2845258778415145,2.8949284784462495,0.15181842727516326,1.2941201867760834,0.11951248701103713,0.2333592719996772,0.18195242900998002,0.1720509217952205,0.3746460575838429,0.04765346246486087,1.0,1.0,-0.02066381761504802,-0.447757098395598,-0.1228007995716788,0.02262256683333434,-6.28318530718,0.820304748437,-6.28318530718,0.523598775598,-6.28318530718,1.1344640138,6.28318530718,5.46288055874,6.28318530718,5.75958653158,6.28318530718,5.14872129338,-0.1243946954321843,-26.336971554756115,0.1243946954321843,0.6611863792624056,0.7,0.0,1.0,0.728325777930434,-0.056270077661629433,0.8927369172722701,0.0,0.7071067811865475,0.0,-0.5719873500014946,0.5327095819227123,0.24785518220950598,0.0,0.0,0.0,-0.08176249374014163,0.20893173496031617,0.0,-7.940803163931753,-8.451125543710443
1.0,67.0,-0.7000652551651001,0.32207366824150085,-0.09478170424699783,0.9351543188095093,-0.8068801164627075,0.6401076316833496,-1.0,-1.0,-1.0,-1.0,-1.0,-1.0,1.0,1.0,1.0,1.0,1.0,1.0,-0.035003263503313065,0.016103683039546013,-0.004739085212349892,0.046757716685533524,-0.040344007313251495,0.03200538083910942,-0.05,-0.05,-0.05,-0.05,-0.05,-0.05,0.05,0.05,0.05,0.05,0.05,0.05,0.26508632853324987,1.6829842684838514,-1.3589795750540754,2.8824273513869385,-0.03130477545140806,1.312207113980421,0.06810588663500669,1.7454506725023002,-1.3773632269270564,3.0633334433342085,-0.19195125012290895,1.4360324211734383,0.17110020701143244,0.16438527373276005,-0.04617297999666811,0.47591359237944375,-0.43045505777903637,0.3259823787704628,-1.0,-0.5600444063766261,0.018537397965372435,0.3762733808008425,0.06652096918806188,-0.060220389538193364,-6.28318530718,0.820304748437,-6.28318530718,0.523598775598,-6.28318530718,1.1344640138,6.28318530718,5.46288055874,6.28318530718,5.75958653158,6.28318530718,5.14872129338,-0.10739477448788841,-26.444366329244005,0.10739477448788841,0.659907673456035,0.7,0.0,1.0,0.7315503286045371,-0.05501333193714046,0.9133296610054851,0.0,0.7071067811865475,0.0,-0.5713920192207794,0.5130271531092735,0.24157937091081808,0.0,0.0,0.0,0.8499960472147946,1.0440764236009545,0.0,223.6220498291847,200.4347252737532
1.0,68.0,-0.14598655700683594,0.34365490078926086,-0.07308375835418701,0.11104952543973923,0.8832193613052368,-0.48382726311683655,-1.0,-1.0,-1.0,-1.0,-1.0,-1.0,1.0,1.0,1.0,1.0,1.0,1.0,-0.007299327757209539,0.017182745039463043,-0.003654188010841608,0.005552476271986961,0.04416096955537796,-0.024191362783312798,-0.05,-0.05,-0.05,-0.05,-0.05,-0.05,0.05,0.05,0.05,0.05,0.05,0.05,0.261667553250731,1.7030704138718704,-1.363100161963803,2.8887093635262038,0.01595237126712502,1.2855408941611632,0.22858968974720217,1.7688979936811666,-1.3772505151082834,2.9101897327468733,0.18950007232548174,1.191250300063857,-0.06880708864412252,0.1732304731823586,-0.036567194343317996,0.05648300289937289,0.45421364056206265,-0.24810276468841175,-1.0,-0.4747321380638306,-0.02782513458865266,0.37167870817997,0.00885977570326291,0.009259387235175902,-6.28318530718,0.820304748437,-6.28318530718,0.523598775598,-6.28318530718,1.1344640138,6.28318530718,5.46288055874,6.28318530718,5.75958653158,6.28318530718,5.14872129338,-0.10172786324329536,-26.5460941924873,0.10172786324329536,0.6844853732641556,0.7,0.0,1.0,0.7244590370598439,-0.050628614374837455,0.9152234874942606,0.0,0.7071067811865475,0.0,-0.5968449310577055,0.5054433170360036,0.23414561750944526,0.0,0.0,0.0,0.2833455622296525,0.42748901343365703,0.0,-135.9961163964341,-147.98097844015138
1.0,69.0,-0.023230601102113724,0.15436364710330963,0.2449328750371933,-0.5412405133247375,0.6007130146026611,-0.30424973368644714,-1.0,-1.0,-1.0,-1.0,-1.0,-1.0,1.0,1.0,1.0,1.0,1.0,1.0,-0.0011615300318226218,0.007718182634562254,0.012246644124388695,-0.027062026783823967,0.030035650357604027,-0.015212486498057842,-0.05,-0.05,-0.05,-0.05,-0.05,-0.05,0.05,0.05,0.05,0.05,0.05,0.05,0.24620722496599992,1.7125806310679952,-1.3491988005804325,2.8580987197815717,0.049562222567426,1.2683386909249579,0.2558599030916179,1.7416613270446817,-1.3018669413418595,2.753399229607084,0.16613062305514514,1.209478461670874,-0.11206526348092798,0.07652814730706947,0.12552852572889822,-0.2755961096413544,0.30347377791287233,-0.15487563028261514,1.0,-0.17261952140477402,0.010233482447623114,-0.3245557817041708,0.0312268157725171,0.01816716701657107,-6.28318530718,0.820304748437,-6.28318530718,0.523598775598,-6.28318530718,1.1344640138,6.28318530718,5.46288055874,6.28318530718,5.75958653158,6.28318530718,5.14872129338,-0.10316782035241118,-26.64926201283971,0.10316782035241118,0.6843701031504085,0.7,0.0,1.0,0.7232863235651394,-0.05114317569173436,0.9134799337075415,0.0,0.7071067811865475,0.0,-0.5989321607041679,0.523573801653268,0.23271880357164118,0.0,0.0,0.0,-0.07199785545579096,0.10816665494378537,0.0,-85.28242024450644,-76.6373660375692
1.0,70.0,0.8833048343658447,0.6088756322860718,0.558945894241333,-0.5316959023475647,-0.008846973069012165,0.18054978549480438,-1.0,-1.0,-1.0,-1.0,-1.0,-1.0,1.0,1.0,1.0,1.0,1.0,1.0,0.044165242463350296,0.03044378198683262,0.02794729545712471,-0.026584794744849205,-0.00044234865345060825,0.009027489461004734,-0.05,-0.05,-0.05,-0.05,-0.05,-0.05,0.05,0.05,0.05,0.05,0.05,0.05,0.23892227258054255,1.7209156312785714,-1.3175877456918261,2.828027377274992,0.04916378767687497,1.2785483894803609,0.4670334372827514,1.8647995410021583,-1.209462323294809,2.7251747460573257,0.04735047930017296,1.3134761382299815,-0.029886089853824474,0.1136819477766681,0.28454058525530845,-0.27067458522750826,-0.004033874663188324,0.09190653169413543,1.0,1.0,-0.0031365769529627893,-0.4166877850329589,-0.0982903486260699,-0.001613298315786705,-6.28318530718,0.820304748437,-6.28318530718,0.523598775598,-6.28318530718,1.1344640138,6.28318530718,5.46288055874,6.28318530718,5.75958653158,6.28318530718,5.14872129338,-0.10479693320905878,-26.75405894604877,0.10479693320905878,0.6782203719843779,0.7,0.0,1.0,0.7280323247763122,-0.05840256406459808,0.9176244788281143,0.0,0.7071067811865475,0.0,-0.6030145836796678,0.5301059849721627,0.20747794687673404,0.0,0.0,0.0,-0.0814556428323801,0.4806258974009443,0.0,-2.2698689703813946,89.39021818971814
1.0,71.0,-0.7005648612976074,-0.7708864212036133,0.9225002527236938,0.5686562061309814,0.1973027139902115,-0.6576895713806152,-1.0,-1.0,-1.0,-1.0,-1.0,-1.0,1.0,1.0,1.0,1.0,1.0,1.0,-0.03502824530005455,-0.03854432329535484,0.04612501338124275,0.028432810679078102,0.00986513588577509,0.0,-0.05,-0.05,-0.05,-0.05,-0.05,-0.05,0.05,0.05,0.05,0.05,0.05,0.05,0.24809100459515215,1.7342334426645818,-1.2654159592673027,2.8506369958428457,0.06024107047089988,1.2494708218960795,0.0637810460802698,1.5281940148017972,-1.0869626787856124,2.9701914306703827,0.09848946710575042,1.1470104752042378,0.0901399054977598,0.11143278895486619,0.46961389600444825,0.3146222688751025,0.10025459892631398,-0.2696284035014729,-1.0,-1.0,-0.04249845935024333,0.409496257373957,0.047244009033341125,0.01861956921152932,-6.28318530718,0.820304748437,-6.28318530718,0.523598775598,-6.28318530718,1.1344640138,6.28318530718,5.46288055874,6.28318530718,5.75958653158,6.28318530718,5.14872129338,-0.10758590435226292,-26.86164485040103,0.10758590435226292,0.695746436078611,0.7,0.0,1.0,0.7184766906987243,-0.060331286132648876,0.9128594547314605,0.0,0.7071067811865475,0.0,-0.6152491565621341,0.5466881079180764,0.21615346562001808,0.0,0.0,0.0,-0.1394485571602072,0.5425301053449383,0.0,-13.918299438678506,14.857009906558556
1.0,72.0,0.8975191712379456,0.02537679113447666,0.8863736391067505,-0.1841568797826767,-0.6526322960853577,0.6667240262031555,-1.0,-1.0,-1.0,-1.0,-1.0,-1.0,1.0,1.0,1.0,1.0,1.0,1.0,0.04487596079707146,0.0012688395800068974,0.044318683445453644,-0.00920784380286932,-0.03263161703944206,0.033336203545331955,-0.05,-0.05,-0.05,-0.05,-0.05,-0.05,0.05,0.05,0.05,0.05,0.05,0.05,0.24947081412648905,1.735624676237604,-1.21528695458738,2.8427629865130046,0.023437640538349323,1.281724267095823,0.47247080858050944,1.7405776405646163,-1.0438225420400344,2.804597776828499,-0.10291701472631043,1.4161518396227393,0.03775806468449852,0.013034116650032512,0.4526164991561428,-0.10064429636017001,-0.33688072613612036,0.3537684408929714,1.0,-0.1312867850612139,0.020088755169510638,-0.30377249716369403,0.05583778569536849,-0.03176172142127844,-6.28318530718,0.820304748437,-6.28318530718,0.523598775598,-6.28318530718,1.1344640138,6.28318530718,5.46288055874,6.28318530718,5.75958653158,6.28318530718,5.14872129338,-0.10991395006621116,-26.971558800467243,0.10991395006621116,0.6785002600116868,0.7,0.0,1.0,0.7266997122883345,-0.06675054259934765,0.9168581522603064,0.0,0.7071067811865475,0.0,-0.605351345235725,0.5610400775242356,0.2009263636212635,0.0,0.0,0.0,-0.11640228569741173,0.5586020935685082,0.0,5.531105151070914,3.8572771736567812
1.0,73.0,-0.11322619020938873,-0.7729859352111816,-0.14191605150699615,0.4823434352874756,-0.16061505675315857,0.5337690711021423,-1.0,-1.0,-1.0,-1.0,-1.0,-1.0,1.0,1.0,1.0,1.0,1.0,1.0,-0.005661309696733952,-0.0386492982506752,-0.007095802575349808,0.02411717176437378,-0.008030752651393414,0.026688454672694206,-0.05,-0.05,-0.05,-0.05,-0.05,-0.05,0.05,0.05,0.05,0.05,0.05,0.05,0.26119938107306323,1.7388335120357727,-1.2233129836187835,2.868808906576169,0.014322961541286525,1.3119120462597675,0.2211642656428193,1.542378184984228,-1.250765967464129,2.9633488453348735,-0.016716122718617745,1.4151665404592941,0.08207474715382093,0.0004235400992161874,-0.07224469432985658,0.24880020606118525,-0.08263745090479996,0.27173884209586197,-1.0,-1.0,0.001119750945059279,0.4607915567430734,0.07663914025413861,-0.05236216930561385,-6.28318530718,0.820304748437,-6.28318530718,0.523598775598,-6.28318530718,1.1344640138,6.28318530718,5.46288055874,6.28318530718,5.75958653158,6.28318530718,5.14872129338,-0.1092939385609492,-27.08085273902819,0.1092939385609492,0.6616106425195926,0.7,0.0,1.0,0.7315355516861477,-0.06796660649018842,0.9204310714649071,0.0,0.7071067811865475,0.0,-0.5875150699181045,0.5726421475317562,0.20935437390791137,0.0,0.0,0.0,0.031000575263098046,0.3067160971919034,0.0,35.37668663052235,-60.45263913038515
