PierreExeter/rl_reach/code/res_episode.csv
episode,timestep,action1,action2,action3,action4,action5,action6,action1_min,action2_min,action3_min,action4_min,action5_min,action6_min,action1_max,action2_max,action3_max,action4_max,action5_max,action6_max,pyb_action1,pyb_action2,pyb_action3,pyb_action4,pyb_action5,pyb_action6,pyb_action1_min,pyb_action2_min,pyb_action3_min,pyb_action4_min,pyb_action5_min,pyb_action6_min,pyb_action1_max,pyb_action2_max,pyb_action3_max,pyb_action4_max,pyb_action5_max,pyb_action6_max,joint1_pos,joint2_pos,joint3_pos,joint4_pos,joint5_pos,joint6_pos,desired_joint1_pos,desired_joint2_pos,desired_joint3_pos,desired_joint4_pos,desired_joint5_pos,desired_joint6_pos,joint1_vel,joint2_vel,joint3_vel,joint4_vel,joint5_vel,joint6_vel,joint1_tor,joint2_tor,joint3_tor,joint4_tor,joint5_tor,joint6_tor,joint1_min,joint2_min,joint3_min,joint4_min,joint5_min,joint6_min,joint1_max,joint2_max,joint3_max,joint4_max,joint5_max,joint6_max,reward,return,distance,orientation,goal_x,goal_y,goal_z,tip_x,tip_y,tip_z,goal_yaw,goal_pitch,goal_roll,tip_yaw,tip_pitch,tip_roll,done,term1,term2,vel_dist,vel_pos,collision,acc_dist,acc_pos
1.0,0.0,-0.12338569760322571,-0.0798952654004097,-1.736437201499939,-1.1290483474731445,0.7376992702484131,1.329383373260498,-2.0,-2.0,-2.0,-2.0,-2.0,-2.0,2.0,2.0,2.0,2.0,2.0,2.0,-0.003084642440080644,-0.0009986908175051226,-0.02170546501874924,-0.014113104343414307,0.018442481756210327,0.020808646082878114,-0.05,-0.025,-0.025,-0.025,-0.05,0.0,0.05,0.025,0.025,0.025,0.05,0.025,0.012630189174256203,-1.2940217684428192,0.9919048781601281,-1.3661610501480208,-0.0553854630113686,0.0,0.012255165438775768,-1.2941444950051006,0.9892656110486072,-1.3678801687701307,-0.053143288345119596,0.020808646082878114,-0.010000698085135068,-0.0031337419450131465,-0.07038045630722145,-0.045828855612485134,0.059791463146413044,0.0,3.655972020707024e-10,1.426981987014419e-07,-5.847498770535482e-07,5.6856332935422294e-08,-2.5645404450567036e-10,0.0,-3.2,-3.2,-3.2,-3.2,-3.2,-3.2,3.2,3.2,3.2,3.2,3.2,3.2,-0.17506249595923415,-0.17506249595923415,0.17506249595923415,1.7230670819318292,0.14,0.0,0.26,0.001013158943443876,1.2797069596573682e-05,0.36644029002605866,-0.7853981633974483,0.0,-1.5707963267948966,0.005413409846422607,-0.09733166282573288,-0.043018930747880615,0.0,0.0,0.0,-1.2081615592035555,1.2305114628083584,0.0,-289.9587742088533,295.322751074006
1.0,1.0,-0.0329803004860878,1.9311200380325317,-1.484136700630188,-0.02654455602169037,0.5349401831626892,-1.4840288162231445,-2.0,-2.0,-2.0,-2.0,-2.0,-2.0,2.0,2.0,2.0,2.0,2.0,2.0,-0.0008245075121521978,0.024139000475406645,-0.01855170875787735,-0.0003318069502711296,0.013373504579067233,0.0032248198986053467,-0.05,-0.025,-0.025,-0.025,-0.05,0.0,0.05,0.025,0.025,0.025,0.05,0.025,0.011905926886881815,-1.272817506948949,0.9756101510724006,-1.366441640255031,-0.043637864379176015,0.0,0.011805681662104005,-1.2698827679674125,0.9733531694022507,-1.366492857098292,-0.04201195843230137,0.0032248198986053467,-0.0026730647862664436,0.07825970433348287,-0.060137359654669764,-0.0010187000463608709,0.043357491916657276,0.0,-1.0153315989775991e-11,5.668942737487001e-08,-6.315951000598339e-07,2.6567499719018147e-08,-1.7487029076841073e-10,0.0,-3.2,-3.2,-3.2,-3.2,-3.2,-3.2,3.2,3.2,3.2,3.2,3.2,3.2,-0.1742571202725559,-0.3493196162317901,0.1742571202725559,1.7320484335084803,0.14,0.0,0.26,0.0035811689712755947,4.263915067609428e-05,0.3684225285092687,-0.7853981633974483,0.0,-1.5707963267948966,0.004062265203599343,-0.09276402085278677,-0.03192048900698243,0.0,0.0,0.0,0.1932901648027774,0.778608067215322,0.0,336.3484137615199,-108.45681494232873
1.0,2.0,1.7809028625488281,-1.5699714422225952,-1.4261137247085571,0.7423655986785889,-0.358595609664917,0.7841818928718567,-2.0,-2.0,-2.0,-2.0,-2.0,-2.0,2.0,2.0,2.0,2.0,2.0,2.0,0.044522571563720706,-0.01962464302778244,-0.017826421558856966,0.00927956998348236,-0.008964890241622926,0.017401136830449106,-0.05,-0.025,-0.025,-0.025,-0.05,0.0,0.05,0.025,0.025,0.025,0.05,0.025,0.05101559528243994,-1.29005648712512,0.9599514405283218,-1.3582871599103419,-0.05151243057738335,0.0,0.05642849845060252,-1.2924421499767313,0.9577837295135436,-1.3571620702715486,-0.05260275462079894,0.017401136830449106,0.14434413002175484,-0.06348518625733243,-0.057805627060750986,0.030014143688431236,-0.029075418741382683,0.0,-9.459055671216436e-09,1.7384275375172491e-07,-5.635163877052612e-07,6.983218192754088e-08,-5.750098488121216e-10,0.0,-3.2,-3.2,-3.2,-3.2,-3.2,-3.2,3.2,3.2,3.2,3.2,3.2,3.2,-0.1800385176170038,-0.5293581338487938,0.1800385176170038,1.7620873615456563,0.14,0.0,0.26,-0.0021704938233119957,-0.00011082519535608357,0.3704599756904729,-0.7853981633974483,0.0,-1.5707963267948966,0.006082962124155005,-0.11743917048802871,-0.0008544365017962977,0.0,0.0,0.0,-1.3875353626674913,1.4649118581410154,0.0,-379.3981265928645,164.7129098221664
1.0,3.0,-1.5337131023406982,0.5569942593574524,1.209765076637268,1.436685562133789,1.3871370553970337,0.6650055050849915,-2.0,-2.0,-2.0,-2.0,-2.0,-2.0,2.0,2.0,2.0,2.0,2.0,2.0,-0.03834282755851746,0.0069624282419681535,0.01512206345796585,0.017958569526672366,0.03467842638492584,0.016656284406781196,-0.05,-0.025,-0.025,-0.025,-0.05,0.0,0.05,0.025,0.025,0.025,0.05,0.025,0.01733436455129977,-1.283940527623114,0.9732368475749607,-1.3424981363521307,-0.021050091258802122,0.0,0.012672767723922486,-1.2830940588831519,0.9750735039862877,-1.3403285903836695,-0.016834004192457508,0.016656284406781196,-0.12430916258682137,0.022572499180862737,0.049035313693042815,0.058287478746502586,0.11242898843585636,0.0,7.72014413212003e-09,4.046499992640488e-08,-6.709724012933359e-07,1.260071918385952e-08,6.230161133522067e-11,0.0,-3.2,-3.2,-3.2,-3.2,-3.2,-3.2,3.2,3.2,3.2,3.2,3.2,3.2,-0.1748907404750384,-0.7042488743238322,0.1748907404750384,1.7555308986524945,0.14,0.0,0.26,0.0032295274393588443,5.598741377764494e-05,0.3689981917503939,-0.7853981633974483,0.0,-1.5707963267948966,0.0017384500863962882,-0.08238719165352579,-0.003787380270255633,0.0,0.0,0.0,1.235466514071697,1.3432469684272355,0.0,629.5204504174052,-29.199573531307195
1.0,4.0,-0.1473337560892105,1.0109130144119263,-1.9370861053466797,-0.29108238220214844,0.22137771546840668,0.35788777470588684,-2.0,-2.0,-2.0,-2.0,-2.0,-2.0,2.0,2.0,2.0,2.0,2.0,2.0,-0.0036833439022302614,0.012636412680149083,-0.024213576316833497,-0.003638529777526857,0.005534442886710164,0.014736798591911793,-0.05,-0.025,-0.025,-0.025,-0.05,0.0,0.05,0.025,0.025,0.025,0.05,0.025,0.014098828609832147,-1.2728359394777902,0.9519673386337355,-1.3456918775723923,-0.016188505073604337,0.0,0.01365102064906951,-1.271304114942965,0.9490232712581271,-1.3461366661296574,-0.015515648372091958,0.014736798591911793,-0.011941573289812529,0.04098088424706242,-0.07850846334955719,-0.011847764023259932,0.017942906547876662,0.0,6.973665604967178e-10,9.94574475293597e-08,-6.004380827605109e-07,4.1812683135791644e-08,-3.1854785219538525e-11,0.0,-3.2,-3.2,-3.2,-3.2,-3.2,-3.2,3.2,3.2,3.2,3.2,3.2,3.2,-0.17729680893785468,-0.8815456832616869,0.17729680893785468,1.757575149486128,0.14,0.0,0.26,0.002225620718521939,3.138072434361303e-05,0.3715902230860738,-0.7853981633974483,0.0,-1.5707963267948966,0.0015549658141899925,-0.09575156505304548,-0.002164178614486257,0.0,0.0,0.0,-0.5774564310759112,0.6671421833274344,0.0,-435.10150683542594,-162.26514842395227
1.0,5.0,0.8044554591178894,1.902740716934204,-0.17432653903961182,-1.0942310094833374,-0.6146707534790039,-0.4857259690761566,-2.0,-2.0,-2.0,-2.0,-2.0,-2.0,2.0,2.0,2.0,2.0,2.0,2.0,0.020111386477947232,0.023784258961677553,-0.002179081737995147,-0.013677887618541718,-0.015366768836975096,0.009464212693274021,-0.05,-0.025,-0.025,-0.025,-0.05,0.0,0.05,0.025,0.025,0.025,0.05,0.025,0.03176514588558188,-1.2519432911840482,0.9500552429894631,-1.3576928326644282,-0.029687033563513387,0.0,0.03421021508777938,-1.2490516805161127,0.9497882568957403,-1.359369765190934,-0.03155527391057943,0.009464212693274021,0.06520203949742052,0.07710961678774864,-0.007057071582978414,-0.04429333982406536,-0.04981974258842792,0.0,-4.006284547691946e-09,3.4831952180165994e-08,-6.503661897119538e-07,2.203182043201454e-08,-7.056545822042952e-11,0.0,-3.2,-3.2,-3.2,-3.2,-3.2,-3.2,3.2,3.2,3.2,3.2,3.2,3.2,-0.17462466708972132,-1.0561703503514082,0.17462466708972132,1.761376863877811,0.14,0.0,0.26,0.005705825555273574,0.00018130736645466492,0.37161906734086364,-0.7853981633974483,0.0,-1.5707963267948966,0.0026423032402425437,-0.08874533008292798,0.0019607892067941782,0.0,0.0,0.0,0.6413140435520059,0.8360525198935749,0.0,292.5049139107001,40.53848077587372
1.0,6.0,-1.986149787902832,1.7081642150878906,-1.9575047492980957,1.7319680452346802,0.14175069332122803,-0.8782293796539307,-2.0,-2.0,-2.0,-2.0,-2.0,-2.0,2.0,2.0,2.0,2.0,2.0,2.0,-0.049653744697570806,0.021352052688598633,-0.024468809366226196,0.021649600565433504,0.0035437673330307035,0.0070110663771629335,-0.05,-0.025,-0.025,-0.025,-0.05,0.0,0.05,0.025,0.025,0.025,0.05,0.025,-0.011851852300945228,-1.2331871496625628,0.9285636640579451,-1.3386591927209341,-0.0265741056074799,0.0,-0.017888598811988926,-1.2305912384954496,0.9255864336232369,-1.3360432320989948,-0.026143266230482683,0.0070110663771629335,-0.1609795930646226,0.06922429685317752,-0.07932219468602314,0.0702340411094313,0.011489050053259146,0.0,1.0284078015805735e-08,2.2960787877305582e-08,-6.380447459582275e-07,1.4770067053589128e-08,6.488032157872362e-10,0.0,-3.2,-3.2,-3.2,-3.2,-3.2,-3.2,3.2,3.2,3.2,3.2,3.2,3.2,-0.1737747780230001,-1.2299451283744083,0.1737747780230001,1.7242621285591975,0.14,0.0,0.26,0.009167515408291284,-0.00010865712619186355,0.3743701125562626,-0.7853981633974483,0.0,-1.5707963267948966,0.001929411264141444,-0.07246071381949284,-0.03849589179079393,0.0,0.0,0.0,0.20397337601309573,1.063490501783964,0.0,-104.96176020933845,54.585115653693386
1.0,7.0,0.855320394039154,-0.6671604514122009,-0.8702985644340515,1.578830361366272,1.509419560432434,0.37096214294433594,-2.0,-2.0,-2.0,-2.0,-2.0,-2.0,2.0,2.0,2.0,2.0,2.0,2.0,0.02138300985097885,-0.008339505642652512,-0.010878732055425645,0.0197353795170784,0.03773548901081085,0.014818513393402101,-0.05,-0.025,-0.025,-0.025,-0.05,0.0,0.05,0.025,0.025,0.025,0.05,0.025,0.006931483066351489,-1.240510970506489,0.9190087553241734,-1.321314659897093,0.006573630033048987,0.0,0.009531157550033623,-1.2415266553052153,0.9176849320025194,-1.3189238132038557,0.011161383403330949,0.014818513393402101,0.06932460900026013,-0.027084927999895425,-0.03525341807146082,0.0640881391544621,0.12234008987418563,0.0,-5.077049374458714e-09,8.479488565006756e-08,-6.137513944156117e-07,3.44678570077886e-08,-9.33256437777636e-10,0.0,-3.2,-3.2,-3.2,-3.2,-3.2,-3.2,3.2,3.2,3.2,3.2,3.2,3.2,-0.17573139175710845,-1.4056765201315167,0.17573139175710845,1.7695642028199208,0.14,0.0,0.26,0.007808070867251814,5.4122377778183256e-05,0.37578779293095205,-0.7853981633974483,0.0,-1.5707963267948966,-0.00047425325508380933,-0.07201898949104539,0.013522198105071654,0.0,0.0,0.0,-0.4695872961860048,0.4730134100200619,0.0,-161.65456132778414,-141.7145020233365
1.0,8.0,-0.23725460469722748,-0.7579765319824219,-0.9489712119102478,-0.7954862713813782,-1.6787517070770264,-1.6002470254898071,-2.0,-2.0,-2.0,-2.0,-2.0,-2.0,2.0,2.0,2.0,2.0,2.0,2.0,-0.005931365117430684,-0.009474706649780274,-0.011862140148878098,-0.009943578392267227,-0.04196879267692566,0.0024984560906887057,-0.05,-0.025,-0.025,-0.025,-0.05,0.0,0.05,0.025,0.025,0.025,0.05,0.025,0.0017212318325233635,-1.2488318707875066,0.9085893096593446,-1.3300454863314966,-0.030292802888174947,0.0,0.0010001179489208048,-1.2499856771562692,0.9071466151752953,-1.3312582382893603,-0.035395162643876675,0.0024984560906887057,-0.019229764959903785,-0.03062825951256179,-0.03847185290798194,-0.03232769002245514,-0.1360627873726359,0.0,1.7918635396848021e-09,1.3525050185283868e-07,-5.797561639389256e-07,5.8903773903170856e-08,6.491928028566121e-10,0.0,-3.2,-3.2,-3.2,-3.2,-3.2,-3.2,3.2,3.2,3.2,3.2,3.2,3.2,-0.18015147556327463,-1.5858279956947914,0.18015147556327463,1.7347885147793516,0.14,0.0,0.26,0.0030508321302267303,5.251194564076084e-06,0.37704477579040746,-0.7853981633974483,0.0,-1.5707963267948966,0.003023395357580764,-0.09944592356276245,-0.028722027356835267,0.0,0.0,0.0,-1.0608201134798834,1.1809783939038727,0.0,-141.89587615053085,169.9115961321146
1.0,9.0,1.8177995681762695,1.046117901802063,1.5209029912948608,-1.9302079677581787,-0.07233387976884842,0.018564682453870773,-2.0,-2.0,-2.0,-2.0,-2.0,-2.0,2.0,2.0,2.0,2.0,2.0,2.0,0.04544498920440675,0.013076473772525792,0.01901128739118576,-0.024127599596977235,-0.0018083469942212077,0.012616029265336693,-0.05,-0.025,-0.025,-0.025,-0.05,0.0,0.05,0.025,0.025,0.025,0.05,0.025,0.04164117906322999,-1.2373451909909765,0.925291517840853,-1.3512251775977997,-0.03188129710449983,0.0,0.04716622103693011,-1.2357553970149808,0.9276005970505303,-1.3541730859284737,-0.03210114988239615,0.012616029265336693,0.14733469941426272,0.04239450475241274,0.06164528250970852,-0.0781591101181017,-0.0058627407439019175,0.0,-9.40429311898447e-09,3.532209048058824e-08,-6.596678594844678e-07,2.5971370504762944e-08,-6.420015948567237e-10,0.0,-3.2,-3.2,-3.2,-3.2,-3.2,-3.2,3.2,3.2,3.2,3.2,3.2,3.2,-0.17624905820727774,-1.7620770539020691,0.17624905820727774,1.7685510776610247,0.14,0.0,0.26,0.006176907043308472,0.00025736246390310736,0.3746954405153895,-0.7853981633974483,0.0,-1.5707963267948966,0.0029563882716093373,-0.09243539317507357,0.009623147030714317,0.0,0.0,0.0,0.9365801654392536,0.9404595513222135,0.0,479.37606694059286,-57.724522219598214
1.0,10.0,-1.9848308563232422,0.6250869631767273,-0.7793167233467102,-1.7363871335983276,-1.927194356918335,-1.3690804243087769,-2.0,-2.0,-2.0,-2.0,-2.0,-2.0,2.0,2.0,2.0,2.0,2.0,2.0,-0.049620771408081056,0.007813587039709094,-0.009741459041833878,-0.021704839169979097,-0.048179858922958375,0.003943247348070145,-0.05,-0.025,-0.025,-0.025,-0.05,0.0,0.05,0.025,0.025,0.025,0.05,0.025,-0.0019468705724202534,-1.230476898535747,0.9167347740180235,-1.370288535991273,-0.07420359433638264,0.0,-0.007979592344851065,-1.2295316039512674,0.9155500587990191,-1.3729300167677787,-0.0800611560274582,0.003943247348070145,-0.16087281727328218,0.02535964941665267,-0.03159240584011691,-0.07043339281354492,-0.1562011149925825,0.0,1.082075024556152e-08,9.00413143589116e-08,-6.018658266913388e-07,5.263332341933794e-08,1.3318173088654722e-09,0.0,-3.2,-3.2,-3.2,-3.2,-3.2,-3.2,3.2,3.2,3.2,3.2,3.2,3.2,-0.17813156419112477,-1.940208618093194,0.17813156419112477,1.6957173522642055,0.14,0.0,0.26,0.004380176071500843,-8.527646669708784e-06,0.3754907677957807,-0.7853981633974483,0.0,-1.5707963267948966,0.008430550012141179,-0.11292139970011443,-0.07662696891535209,0.0,0.0,0.0,-0.45180143612328916,0.4758713572047934,0.0,-333.21158437501026,-111.50116658818082
1.0,11.0,0.21002966165542603,0.005085615441203117,0.2929452955722809,-0.4536759555339813,-0.39255836606025696,-1.5046374797821045,-2.0,-2.0,-2.0,-2.0,-2.0,-2.0,2.0,2.0,2.0,2.0,2.0,2.0,0.005250741541385648,6.357019301504035e-05,0.0036618161946535104,-0.005670949444174768,-0.009813959151506423,0.003096015751361847,-0.05,-0.025,-0.025,-0.025,-0.05,0.0,0.05,0.025,0.025,0.025,0.05,0.025,0.0026655137494332706,-1.2304211323199292,0.9199531900124454,-1.3752592333461213,-0.08282440542875383,0.0,0.0033038709689653945,-1.230413328342732,0.9203965902126771,-1.3759594854354478,-0.08401755348788906,0.003096015751361847,0.017023179525529637,0.000208099728298744,0.011879088560609874,-0.018341480600519752,-0.03181728157693931,0.0,-9.430180922220692e-10,7.640326496780192e-08,-6.193805907347664e-07,4.7059007199020235e-08,6.09930312556514e-11,0.0,-3.2,-3.2,-3.2,-3.2,-3.2,-3.2,3.2,3.2,3.2,3.2,3.2,3.2,-0.17786922876201264,-2.1180778468552064,0.17786922876201264,1.6927577691869875,0.14,0.0,0.26,0.004335154986191234,1.1555442588674579e-05,0.3750326572510788,-0.7853981633974483,0.0,-1.5707963267948966,0.009549996630476986,-0.1145351332171588,-0.08070639955223172,0.0,0.0,0.0,0.06296050298691291,0.11058128587780436,0.0,123.5428653864485,-87.66961711847738
1.0,12.0,-0.8719495534896851,-1.7372831106185913,-1.7413016557693481,1.801086664199829,-0.7444231510162354,0.8284910917282104,-2.0,-2.0,-2.0,-2.0,-2.0,-2.0,2.0,2.0,2.0,2.0,2.0,2.0,-0.021798738837242128,-0.021716038882732394,-0.021766270697116855,0.022513583302497864,-0.018610578775405888,0.017678069323301317,-0.05,-0.025,-0.025,-0.025,-0.05,0.0,0.05,0.025,0.025,0.025,0.05,0.025,-0.016483002510951847,-1.2494965087281737,0.9008337252662652,-1.3554795230576675,-0.09917238964082531,0.0,-0.019133225087808858,-1.2521371712026617,0.8981869193153285,-1.3527456500436235,-0.10143498420415972,0.017678069323301317,-0.07067257487236116,-0.07028185057925801,-0.07058149202497965,0.07290961036080772,-0.060335933100472805,0.0,4.8335105120360254e-09,1.6599991001532092e-07,-5.493301199633629e-07,7.526759669350587e-08,6.493002555215029e-10,0.0,-3.2,-3.2,-3.2,-3.2,-3.2,-3.2,3.2,3.2,3.2,3.2,3.2,3.2,-0.18383304393243066,-2.301910890787637,0.18383304393243066,1.6644402978049815,0.14,0.0,0.26,-0.0012629871974794166,2.0819706679229476e-05,0.377640792483082,-0.7853981633974483,0.0,-1.5707963267948966,0.013280605095037975,-0.13268689512034437,-0.11653778115049011,0.0,0.0,0.0,-1.4313156409003258,1.4822142573593282,0.0,-358.6262745329373,329.1919131555657
1.0,13.0,0.2507730722427368,-0.6604363918304443,0.745642900466919,-0.5624560713768005,1.37790048122406,0.31323152780532837,-2.0,-2.0,-2.0,-2.0,-2.0,-2.0,2.0,2.0,2.0,2.0,2.0,2.0,0.006269326806068419,-0.008255454897880554,0.009320536255836488,-0.007030700892210008,0.03444751203060151,0.014457697048783302,-0.05,-0.025,-0.025,-0.025,-0.05,0.0,0.05,0.025,0.025,0.025,0.05,0.025,-0.010975877021582916,-1.2567436548678133,0.909021177551139,-1.361654789022743,-0.0689128969796976,0.0,-0.010213675704883428,-1.2577519636260543,0.9101542615221017,-1.3625102239498774,-0.0647248776102238,0.014457697048783302,0.020325456029987206,-0.02674168556718204,0.030215572559005643,-0.02280500555306486,0.11168030952941664,0.0,-1.8944435349176852e-09,1.2216118753624544e-07,-5.97816507936426e-07,6.161968712621598e-08,-6.855289180929824e-10,0.0,-3.2,-3.2,-3.2,-3.2,-3.2,-3.2,3.2,3.2,3.2,3.2,3.2,3.2,-0.18407546603252747,-2.4859863568201646,0.18407546603252747,1.6946870304931916,0.14,0.0,0.26,-0.002465005843614908,2.7056687511040075e-05,0.3765654261477502,-0.7853981633974483,0.0,-1.5707963267948966,0.009603721258975342,-0.13824989585162262,-0.08055369520379152,0.0,0.0,0.0,-0.05818130402323485,0.38708514268999533,0.0,329.55224085050185,-262.8309875206399
1.0,14.0,-1.1783934831619263,-0.8051890134811401,-0.15646475553512573,-1.0905636548995972,-0.515801727771759,-1.5171083211898804,-2.0,-2.0,-2.0,-2.0,-2.0,-2.0,2.0,2.0,2.0,2.0,2.0,2.0,-0.02945983707904816,-0.010064862668514252,-0.0019558094441890703,-0.013632045686244966,-0.012895043194293979,0.003018072992563248,-0.05,-0.025,-0.025,-0.025,-0.05,0.0,0.05,0.025,0.025,0.025,0.05,0.025,-0.03685408420805754,-1.26558425178567,0.9073036146468951,-1.373626656343375,-0.08024021872385238,0.0,-0.04043571410063108,-1.2668085175363275,0.9070653681069499,-1.375286834708988,-0.08180794017399158,0.003018072992563248,-0.0955098042008573,-0.032513493373891894,-0.006353241065205906,-0.04426761252642658,-0.04180662507730273,0.0,6.334061733170638e-09,1.6395031868848466e-07,-5.637089534400043e-07,8.05071242064116e-08,5.744649094851584e-10,0.0,-3.2,-3.2,-3.2,-3.2,-3.2,-3.2,3.2,3.2,3.2,3.2,3.2,3.2,-0.18704685849133884,-2.6730332153115035,0.18704685849133884,1.6653746444619693,0.14,0.0,0.26,-0.006318884294694261,0.00023298218407760539,0.3765214876730327,-0.7853981633974483,0.0,-1.5707963267948966,0.013025879585801491,-0.16058807901032027,-0.1181424716446451,0.0,0.0,0.0,-0.7131341901147281,0.9263103070173038,0.0,-157.18869266195838,129.41403943855403
1.0,15.0,-0.5481206178665161,1.7897026538848877,-1.4333091974258423,-1.2728326320648193,1.2168915271759033,0.040320828557014465,-2.0,-2.0,-2.0,-2.0,-2.0,-2.0,2.0,2.0,2.0,2.0,2.0,2.0,-0.013703015446662907,0.022371283173561095,-0.01791636496782303,-0.01591040790081024,0.030422288179397586,0.012752005178481341,-0.05,-0.025,-0.025,-0.025,-0.05,0.0,0.05,0.025,0.025,0.025,0.05,0.025,-0.04889112813241734,-1.2459290000549685,0.8915656338375035,-1.3876017797787312,-0.0535165826481287,0.0,-0.050557099654720446,-1.2432129686121087,0.8893872496790721,-1.3895370642441853,-0.0498179305444548,0.012752005178481341,-0.04442571965204355,0.072568591595811,-0.05809024422483855,-0.051607616216370264,0.09863030587381436,0.0,2.401535415358807e-09,1.0117347585157401e-07,-5.805175138526582e-07,6.468540495104938e-08,-2.5160036300169016e-10,0.0,-3.2,-3.2,-3.2,-3.2,-3.2,-3.2,3.2,3.2,3.2,3.2,3.2,3.2,-0.18743539352811756,-2.860468608839621,0.18743539352811756,1.6776511144429138,0.14,0.0,0.26,-0.0054916290164652715,0.00026870607186545875,0.3781699641627367,-0.7853981633974483,0.0,-1.5707963267948966,0.009246215140964105,-0.1709213454493327,-0.10319983350437337,0.0,0.0,0.0,-0.09324840882689145,0.44273997828149586,0.0,148.7725875090808,-116.0568788965939
1.0,16.0,-1.3060250282287598,-0.5502668619155884,-1.793523907661438,-1.9010581970214844,0.23466001451015472,-1.0602006912231445,-2.0,-2.0,-2.0,-2.0,-2.0,-2.0,2.0,2.0,2.0,2.0,2.0,2.0,-0.032650625705719,-0.006878335773944855,-0.022419048845767977,-0.023763227462768557,0.005866500362753865,0.005873745679855347,-0.05,-0.025,-0.025,-0.025,-0.05,0.0,0.05,0.025,0.025,0.025,0.05,0.025,-0.07757220467683926,-1.2519740886134445,0.8718721404106778,-1.408475870037721,-0.04836329346424291,0.0,-0.08154175383813633,-1.2528073358289133,0.8691465849917356,-1.4113650072414998,-0.04765008228537483,0.005873745679855347,-0.10585510851396411,-0.022379503189863065,-0.07268147783846146,-0.07703751387660715,0.019019963869772782,0.0,6.748769375149735e-09,2.1505736778221799e-07,-5.054255206301597e-07,1.1418984205665559e-07,3.652737303866219e-10,0.0,-3.2,-3.2,-3.2,-3.2,-3.2,-3.2,3.2,3.2,3.2,3.2,3.2,3.2,-0.1939933936069575,-3.0544620024465785,0.1939933936069575,1.6629292010082513,0.14,0.0,0.26,-0.01255714022363086,0.0009760436009423106,0.3798282231730924,-0.7853981633974483,0.0,-1.5707963267948966,0.01069778790077733,-0.21752274841150046,-0.12710362479213963,0.0,0.0,0.0,-1.5739200189215863,1.7500525825178002,0.0,-355.36118642272675,313.75502501671303
1.0,17.0,0.7783533930778503,-0.3002389669418335,0.854563295841217,0.6182049512863159,-1.2698827981948853,1.4954264163970947,-2.0,-2.0,-2.0,-2.0,-2.0,-2.0,2.0,2.0,2.0,2.0,2.0,2.0,0.019458834826946256,-0.003752987086772918,0.010682041198015212,0.007727561891078948,-0.03174706995487213,0.021846415102481843,-0.05,-0.025,-0.025,-0.025,-0.05,0.0,0.05,0.025,0.025,0.025,0.05,0.025,-0.060479098795022404,-1.2552671268797873,0.881255542719617,-1.4016876067680537,-0.0762506882127992,0.0,-0.058113369849893,-1.2557270757002175,0.882554181608693,-1.4007483081466419,-0.08011036341911504,0.021846415102481843,0.06308658470973166,-0.012120358111383428,0.034630370375358766,0.0250443636913638,-0.10292575006332036,0.0,-3.6009366369446745e-09,1.2866101029524794e-07,-5.79796390902615e-07,7.791468788399503e-08,2.3160606209956073e-10,0.0,-3.2,-3.2,-3.2,-3.2,-3.2,-3.2,3.2,3.2,3.2,3.2,3.2,3.2,-0.19230553393054953,-3.2467675363771282,0.19230553393054953,1.6539648165637681,0.14,0.0,0.26,-0.011111230686861229,0.0006728177451694029,0.3789384784537692,-0.7853981633974483,0.0,-1.5707963267948966,0.015829705226459493,-0.20429904599838478,-0.13835246514608524,0.0,0.0,0.0,0.4050863223379131,0.4139040566179297,0.0,474.96152190227986,-320.6756462159689
1.0,18.0,-1.6446716785430908,0.3821483254432678,-1.7268708944320679,-1.7101119756698608,-1.9743667840957642,-1.514583706855774,-2.0,-2.0,-2.0,-2.0,-2.0,-2.0,2.0,2.0,2.0,2.0,2.0,2.0,-0.04111679196357727,0.004776854068040848,-0.02158588618040085,-0.021376399695873263,-0.04935916960239411,0.003033851832151413,-0.05,-0.025,-0.025,-0.025,-0.05,0.0,0.05,0.025,0.025,0.025,0.05,0.025,-0.09659708040628379,-1.2510748870911605,0.862294316527847,-1.420463165924878,-0.11960886776140188,0.0,-0.10159589075859968,-1.2504902728117464,0.8596696565392162,-1.423064006463927,-0.12560985781519332,0.003033851832151413,-0.13330292186450532,0.015439265756399617,-0.06999093303015602,-0.06934695749134043,-0.16002360409352914,0.0,9.364906408006665e-09,1.9277594957139186e-07,-5.138396757686974e-07,1.1062614637444849e-07,1.2507065391889072e-09,0.0,-3.2,-3.2,-3.2,-3.2,-3.2,-3.2,3.2,3.2,3.2,3.2,3.2,3.2,-0.19652718759170507,-3.443294723968833,0.19652718759170507,1.5952602914014578,0.14,0.0,0.26,-0.015209689900578322,0.001473798494963723,0.38054341766213445,-0.7853981633974483,0.0,-1.5707963267948966,0.028996135719094023,-0.2367111206529632,-0.21965415505723754,0.0,0.0,0.0,-1.0131968786773293,1.0737088217734263,0.0,-340.3879682436582,158.3531436373192
1.0,19.0,1.8795915842056274,0.22016403079032898,0.7066808938980103,0.800493061542511,1.2221908569335938,-1.6797343492507935,-2.0,-2.0,-2.0,-2.0,-2.0,-2.0,2.0,2.0,2.0,2.0,2.0,2.0,0.04698978960514069,0.0027520503848791136,0.008833511173725127,0.010006163269281387,0.030554771423339844,0.002001660317182541,-0.05,-0.025,-0.025,-0.025,-0.05,0.0,0.05,0.025,0.025,0.025,0.05,0.025,-0.055320153329036434,-1.2486554766135916,0.8700547689703679,-1.4116692149135373,-0.09276886728791772,0.0,-0.049607290801143095,-1.2483228367062815,0.8711278277015722,-1.4104570026555967,-0.08905409633806204,0.002001660317182541,0.15234381341651254,0.00901293783606838,0.0286148994987796,0.03231936683802826,0.09905881838928852,0.0,-1.0215916895640633e-08,1.1636317461820607e-07,-5.800382038524308e-07,7.797744601262609e-08,-1.0064954354537704e-09,0.0,-3.2,-3.2,-3.2,-3.2,-3.2,-3.2,3.2,3.2,3.2,3.2,3.2,3.2,-0.19395437652348124,-3.6372491004923146,0.19395437652348124,1.6477658196892941,0.14,0.0,0.26,-0.012385760071231006,0.0006858819616432278,0.37998504017609963,-0.7853981633974483,0.0,-1.5707963267948966,0.020661041110364337,-0.2185145231281385,-0.15035549432539663,0.0,0.0,0.0,0.6174746563737177,0.7162774794313668,0.0,391.3611684122513,-85.78352216209429
1.0,20.0,-0.6785269975662231,-0.26808321475982666,-0.6148161292076111,-0.7242492437362671,0.22914841771125793,1.7936452627182007,-2.0,-2.0,-2.0,-2.0,-2.0,-2.0,2.0,2.0,2.0,2.0,2.0,2.0,-0.016963174939155577,-0.0033510401844978333,-0.007685201615095141,-0.00905311554670334,0.005728710442781448,0.023710282891988756,-0.05,-0.025,-0.025,-0.025,-0.05,0.0,0.05,0.025,0.025,0.025,0.05,0.025,-0.07022101673965887,-1.2516000394020381,0.8633044824778421,-1.4196188212725636,-0.08773654350387927,0.0,-0.072283328268192,-1.2520065167980894,0.8623695673552728,-1.4207223304602405,-0.08704015684513627,0.023710282891988756,-0.05499424107305665,-0.010698871120715908,-0.024931069935179906,-0.029434926702502057,0.018568689736025344,0.0,3.5543330508028716e-09,1.8240724600182273e-07,-5.292598018339307e-07,1.0577537183919621e-07,1.963304593446736e-10,0.0,-3.2,-3.2,-3.2,-3.2,-3.2,-3.2,3.2,3.2,3.2,3.2,3.2,3.2,-0.196395695655823,-3.8336447961481377,0.196395695655823,1.6417558986579728,0.14,0.0,0.26,-0.015117035535088894,0.0010632818579778282,0.3804526628623507,-0.7853981633974483,0.0,-1.5707963267948966,0.02117243528813754,-0.23618862233892068,-0.1604696856256012,0.0,0.0,0.0,-0.585916591762019,0.671183817975609,0.0,-288.8138995525768,-10.822478749381865
1.0,21.0,-0.9426180124282837,-1.7063825130462646,1.146964192390442,-1.2542802095413208,-1.5937644243240356,-0.5180498957633972,-2.0,-2.0,-2.0,-2.0,-2.0,-2.0,2.0,2.0,2.0,2.0,2.0,2.0,-0.023565450310707094,-0.02132978141307831,0.014337052404880528,-0.01567850261926651,-0.03984411060810089,0.009262188151478768,-0.05,-0.025,-0.025,-0.025,-0.05,0.0,0.05,0.025,0.025,0.025,0.05,0.025,-0.09092149221738594,-1.2703402817688356,0.8758985748898499,-1.433390525604004,-0.12273646059067081,0.0,-0.09378646705036597,-1.2729298208151165,0.8776415348827226,-1.43529732389183,-0.12758065411198016,0.009262188151478768,-0.07640090292234886,-0.0692018312221718,0.04647893314326973,-0.05083871293959748,-0.12917512671556292,0.0,5.78017381090135e-09,2.2233116119855337e-07,-5.23596161819201e-07,1.218936789247293e-07,9.864775169842997e-10,0.0,-3.2,-3.2,-3.2,-3.2,-3.2,-3.2,3.2,3.2,3.2,3.2,3.2,3.2,-0.1985081136360098,-4.0321529097841475,0.1985081136360098,1.6012857633316195,0.14,0.0,0.26,-0.01929132027670856,0.0017588449244021736,0.3784426144947921,-0.7853981633974483,0.0,-1.5707963267948966,0.03216926126208365,-0.2550590831915619,-0.21778322040398354,0.0,0.0,0.0,-0.5069803152448316,1.1243879749218404,0.0,18.944706364124997,108.76899766709553
1.0,22.0,-1.6426010131835938,-0.661952018737793,1.1860380172729492,0.9305736422538757,1.5612072944641113,0.07451456785202026,-2.0,-2.0,-2.0,-2.0,-2.0,-2.0,2.0,2.0,2.0,2.0,2.0,2.0,-0.041065025329589847,-0.008274400234222413,0.01482547521591187,0.011632170528173447,0.039030182361602786,0.012965716049075128,-0.05,-0.025,-0.025,-0.025,-0.05,0.0,0.05,0.025,0.025,0.025,0.05,0.025,-0.12699392374433724,-1.2776040348235078,0.8889212952519929,-1.4231742936632796,-0.08845151403797367,0.0,-0.13198651754697577,-1.278614682003058,0.8907240501057617,-1.4217583550758306,-0.08370627822906802,0.012965716049075128,-0.13313479474111128,-0.02680369657424389,0.04807346276716823,0.03775203385254537,0.12653737024852277,0.0,8.478181343107283e-09,1.6079401072796088e-07,-5.630537658102224e-07,9.28408149493318e-08,1.2859849653658526e-11,0.0,-3.2,-3.2,-3.2,-3.2,-3.2,-3.2,3.2,3.2,3.2,3.2,3.2,3.2,-0.1965902638318122,-4.2287431736159595,0.1965902638318122,1.5934112209656823,0.14,0.0,0.26,-0.017779033306727875,0.0022700456953211184,0.3772533810804496,-0.7853981633974483,0.0,-1.5707963267948966,0.021713272171897682,-0.2400997562844168,-0.2180648099355088,0.0,0.0,0.0,0.4602839530074232,0.47775158729332745,0.0,232.14342438054115,-155.1927330308431
1.0,23.0,0.624884307384491,-0.24006786942481995,-0.9275189638137817,0.5598490834236145,-1.3589953184127808,-1.3913911581039429,-2.0,-2.0,-2.0,-2.0,-2.0,-2.0,2.0,2.0,2.0,2.0,2.0,2.0,0.01562210768461228,-0.003000848367810248,-0.011593987047672272,0.006998113542795184,-0.033974882960319516,0.0038038052618503573,-0.05,-0.025,-0.025,-0.025,-0.05,0.0,0.05,0.025,0.025,0.025,0.05,0.025,-0.11327114845502795,-1.2802441229303803,0.8787372752854025,-1.4170247740675679,-0.11829408990784233,0.0,-0.11137181605972496,-1.2806048831913182,0.8773273082043207,-1.4161761801204844,-0.12242639699829319,0.0038038052618503573,0.050649599682215336,-0.00954804773215509,-0.03759912216218003,0.022625480465807382,-0.10996407256740433,0.0,-2.9957430138593627e-09,1.9650016931729473e-07,-5.232655952507631e-07,1.0563592704954605e-07,2.5701196099293403e-10,0.0,-3.2,-3.2,-3.2,-3.2,-3.2,-3.2,3.2,3.2,3.2,3.2,3.2,3.2,-0.1986470274255604,-4.42739020104152,0.1986470274255604,1.5839157430784507,0.14,0.0,0.26,-0.019470260671313945,0.0022148995471026984,0.3784270732832268,-0.7853981633974483,0.0,-1.5707963267948966,0.029841642364605042,-0.24596805811474434,-0.23525416921990194,0.0,0.0,0.0,-0.49362326249956956,0.49423945839551,0.0,-228.93773172167826,3.9570890645238066
1.0,24.0,0.46682077646255493,1.9454599618911743,-0.7321346402168274,-0.9715462923049927,1.9467614889144897,0.7057568430900574,-2.0,-2.0,-2.0,-2.0,-2.0,-2.0,2.0,2.0,2.0,2.0,2.0,2.0,0.01167051941156387,0.02431824952363968,-0.009151683002710343,-0.01214432865381241,0.04866903722286224,0.01691098026931286,-0.05,-0.025,-0.025,-0.025,-0.05,0.0,0.05,0.025,0.025,0.025,0.05,0.025,-0.10301947324932063,-1.2588790625313135,0.870698527098442,-1.4276914437604455,-0.07554211370894383,0.0,-0.10160062904346408,-1.2559258734067407,0.8695855922826922,-1.4291691027213802,-0.0696250526849801,0.01691098026931286,0.03783675389166304,0.0789154389852334,-0.029678261753327995,-0.03941410535985869,0.15778632922016855,0.0,-3.3037649973906973e-09,1.2510373363432364e-07,-5.604399350702066e-07,8.642122445410538e-08,-9.669354992886555e-10,0.0,-3.2,-3.2,-3.2,-3.2,-3.2,-3.2,3.2,3.2,3.2,3.2,3.2,3.2,-0.19690042929776772,-4.624290630339288,0.19690042929776772,1.6243260357493867,0.14,0.0,0.26,-0.016599231070029873,0.0017161194062191175,0.379346197342455,-0.7853981633974483,0.0,-1.5707963267948966,0.01887310782557028,-0.2443624348309225,-0.18087913748391804,0.0,0.0,0.0,0.4191835506702435,0.7333318363950554,0.0,219.07363516075515,57.3821707198909
1.0,25.0,1.7037243843078613,-0.5743181109428406,-1.8225409984588623,0.5453200340270996,1.2190457582473755,1.220691204071045,-2.0,-2.0,-2.0,-2.0,-2.0,-2.0,2.0,2.0,2.0,2.0,2.0,2.0,0.042593109607696536,-0.0071789763867855065,-0.02278176248073578,0.0068165004253387465,0.030476143956184393,0.02012932002544403,-0.05,-0.025,-0.025,-0.025,-0.05,0.0,0.05,0.025,0.025,0.025,0.05,0.025,-0.06560471006175297,-1.265188760225099,0.8506866213728501,-1.4217027623000396,-0.04877112437143698,0.0,-0.0604263636416241,-1.266058038918099,0.8479167646177062,-1.4208749433351069,-0.045065969752759436,0.02012932002544403,0.1380885983313538,-0.023332869496247327,-0.07386284680383959,0.022085566347141497,0.09880551148843186,0.0,-1.0098401211045375e-08,2.2488250947538825e-07,-4.913335419471356e-07,1.2122649744660498e-07,-1.369576089192938e-09,0.0,-3.2,-3.2,-3.2,-3.2,-3.2,-3.2,3.2,3.2,3.2,3.2,3.2,3.2,-0.2016030603359984,-4.8258936906752865,0.2016030603359984,1.6805143191237653,0.14,0.0,0.26,-0.02091803566755293,0.0013742938745163196,0.3814384249324852,-0.7853981633974483,0.0,-1.5707963267948966,0.013250998300953845,-0.26508537251657305,-0.1161425402957857,0.0,0.0,0.0,-1.1286314491753635,1.1546552932064011,0.0,-371.4755999629457,101.11762963472299
1.0,26.0,-1.822534441947937,-1.0338596105575562,1.7156537771224976,-0.8828917145729065,-0.34577152132987976,-1.3665624856948853,-2.0,-2.0,-2.0,-2.0,-2.0,-2.0,2.0,2.0,2.0,2.0,2.0,2.0,-0.04556336104869843,-0.012923245131969453,0.021445672214031222,-0.011036146432161331,-0.008644288033246995,0.003958984464406967,-0.05,-0.025,-0.025,-0.025,-0.05,0.0,0.05,0.025,0.025,0.025,0.05,0.025,-0.10562863512167507,-1.2765418140343563,0.869525051289576,-1.4313968737264744,-0.05636502788734618,0.0,-0.1111680711104514,-1.2781120053570685,0.8721322935868814,-1.4327389087322009,-0.05741541240468397,0.003958984464406967,-0.1477174828737223,-0.04172880491378675,0.06952646126147499,-0.035796930809325445,-0.028011972779721197,0.0,1.0261050677738209e-08,1.9812610659761292e-07,-5.399259214524867e-07,1.1336279870117472e-07,7.449451868423732e-10,0.0,-3.2,-3.2,-3.2,-3.2,-3.2,-3.2,3.2,3.2,3.2,3.2,3.2,3.2,-0.20076085992203865,-5.026654550597325,0.20076085992203865,1.6406149301873927,0.14,0.0,0.26,-0.021660916332751398,0.0022965606093304555,0.37901847258496996,-0.7853981633974483,0.0,-1.5707963267948966,0.01544557736208148,-0.26718189054075603,-0.1640694558611202,0.0,0.0,0.0,0.20212809935033826,0.6466036946088558,0.0,319.3822916461684,-121.93238366341089
1.0,27.0,-0.4318949580192566,1.2257182598114014,1.067726969718933,-1.0668047666549683,-1.9071242809295654,-0.9231446981430054,-2.0,-2.0,-2.0,-2.0,-2.0,-2.0,2.0,2.0,2.0,2.0,2.0,2.0,-0.010797373950481415,0.015321478247642517,0.013346587121486668,-0.013335059583187104,-0.04767810702323914,0.006730345636606217,-0.05,-0.025,-0.025,-0.025,-0.05,0.0,0.05,0.025,0.025,0.025,0.05,0.025,-0.11511329999390675,-1.2630806535542212,0.8812497536461086,-1.4431073569058845,-0.09824663171594955,0.0,-0.11642600907215649,-1.2612203357867138,0.8828716384110626,-1.4447319333096615,-0.10404313491058531,0.006730345636606217,-0.0350043600802238,0.0497574076505283,0.04325026039877411,-0.04333229004504778,-0.15457599951431522,0.0,2.9817938722759188e-09,1.2221169386486234e-07,-5.775730716397756e-07,8.792964525106318e-08,7.999782548352142e-10,0.0,-3.2,-3.2,-3.2,-3.2,-3.2,-3.2,3.2,3.2,3.2,3.2,3.2,3.2,-0.19674941149189495,-5.22340396208922,0.19674941149189495,1.5985363664918837,0.14,0.0,0.26,-0.017612596218391372,0.0020364470639025294,0.37774741321600763,-0.7853981633974483,0.0,-1.5707963267948966,0.025473860147572042,-0.25288949444629477,-0.2165984165809665,0.0,0.0,0.0,0.9627476232344878,1.0202723417392927,0.0,182.5486857321959,89.68047531130486
1.0,28.0,0.2038964331150055,-1.534744381904602,1.075138807296753,-1.2574375867843628,-1.5315338373184204,1.5720412731170654,-2.0,-2.0,-2.0,-2.0,-2.0,-2.0,2.0,2.0,2.0,2.0,2.0,2.0,0.00509741082787514,-0.019184304773807528,0.013439235091209416,-0.015717969834804536,-0.038288345932960516,0.02232525795698166,-0.05,-0.025,-0.025,-0.025,-0.05,0.0,0.05,0.025,0.025,0.025,0.05,0.025,-0.1106356591421794,-1.2799364239535103,0.893055325651509,-1.4569130058344002,-0.13187991719022205,0.0,-0.11001588916603161,-1.2822649583280288,0.894688988737318,-1.458825326740689,-0.13653497764891007,0.02232525795698166,0.016525385235608633,-0.06225614445441885,0.043564348954905796,-0.0509832264404531,-0.12413100082840552,0.0,-4.785046787045505e-10,2.2682227368737235e-07,-5.215364387910238e-07,1.2665940788845388e-07,6.155188885013583e-10,0.0,-3.2,-3.2,-3.2,-3.2,-3.2,-3.2,3.2,3.2,3.2,3.2,3.2,3.2,-0.19868786129272167,-5.422091823381942,0.19868786129272167,1.581222524427265,0.14,0.0,0.26,-0.02143441442288451,0.0023811337283434373,0.3758020995802059,-0.7853981633974483,0.0,-1.5707963267948966,0.03680125860857199,-0.27056730750240227,-0.24752533628690535,0.0,0.0,0.0,-0.4652279521984126,1.0325398149054337,0.0,-342.7141381038961,2.944193559873831
1.0,29.0,0.5157671570777893,-0.8172672986984253,-0.504448652267456,1.0733791589736938,1.9103410243988037,0.7324732542037964,-2.0,-2.0,-2.0,-2.0,-2.0,-2.0,2.0,2.0,2.0,2.0,2.0,2.0,0.012894178926944735,-0.010215841233730316,-0.0063056081533432,0.013417239487171176,0.0477585256099701,0.01707795783877373,-0.05,-0.025,-0.025,-0.025,-0.05,0.0,0.05,0.025,0.025,0.025,0.05,0.025,-0.0993091612627698,-1.288915035307989,0.8875165165287174,-1.445125805451934,-0.08992761866848947,0.0,-0.09774148021523467,-1.2901522651872406,0.8867497174981658,-1.443495766347229,-0.08412139158025195,0.01707795783877373,0.041803370832595284,-0.033159520898866784,-0.02044797414804389,0.043478814336748994,0.15483586842137698,0.0,-3.842658864909389e-09,2.152567529211431e-07,-5.140627330713295e-07,1.1734094615217028e-07,-1.1218986829017413e-09,0.0,-3.2,-3.2,-3.2,-3.2,-3.2,-3.2,3.2,3.2,3.2,3.2,3.2,3.2,-0.20063790778486149,-5.622729731166804,0.20063790778486149,1.6222876846273884,0.14,0.0,0.26,-0.023319306438081548,0.0023234640308329416,0.3765202802080737,-0.7853981633974483,0.0,-1.5707963267948966,0.025403900282390143,-0.2745849095450249,-0.19274680929693735,0.0,0.0,0.0,-0.46801115811355487,0.4842963988625618,0.0,-0.6679694196341401,-131.57841985028924
1.0,30.0,-0.7077084183692932,-1.9824599027633667,0.46876439452171326,1.4758979082107544,0.3444637954235077,-1.6581668853759766,-2.0,-2.0,-2.0,-2.0,-2.0,-2.0,2.0,2.0,2.0,2.0,2.0,2.0,-0.017692710459232333,-0.024780748784542086,0.005859554931521415,0.01844872385263443,0.008611594885587694,0.0021364569664001467,-0.05,-0.025,-0.025,-0.025,-0.05,0.0,0.05,0.025,0.025,0.025,0.05,0.025,-0.11485088839035228,-1.310686965231854,0.8926636978990093,-1.4289198253735929,-0.08236291185047404,0.0,-0.11700187172200213,-1.3136957840925312,0.8933760714602389,-1.4266770815992995,-0.08131602378290179,0.0021364569664001467,-0.05736096949761833,-0.0803819559347925,0.01899662829945381,0.059813333177867065,0.02792003529300443,0.0,4.021105889535338e-09,2.4597137051922407e-07,-5.092301252323086e-07,1.2271764631509397e-07,1.1510880029823445e-10,0.0,-3.2,-3.2,-3.2,-3.2,-3.2,-3.2,3.2,3.2,3.2,3.2,3.2,3.2,-0.202594565879404,-5.825324297046208,0.202594565879404,1.6148090669503516,0.14,0.0,0.26,-0.026088350896357658,0.0030095144891019955,0.3759748276262242,-0.7853981633974483,0.0,-1.5707963267948966,0.023309981715023877,-0.2751862404772424,-0.20044163118291333,0.0,0.0,0.0,-0.46959794269020305,0.6970663952776908,0.0,-0.38082829839556354,51.06479913963095
1.0,31.0,-1.5655730962753296,0.8387469053268433,-0.35247763991355896,1.04412841796875,1.9284275770187378,-1.693415880203247,-2.0,-2.0,-2.0,-2.0,-2.0,-2.0,2.0,2.0,2.0,2.0,2.0,2.0,-0.039139327406883244,0.01048433631658554,-0.004405970498919488,0.013051605224609374,0.04821068942546845,0.001916150748729706,-0.05,-0.025,-0.025,-0.025,-0.05,0.0,0.05,0.025,0.025,0.025,0.05,0.025,-0.14923175776803743,-1.301473201732708,0.8887931399356208,-1.417456377016004,-0.04001355919609256,0.0,-0.1539902157972355,-1.3002026289152684,0.8882577274000899,-1.4158682201489834,-0.03415222242500558,0.001916150748729706,-0.12689158654942315,0.034026921862010784,-0.014277667614158496,0.042345506601785945,0.15630096866004645,0.0,8.383710346619555e-09,1.6512834797482344e-07,-5.478492277096805e-07,9.204977418642362e-08,-1.3692689121599943e-10,0.0,-3.2,-3.2,-3.2,-3.2,-3.2,-3.2,3.2,3.2,3.2,3.2,3.2,3.2,-0.2006925552482649,-6.0260168522944735,0.2006925552482649,1.614201089244461,0.14,0.0,0.26,-0.023068629496566594,0.0034683573446706493,0.37693628309262706,-0.7853981633974483,0.0,-1.5707963267948966,0.010612969459398427,-0.25912775034516966,-0.1906281334622812,0.0,0.0,0.0,0.4564825514733828,0.7685117312251613,0.0,222.2593185992606,17.146880627392918
1.0,32.0,-0.7462707161903381,-0.4596017599105835,-1.4085476398468018,1.9331871271133423,0.8808184266090393,1.080815076828003,-2.0,-2.0,-2.0,-2.0,-2.0,-2.0,2.0,2.0,2.0,2.0,2.0,2.0,-0.018656767904758453,-0.005745021998882292,-0.017606845498085024,0.024164839088916777,0.022020460665225977,0.01925509423017502,-0.05,-0.025,-0.025,-0.025,-0.05,0.0,0.05,0.025,0.025,0.025,0.05,0.025,-0.16562031570179753,-1.3065245987223988,0.8733272831981002,-1.396227231240452,-0.02067024546032253,0.0,-0.16788852567279589,-1.3072182237315904,0.8711862944375358,-1.3932915379270872,-0.017993098530866586,0.01925509423017502,-0.060485906800464895,-0.018639255635638674,-0.05709303361504953,0.07828863839218228,0.07139125793596557,0.0,4.0225116547098826e-09,2.2195430371565964e-07,-5.061799921601623e-07,1.081856242259198e-07,-6.573751077398971e-11,0.0,-3.2,-3.2,-3.2,-3.2,-3.2,-3.2,3.2,3.2,3.2,3.2,3.2,3.2,-0.20308728585146726,-6.22910413814594,0.20308728585146726,1.614687821810196,0.14,0.0,0.26,-0.0245290972790463,0.0041000740341318,0.378986600993441,-0.7853981633974483,0.0,-1.5707963267948966,0.005467936089439738,-0.25857170602121043,-0.1870014549190713,0.0,0.0,0.0,-0.5747353447685666,0.6228837221785909,0.0,-247.49229509806784,-34.950722171176885
1.0,33.0,0.44386762380599976,1.672136902809143,1.7109336853027344,-0.3741455078125,-0.7546415328979492,-0.4424680173397064,-2.0,-2.0,-2.0,-2.0,-2.0,-2.0,2.0,2.0,2.0,2.0,2.0,2.0,0.011096690595149991,0.02090171128511429,0.021386671066284182,-0.00467681884765625,-0.018866038322448733,0.009734574891626836,-0.05,-0.025,-0.025,-0.025,-0.05,0.0,0.05,0.025,0.025,0.025,0.05,0.025,-0.1558727431977555,-1.2881640476172425,0.8921157930590619,-1.400324992808992,-0.03724261395815047,0.0,-0.15452362510664752,-1.2856228874372846,0.8947139542643844,-1.4009040500881083,-0.03953628378277126,0.009734574891626836,0.035975960273670046,0.06776427024376425,0.06934275674402118,-0.015132103313496278,-0.06116452865655442,0.0,-2.2009979107680626e-09,9.512386130438057e-08,-6.091188008671124e-07,6.39881097196265e-08,1.2458044226305386e-10,0.0,-3.2,-3.2,-3.2,-3.2,-3.2,-3.2,3.2,3.2,3.2,3.2,3.2,3.2,-0.1962619075519763,-6.425366045697917,0.1962619075519763,1.6051476236799689,0.14,0.0,0.26,-0.017300645511112232,0.0027187533824990714,0.3773364890295131,-0.7853981633974483,0.0,-1.5707963267948966,0.008544348109516039,-0.2254177942775041,-0.19408248570426176,0.0,0.0,0.0,1.6380907918778287,1.8100747048048909,0.0,531.0782727951348,284.925835830312
1.0,34.0,1.0306017398834229,0.8037442564964294,-0.9395254850387573,0.2657007873058319,-0.28193071484565735,-0.5827494263648987,-2.0,-2.0,-2.0,-2.0,-2.0,-2.0,2.0,2.0,2.0,2.0,2.0,2.0,0.02576504349708557,0.010046803206205365,-0.011744068562984468,0.0033212598413229003,-0.007048267871141434,0.008857816085219383,-0.05,-0.025,-0.025,-0.025,-0.05,0.0,0.05,0.025,0.025,0.025,0.05,0.025,-0.13324011207671213,-1.279333837177501,0.8817995740018212,-1.3974073727127871,-0.043434011385510174,0.0,-0.13010769970066993,-1.2781172444110371,0.8803717244960774,-1.3970037329676692,-0.0442908818292919,0.008857816085219383,0.0835314754888767,0.03258656437927418,-0.03807598681983482,0.010760945971534,-0.022850918503675415,0.0,-5.5467991216185684e-09,1.5556682639753835e-07,-5.501305551327578e-07,8.596456419936633e-08,-2.6303431200895436e-10,0.0,-3.2,-3.2,-3.2,-3.2,-3.2,-3.2,3.2,3.2,3.2,3.2,3.2,3.2,-0.19642362765440205,-6.621789673352319,0.19642362765440205,1.6196037532648941,0.14,0.0,0.26,-0.016523276037502876,0.002214684398863016,0.378649908269734,-0.7853981633974483,0.0,-1.5707963267948966,0.009898479428810255,-0.22393030819874876,-0.17778707177573894,0.0,0.0,0.0,-0.038812824582177274,0.3857554081362021,0.0,-402.45686795040143,-341.83663120048533
1.0,35.0,-0.8124055862426758,0.8996219635009766,0.28315454721450806,1.891495943069458,-1.238282561302185,0.8256082534790039,-2.0,-2.0,-2.0,-2.0,-2.0,-2.0,2.0,2.0,2.0,2.0,2.0,2.0,-0.020310139656066897,0.011245274543762208,0.0035394318401813507,0.02364369928836823,-0.03095706403255463,0.017660051584243774,-0.05,-0.025,-0.025,-0.025,-0.05,0.0,0.05,0.025,0.025,0.025,0.05,0.025,-0.15108103635362877,-1.2694557256509653,0.8849107391478148,-1.3766268938586965,-0.07062741913704076,0.0,-0.15355025173277903,-1.2680885626337388,0.8853390058420025,-1.373763673424419,-0.0743910754180648,0.017660051584243774,-0.06584639736829487,0.03645767594473098,0.011480503709189405,0.0766827415104176,-0.10036416749397425,0.0,4.9111222991806125e-09,9.140891849378727e-08,-6.012221397829194e-07,5.587250585992258e-08,8.651650839241497e-10,0.0,-3.2,-3.2,-3.2,-3.2,-3.2,-3.2,3.2,3.2,3.2,3.2,3.2,3.2,-0.19237601831635068,-6.81416569166867,0.19237601831635068,1.5782905871697182,0.14,0.0,0.26,-0.011189619185433224,0.0017035202512016166,0.3789425470240583,-0.7853981633974483,0.0,-1.5707963267948966,0.013598410325627901,-0.18989513613878703,-0.22300350517944137,0.0,0.0,0.0,0.9714262411323293,1.2878593582298286,0.0,242.4573757714816,216.50494802247033
1.0,36.0,1.8008599281311035,1.8210529088974,0.6226315498352051,-1.2773380279541016,-1.798949956893921,0.2732101380825043,-2.0,-2.0,-2.0,-2.0,-2.0,-2.0,2.0,2.0,2.0,2.0,2.0,2.0,0.045021498203277596,0.022763161361217497,0.007782894372940066,-0.01596672534942627,-0.044973748922348025,0.014207563363015652,-0.05,-0.025,-0.025,-0.025,-0.05,0.0,0.05,0.025,0.025,0.025,0.05,0.025,-0.11153312643260044,-1.249460033715198,0.8917498186253487,-1.390639403385429,-0.11013341012101349,0.0,-0.10605953815035117,-1.2466925642897477,0.8926936335207549,-1.3925936192081227,-0.11560116805938879,0.014207563363015652,0.14596168460678102,0.07379917256811008,0.025235252498414407,-0.0517499505210719,-0.1458068783566745,0.0,-8.74663262023246e-09,7.008869456432408e-08,-6.154903215840339e-07,5.4276454393673585e-08,1.1414171554786993e-11,0.0,-3.2,-3.2,-3.2,-3.2,-3.2,-3.2,3.2,3.2,3.2,3.2,3.2,3.2,-0.18828289681158245,-7.002448588480252,0.18828289681158245,1.5794944878240325,0.14,0.0,0.26,-0.006662958870908359,0.0007462375115879227,0.3780672217703438,-0.7853981633974483,0.0,-1.5707963267948966,0.019720177123902494,-0.1764662324110444,-0.22341109470969203,0.0,0.0,0.0,0.9823491611443758,1.130123230995339,0.0,2.6215008028911413,-37.85667053627748
1.0,37.0,0.175084188580513,-0.9971548318862915,-1.386278748512268,1.3328973054885864,0.3882686197757721,-0.7233323454856873,-2.0,-2.0,-2.0,-2.0,-2.0,-2.0,2.0,2.0,2.0,2.0,2.0,2.0,0.004377104714512824,-0.012464435398578645,-0.017328484356403353,0.016661216318607334,0.009706715494394301,0.007979172840714454,-0.05,-0.025,-0.025,-0.025,-0.05,0.0,0.05,0.025,0.025,0.025,0.05,0.025,-0.10768818299427672,-1.2604096210476006,0.8765286824890032,-1.3760004975781692,-0.10160659333096529,0.0,-0.10715602171808761,-1.2619244691137765,0.8744213342689454,-1.3739781870668217,-0.10042669462661918,0.007979172840714454,0.014191692177410078,-0.040248862336678876,-0.05619595253487475,0.05392857218454847,0.03146237512223314,0.0,-1.0606277499835776e-09,1.802359181188963e-07,-5.346433777535755e-07,8.952361890474043e-08,-2.0583904560334933e-10,0.0,-3.2,-3.2,-3.2,-3.2,-3.2,-3.2,3.2,3.2,3.2,3.2,3.2,3.2,-0.19229733162516452,-7.194745920105417,0.19229733162516452,1.5911629396434794,0.14,0.0,0.26,-0.010275130443969376,0.0011108073674124582,0.37997672702319807,-0.7853981633974483,0.0,-1.5707963267948966,0.019408705772286292,-0.18809820301926886,-0.21112560568150468,0.0,0.0,0.0,-0.9634643552596978,0.9844946550937708,0.0,-466.99524393697766,-34.95085821637639
1.0,38.0,-0.7071832418441772,-0.7419199347496033,-1.7972383499145508,0.3617485761642456,1.7255793809890747,-0.5742019414901733,-2.0,-2.0,-2.0,-2.0,-2.0,-2.0,2.0,2.0,2.0,2.0,2.0,2.0,-0.017679581046104433,-0.009273999184370042,-0.022465479373931885,0.004521857202053069,0.043139484524726865,0.008911237865686417,-0.05,-0.025,-0.025,-0.025,-0.05,0.0,0.05,0.025,0.025,0.025,0.05,0.025,-0.12321835800153266,-1.2685595827951448,0.8567946096424611,-1.372027599707702,-0.06371182778327539,0.0,-0.12536776404038116,-1.2696836202319706,0.8540632031150713,-1.371478640376116,-0.05846710880623843,0.008911237865686417,-0.057318127907258994,-0.030112938911382447,-0.07283750739706019,0.014639990662388983,0.1398605535089962,0.0,3.176454628011196e-09,2.1260021900040174e-07,-5.080273855896238e-07,1.03724037070012e-07,-3.7212041470972536e-10,0.0,-3.2,-3.2,-3.2,-3.2,-3.2,-3.2,3.2,3.2,3.2,3.2,3.2,3.2,-0.19744764397907155,-7.392193564084488,0.19744764397907155,1.6108603902483125,0.14,0.0,0.26,-0.015160024476673776,0.0018775048591223842,0.3820959208687504,-0.7853981633974483,0.0,-1.5707963267948966,0.013769200958112862,-0.21255746022062844,-0.18839911661090333,0.0,0.0,0.0,-1.2360749649376879,1.2911241013285115,0.0,-65.42654632271763,73.59106709633778
1.0,39.0,0.13405731320381165,-1.5853770971298218,-0.6994828581809998,-1.2645254135131836,1.3286595344543457,-1.3921411037445068,-2.0,-2.0,-2.0,-2.0,-2.0,-2.0,2.0,2.0,2.0,2.0,2.0,2.0,0.0033514328300952925,-0.019817213714122775,-0.008743535727262497,-0.015806567668914796,0.03321648836135864,0.0037991181015968323,-0.05,-0.025,-0.025,-0.025,-0.05,0.0,0.05,0.025,0.025,0.025,0.05,0.025,-0.12027437465908095,-1.285968989306504,0.8491128919526368,-1.3859181819467128,-0.034533677073097103,0.0,-0.11986692517143738,-1.2883767965092676,0.8480510739151986,-1.3878341673766168,-0.030495339421916748,0.0037991181015968323,0.010864808284571167,-0.06434848820129302,-0.028315147665019802,-0.0510887589823619,0.10769010292113679,0.0,-1.181082240730261e-09,2.7029978485365525e-07,-4.806874804493329e-07,1.2990222299582154e-07,-4.925331536204624e-10,0.0,-3.2,-3.2,-3.2,-3.2,-3.2,-3.2,3.2,3.2,3.2,3.2,3.2,3.2,-0.20328686855386588,-7.595480432638354,0.20328686855386588,1.6419941576223571,0.14,0.0,0.26,-0.02244217319423105,0.0027123096669389502,0.3821913854191154,-0.7853981633974483,0.0,-1.5707963267948966,0.008888690666754047,-0.251824456648898,-0.15593320615027612,0.0,0.0,0.0,-1.4014138979506385,1.7593113606033197,0.0,-39.68134392310816,112.36494222595397
1.0,40.0,-1.9218254089355469,-1.0462629795074463,-0.34284093976020813,-1.1983405351638794,1.1177221536636353,-0.46580761671066284,-2.0,-2.0,-2.0,-2.0,-2.0,-2.0,2.0,2.0,2.0,2.0,2.0,2.0,-0.04804563522338867,-0.013078287243843079,-0.004285511747002601,-0.014979256689548493,0.02794305384159089,0.009588702395558358,-0.05,-0.025,-0.025,-0.025,-0.05,0.0,0.05,0.025,0.025,0.025,0.05,0.025,-0.16247878297208343,-1.2974596451838554,0.8453474559995001,-1.399080643238871,-0.009987839299331227,0.0,-0.16832000988246962,-1.2990472765503471,0.8448273802056342,-1.4008974386362614,-0.006590623231506214,0.009588702395558358,-0.1557662559008991,-0.04249868380428087,-0.01386868783642381,-0.04844016857467602,0.09059286669064862,0.0,1.0815279845301729e-08,2.6742859927415593e-07,-4.818594451917167e-07,1.3243421892764185e-07,2.5918536153551814e-10,0.0,-3.2,-3.2,-3.2,-3.2,-3.2,-3.2,3.2,3.2,3.2,3.2,3.2,3.2,-0.2070294180840591,-7.802509850722413,0.2070294180840591,1.6291659610900244,0.14,0.0,0.26,-0.02729466487700435,0.004474245800214084,0.38187557663631466,-0.7853981633974483,0.0,-1.5707963267948966,0.0028762788268087147,-0.2803821415885627,-0.1728725137104243,0.0,0.0,0.0,-0.8982118872463762,1.2413089012045773,0.0,120.76848256902295,-124.32059025569819
1.0,41.0,-0.677804172039032,1.1285322904586792,0.6115610003471375,-1.3393012285232544,0.6553472876548767,-1.1912583112716675,-2.0,-2.0,-2.0,-2.0,-2.0,-2.0,2.0,2.0,2.0,2.0,2.0,2.0,-0.016945104300975802,0.01410665363073349,0.007644512504339215,-0.01674126535654068,0.016383682191371915,0.005054635554552079,-0.05,-0.025,-0.025,-0.025,-0.05,0.0,0.05,0.025,0.025,0.025,0.05,0.025,-0.17736375741266872,-1.285063919862131,0.8520622448305931,-1.413788378904149,0.004403972321368229,0.0,-0.17942388727305925,-1.2833529915531219,0.8529919685038393,-1.4158219085954116,0.006395842892040688,0.005054635554552079,-0.054936876314284164,0.04579219179260499,0.024792631286563116,-0.05423732907123946,0.053116718536838144,0.0,3.6701744743385063e-09,1.689447329640634e-07,-5.44213145650332e-07,1.0132343185955693e-07,-1.1452222660135772e-12,0.0,-3.2,-3.2,-3.2,-3.2,-3.2,-3.2,3.2,3.2,3.2,3.2,3.2,3.2,-0.20435685631095765,-8.006866707033371,0.20435685631095765,1.6264977417909696,0.14,0.0,0.26,-0.02455979053847458,0.004402275955548075,0.3810884801524983,-0.7853981633974483,0.0,-1.5707963267948966,-0.0012472960790711953,-0.2759909806021871,-0.17278656289437086,0.0,0.0,0.0,0.6414148255443508,0.6832306486255845,0.0,369.5104110697745,-133.93878061895828
1.0,42.0,-1.627050757408142,0.5080940127372742,0.894044816493988,0.2885377109050751,1.2155729532241821,0.9481036067008972,-2.0,-2.0,-2.0,-2.0,-2.0,-2.0,2.0,2.0,2.0,2.0,2.0,2.0,-0.040676268935203555,0.006351175159215926,0.011175560206174849,0.00360672138631344,0.030389323830604553,0.01842564754188061,-0.05,-0.025,-0.025,-0.025,-0.05,0.0,0.05,0.025,0.025,0.025,0.05,0.025,-0.21309474608449916,-1.2794816624705652,0.8618794283838653,-1.410618785783741,0.031098682739450777,0.0,-0.21804002634787228,-1.278712744702915,0.863237805036768,-1.4101816575178356,0.03479329615197278,0.01842564754188061,-0.13187457740920963,0.02066037718297467,0.03622337741073789,0.011649144950913334,0.09852397291445356,0.0,8.732407861750182e-09,1.5133792430661986e-07,-5.597937136967589e-07,9.123294801355221e-08,1.4915892983890595e-10,0.0,-3.2,-3.2,-3.2,-3.2,-3.2,-3.2,3.2,3.2,3.2,3.2,3.2,3.2,-0.20107769420635593,-8.207944401239727,0.20107769420635593,1.613062221487942,0.14,0.0,0.26,-0.021027425589873625,0.004549912871111448,0.3803399584847352,-0.7853981633974483,0.0,-1.5707963267948966,-0.008185719271395737,-0.2572973995573158,-0.1809371269950518,0.0,0.0,0.0,0.7869989051044124,0.8673164175896986,0.0,34.94017909441478,44.18058455138738
1.0,43.0,-0.4681592583656311,1.09394371509552,-1.07975435256958,0.0997312068939209,1.5236296653747559,0.6574827432632446,-2.0,-2.0,-2.0,-2.0,-2.0,-2.0,2.0,2.0,2.0,2.0,2.0,2.0,-0.011703981459140776,0.013674296438694,-0.013496929407119752,0.0012466400861740126,0.0380907416343689,0.01660926714539528,-0.05,-0.025,-0.025,-0.025,-0.05,0.0,0.05,0.025,0.025,0.025,0.05,0.025,-0.2233758234172665,-1.2674648111324638,0.8500232509670153,-1.4095247496762828,0.06455853468315183,0.0,-0.22479872754363994,-1.2658073660318712,0.8483824989767456,-1.409372145697567,0.06918942437381968,0.01660926714539528,-0.037944966200783255,0.0443523403366993,-0.043753386407192174,0.0040608483829738945,0.12349224592721272,0.0,1.9634426818983067e-09,1.6223721642483415e-07,-5.339535567337996e-07,9.686833348410556e-08,-4.776775761054415e-10,0.0,-3.2,-3.2,-3.2,-3.2,-3.2,-3.2,3.2,3.2,3.2,3.2,3.2,3.2,-0.2009925143042012,-8.408936915543928,0.2009925143042012,1.6296504930827969,0.14,0.0,0.26,-0.01980682774543135,0.004499452617722055,0.3818175830428737,-0.7853981633974483,0.0,-1.5707963267948966,-0.016896119391097766,-0.25562438621691524,-0.15664587117346956,0.0,0.0,0.0,0.020443176517135342,0.4601357506029918,0.0,-183.97337486094648,-97.72336007680963
1.0,44.0,-0.23924490809440613,-1.9301962852478027,-0.9069676995277405,0.12945696711540222,0.48681163787841797,1.9830210208892822,-2.0,-2.0,-2.0,-2.0,-2.0,-2.0,2.0,2.0,2.0,2.0,2.0,2.0,-0.005981122702360155,-0.024127453565597534,-0.011337096244096756,0.0016182120889425278,0.012170290946960448,0.024893881380558015,-0.05,-0.025,-0.025,-0.025,-0.05,0.0,0.05,0.025,0.025,0.025,0.05,0.025,-0.22862980975911146,-1.2886600364938068,0.8400629638747855,-1.4081101298394239,0.07524918368932716,0.0,-0.22935694611962665,-1.2915922646980613,0.8386861547229185,-1.4079065375873403,0.07672882563011227,0.024893881380558015,-0.019389157255988696,-0.07834133155950007,-0.03671491071645411,0.005438257518453754,0.03945460506150483,0.0,1.1715095741703927e-09,2.8773260180785154e-07,-4.6289007269566597e-07,1.4128103220052946e-07,-1.4006059616320673e-10,0.0,-3.2,-3.2,-3.2,-3.2,-3.2,-3.2,3.2,3.2,3.2,3.2,3.2,3.2,-0.20677346433375027,-8.615710379877678,0.20677346433375027,1.6376712762992045,0.14,0.0,0.26,-0.026586582644650587,0.00618665834412825,0.38233520055115255,-0.7853981633974483,0.0,-1.5707963267948966,-0.022096153854983865,-0.2850790905779307,-0.15020941866179668,0.0,0.0,0.0,-1.3874280070917755,1.68136517461113,0.0,-337.8890840661386,293.09506176195316
1.0,45.0,1.0659183263778687,1.454421877861023,-1.7008503675460815,0.09961921721696854,-1.9248923063278198,0.1307448446750641,-2.0,-2.0,-2.0,-2.0,-2.0,-2.0,2.0,2.0,2.0,2.0,2.0,2.0,0.02664795815944672,0.018180273473262787,-0.021260629594326022,0.0012452402152121067,-0.0481223076581955,0.013317155279219152,-0.05,-0.025,-0.025,-0.025,-0.05,0.0,0.05,0.025,0.025,0.025,0.05,0.025,-0.20522165517362093,-1.2726850929342575,0.8213866291469016,-1.4070189420151713,0.032977474459565836,0.0,-0.20198185159966475,-1.270479763020544,0.8188023342804595,-1.4068648896242117,0.02712687603113166,0.013317155279219152,0.08639418896168653,0.05895849258073224,-0.06891452977179213,0.004097047437641374,-0.15601473663875548,0.0,-5.377296243826367e-09,1.8608636083015788e-07,-5.073908242722221e-07,1.0868549861475468e-07,3.972667131506678e-10,0.0,-3.2,-3.2,-3.2,-3.2,-3.2,-3.2,3.2,3.2,3.2,3.2,3.2,3.2,-0.2073801093755048,-8.823090489253183,0.2073801093755048,1.6260694636445316,0.14,0.0,0.26,-0.025702084864830842,0.005349942048091415,0.3845821293610235,-0.7853981633974483,0.0,-1.5707963267948966,-0.009749860979760393,-0.2873603002626093,-0.17083358822405995,0.0,0.0,0.0,-0.14559481002108798,0.6133453241113106,0.0,298.039967296965,-256.3247641199567
1.0,46.0,-1.122544527053833,-1.2600843906402588,0.42364221811294556,-0.9797053337097168,-0.963447630405426,-0.39333221316337585,-2.0,-2.0,-2.0,-2.0,-2.0,-2.0,2.0,2.0,2.0,2.0,2.0,2.0,-0.028063613176345828,-0.015751054883003233,0.005295527726411821,-0.01224631667137146,-0.024086190760135653,0.010041673667728901,-0.05,-0.025,-0.025,-0.025,-0.05,0.0,0.05,0.025,0.025,0.025,0.05,0.025,-0.22987338365462248,-1.2865240068829518,0.8260377926072664,-1.4177785434425008,0.011819591999399609,0.0,-0.23328526834996677,-1.2884361478172608,0.8266821568733135,-1.4192652586865429,0.008891283699430184,0.010041673667728901,-0.09098333687835668,-0.05114930735225173,0.0171830470945879,-0.039632761343842915,-0.07808875886740393,0.0,6.9826901497886314e-09,2.666186447803299e-07,-4.800475906136759e-07,1.3982818055404313e-07,7.757777726221508e-10,0.0,-3.2,-3.2,-3.2,-3.2,-3.2,-3.2,3.2,3.2,3.2,3.2,3.2,3.2,-0.20970573030347323,-9.032796219556655,0.20970573030347323,1.5927894567650407,0.14,0.0,0.26,-0.029420210345630464,0.006884617787904833,0.3833932238272014,-0.7853981633974483,0.0,-1.5707963267948966,-0.003753069656695845,-0.3074462507578884,-0.21747226955368973,0.0,0.0,0.0,-0.558149022712422,1.0066614851756719,0.0,-99.01301104592015,94.39587865544671
1.0,47.0,1.3831878900527954,-0.6678900122642517,-1.8376002311706543,0.4521917700767517,-0.7233660817146301,1.0585688352584839,-2.0,-2.0,-2.0,-2.0,-2.0,-2.0,2.0,2.0,2.0,2.0,2.0,2.0,0.03457969725131989,-0.008348625153303146,-0.02297000288963318,0.005652397125959396,-0.018084152042865752,0.019116055220365524,-0.05,-0.025,-0.025,-0.025,-0.05,0.0,0.05,0.025,0.025,0.025,0.05,0.025,-0.19949776702617258,-1.2938582558750202,0.8058581797216802,-1.4128226290940675,-0.004065948627870012,0.0,-0.19529368640330258,-1.294872632036255,0.8030677897176333,-1.4121261463165413,-0.006264560043466143,0.019116055220365524,0.11210872738923695,-0.027215832007595087,-0.074410400107916,0.018587915903124627,-0.058629448651282404,0.0,-8.305030586939813e-09,2.9324088138501704e-07,-4.407322522562975e-07,1.4822473674987534e-07,-2.613387909830119e-10,0.0,-3.2,-3.2,-3.2,-3.2,-3.2,-3.2,3.2,3.2,3.2,3.2,3.2,3.2,-0.21476219452886217,-9.247558414085518,0.21476219452886217,1.6114113092735551,0.14,0.0,0.26,-0.03438496824417731,0.006952201080022761,0.3851573008236956,-0.7853981633974483,0.0,-1.5707963267948966,0.0013928036146938186,-0.3300235469090756,-0.20379565365374402,0.0,0.0,0.0,-1.2135514140933457,1.2646282116835454,0.0,-157.29657393142168,61.91201436188965
1.0,48.0,1.790770411491394,0.12495134025812149,-1.866459846496582,-1.42839777469635,-1.481963038444519,1.3194580078125,-2.0,-2.0,-2.0,-2.0,-2.0,-2.0,2.0,2.0,2.0,2.0,2.0,2.0,0.044769260287284854,0.0015618917532265186,-0.023330748081207275,-0.01785497218370438,-0.03704907596111298,0.020746612548828126,-0.05,-0.025,-0.025,-0.025,-0.05,0.0,0.05,0.025,0.025,0.025,0.05,0.025,-0.1601713599956776,-1.2924862536553547,0.7853606092448298,-1.4285196542749032,-0.036610721877958996,0.0,-0.15472850673888772,-1.2922963641217937,0.7825274316404729,-1.430677601277772,-0.041115024588982994,0.020746612548828126,0.1451439490970059,0.005063722165897788,-0.0756411825625442,-0.057894029145591164,-0.12011473896063993,0.0,-1.1021070961296816e-08,3.085158098570963e-07,-4.2408744080504585e-07,1.6192658837598986e-07,-9.659859476342662e-11,0.0,-3.2,-3.2,-3.2,-3.2,-3.2,-3.2,3.2,3.2,3.2,3.2,3.2,3.2,-0.21960342665874388,-9.46716184074426,0.21960342665874388,1.6287334212807265,0.14,0.0,0.26,-0.039496801288191746,0.006380917122198267,0.38635603358862347,-0.7853981633974483,0.0,-1.5707963267948966,0.013979393892248868,-0.36459304128155445,-0.19935912708524736,0.0,0.0,0.0,-1.1618957111716122,1.2675581919227576,0.0,12.397368701216038,0.703195257410929
1.0,49.0,-0.5253341794013977,-0.9385263919830322,1.0124766826629639,-1.0620393753051758,-1.6363979578018188,1.5740938186645508,-2.0,-2.0,-2.0,-2.0,-2.0,-2.0,2.0,2.0,2.0,2.0,2.0,2.0,-0.013133354485034943,-0.011731579899787903,0.012655958533287048,-0.013275492191314698,-0.040909948945045474,0.022338086366653444,-0.05,-0.025,-0.025,-0.025,-0.05,0.0,0.05,0.025,0.025,0.025,0.05,0.025,-0.17170797820554426,-1.3027932681918313,0.7964760550391097,-1.440188099455866,-0.07254693626209266,0.0,-0.17330471448071255,-1.3042178335551426,0.7980165677781168,-1.441795146466218,-0.07752067082300447,0.022338086366653444,-0.042581469367597075,-0.03815324827473743,0.041080339706857316,-0.04283409517316808,-0.13262907392272222,0.0,4.359541117535795e-09,2.961576004175254e-07,-4.5463268723239465e-07,1.5945450814985478e-07,1.1283068345991384e-09,0.0,-3.2,-3.2,-3.2,-3.2,-3.2,-3.2,3.2,3.2,3.2,3.2,3.2,3.2,-0.2201223687644149,-9.687284209508675,0.2201223687644149,1.596342648155718,0.14,0.0,0.26,-0.04136874287354708,0.007173987234235829,0.3845301981291656,-0.7853981633974483,0.0,-1.5707963267948966,0.02858294184937783,-0.3746716578782355,-0.2496734107099698,0.0,0.0,0.0,-0.12454610536104527,0.6558107319130786,0.0,248.96390539453606,-146.81939040232297
1.0,50.0,-1.019557237625122,0.41065505146980286,-0.04123435914516449,-0.5071187615394592,1.6346778869628906,-1.4662727117538452,-2.0,-2.0,-2.0,-2.0,-2.0,-2.0,2.0,2.0,2.0,2.0,2.0,2.0,-0.025488930940628055,0.005133188143372536,-0.0005154294893145554,-0.006338984519243241,0.04086694717407227,0.0033357955515384676,-0.05,-0.025,-0.025,-0.025,-0.05,0.0,0.05,0.025,0.025,0.025,0.05,0.025,-0.1940980824446778,-1.2982894169166928,0.7960230159978364,-1.4457567962771476,-0.03664837437921272,0.0,-0.19719690914617233,-1.2976600800484588,0.7959606255497951,-1.4465270839751092,-0.03167998908802039,0.0033357955515384676,-0.08263635737302306,0.01663252515811095,-0.0016637452811014697,-0.020521549707444908,0.13249227129542604,0.0,6.165331385244893e-09,2.6090154898018093e-07,-4.643906367558662e-07,1.480715184049302e-07,-2.439264250203915e-10,0.0,-3.2,-3.2,-3.2,-3.2,-3.2,-3.2,3.2,3.2,3.2,3.2,3.2,3.2,-0.219603776276742,-9.906887985785417,0.219603776276742,1.603210025183151,0.14,0.0,0.26,-0.040710513491107894,0.008002582527132611,0.3845210325273682,-0.7853981633974483,0.0,-1.5707963267948966,0.014515843393031917,-0.37696084491970855,-0.23351532117731175,0.0,0.0,0.0,0.12446219704149941,0.2539830644830898,0.0,59.76199257661072,-96.43864018319731
1.0,51.0,0.19455325603485107,-1.6386743783950806,0.7801585793495178,0.8909075260162354,1.9625828266143799,-1.1028845310211182,-2.0,-2.0,-2.0,-2.0,-2.0,-2.0,2.0,2.0,2.0,2.0,2.0,2.0,0.00486383140087128,-0.02048342972993851,0.009751982241868976,0.01113634407520294,0.049064570665359505,0.0056069716811180115,-0.05,-0.025,-0.025,-0.025,-0.05,0.0,0.05,0.025,0.025,0.025,0.05,0.025,-0.18982558378997372,-1.3162825397924767,0.804586843928985,-1.4359844773327628,0.006451089925729796,0.0,-0.18923425104380653,-1.3187728466466313,0.8057749982397054,-1.4346204522019446,0.012416196286146784,0.0056069716811180115,0.01576868166069291,-0.06640818274147081,0.03160757142446197,0.036069119723048104,0.15906950294445302,0.0,-1.9294791053104726e-09,3.1014096501257876e-07,-4.4708039824930844e-07,1.594393406887543e-07,-7.278677694722894e-10,0.0,-3.2,-3.2,-3.2,-3.2,-3.2,-3.2,3.2,3.2,3.2,3.2,3.2,3.2,-0.22076207795748146,-10.127650063742898,0.22076207795748146,1.6374284578834488,0.14,0.0,0.26,-0.04282386301777352,0.00822813320110113,0.3834650881803777,-0.7853981633974483,0.0,-1.5707963267948966,-0.0025533434614635896,-0.37687561043907614,-0.18288757012458187,0.0,0.0,0.0,-0.27799240337747166,0.5695710112339047,0.0,-96.58910410055306,75.74110722019557
1.0,52.0,0.5518190860748291,1.6756287813186646,0.8823530673980713,1.6444990634918213,-0.14733286201953888,-1.2589815855026245,-2.0,-2.0,-2.0,-2.0,-2.0,-2.0,2.0,2.0,2.0,2.0,2.0,2.0,0.013795477151870725,0.02094535976648331,0.01102941334247589,0.02055623829364777,-0.0036833215504884706,0.004631365090608597,-0.05,-0.025,-0.025,-0.025,-0.05,0.0,0.05,0.025,0.025,0.025,0.05,0.025,-0.17770731677797585,-1.2978816833064988,0.8142760334007382,-1.417924324231398,0.003215576415054507,0.0,-0.17603010663810298,-1.2953371800259934,0.8156162572714609,-1.415428239039115,0.0027677683752413253,0.004631365090608597,0.04472552731789091,0.06800490682666746,0.03573930321927321,0.06654854585743179,-0.011941388333693482,0.0,-3.4260002516575984e-09,1.5425361655193975e-07,-5.401583908208617e-07,9.97687316116364e-08,-1.2546862256315728e-10,0.0,-3.2,-3.2,-3.2,-3.2,-3.2,-3.2,3.2,3.2,3.2,3.2,3.2,3.2,-0.21433351683351087,-10.341983580576409,0.21433351683351087,1.6354454783297974,0.14,0.0,0.26,-0.03465343645393665,0.006223823445328889,0.38408181814743436,-0.7853981633974483,0.0,-1.5707963267948966,-0.0011040490737225974,-0.330731872258367,-0.17430748562966275,0.0,0.0,0.0,1.54285466975294,2.0244605850007256,0.0,437.0032975512988,349.173497704037
1.0,53.0,-0.9626756906509399,0.3983755111694336,-1.377035140991211,1.0360233783721924,-0.981205940246582,-0.026712054386734962,-2.0,-2.0,-2.0,-2.0,-2.0,-2.0,2.0,2.0,2.0,2.0,2.0,2.0,-0.0240668922662735,0.004979693889617921,-0.017212939262390137,0.012950292229652403,-0.024530148506164553,0.012333049660082907,-0.05,-0.025,-0.025,-0.025,-0.05,0.0,0.05,0.025,0.025,0.025,0.05,0.025,-0.19884824695966935,-1.2935124186268163,0.7991561517792655,-1.4065464865177817,-0.018332256445790004,0.0,-0.20177420904424936,-1.292901989416881,0.7970630941383481,-1.4049740320017454,-0.021314572091110047,0.012333049660082907,-0.07802605739417567,0.01613048219599772,-0.05581487042446304,0.04194526687096739,-0.0795275742055272,0.0,6.333243343355405e-09,2.451736679647593e-07,-4.698045619946489e-07,1.3055533409226533e-07,7.001138020046701e-10,0.0,-3.2,-3.2,-3.2,-3.2,-3.2,-3.2,3.2,3.2,3.2,3.2,3.2,3.2,-0.21557760083035812,-10.557561181406767,0.21557760083035812,1.6016033140109016,0.14,0.0,0.26,-0.034786483251551766,0.007009867191846882,0.38599305145237534,-0.7853981633974483,0.0,-1.5707963267948966,0.006280999303701021,-0.33004885231865605,-0.21822653788245464,0.0,0.0,0.0,-0.29858015924334014,0.4970016383676914,0.0,-441.9443589591072,-366.5901471919282
1.0,54.0,-1.0736414194107056,0.32563844323158264,0.48878899216651917,-1.7736170291900635,1.7325304746627808,-1.6018012762069702,-2.0,-2.0,-2.0,-2.0,-2.0,-2.0,2.0,2.0,2.0,2.0,2.0,2.0,-0.02684103548526764,0.004070480540394782,0.00610986240208149,-0.022170212864875794,0.043313261866569516,0.0024887420237064365,-0.05,-0.025,-0.025,-0.025,-0.05,0.0,0.05,0.025,0.025,0.025,0.05,0.025,-0.2224260296818019,-1.2899419517583552,0.8045232388575759,-1.4260206216706361,0.01971510375884905,0.0,-0.225689282444937,-1.2894419380864215,0.8052660141813469,-1.4287166993826574,0.024981005420779512,0.0024887420237064365,-0.08701961095460949,0.013180043135722519,0.019807341967225334,-0.07187928091549348,0.14042308667202608,0.0,6.089148992680314e-09,2.4489779892798106e-07,-4.843185059540317e-07,1.3826678084544105e-07,-2.420294306690863e-10,0.0,-3.2,-3.2,-3.2,-3.2,-3.2,-3.2,3.2,3.2,3.2,3.2,3.2,3.2,-0.21502543378501646,-10.772586615191782,0.21502543378501646,1.611477706511165,0.14,0.0,0.26,-0.03484235762379735,0.007880231707834985,0.38491592814055975,-0.7853981633974483,0.0,-1.5707963267948966,-0.006987659304995843,-0.3405741240458633,-0.20150937668859709,0.0,0.0,0.0,0.13252009088200012,0.3326274426219901,0.0,103.46406003008167,-39.449806978968304
1.0,55.0,-0.25183045864105225,1.4633065462112427,0.9413534998893738,-1.9367347955703735,0.9888041019439697,1.5795578956604004,-2.0,-2.0,-2.0,-2.0,-2.0,-2.0,2.0,2.0,2.0,2.0,2.0,2.0,-0.006295761466026305,0.018291331827640533,0.01176691874861717,-0.02420918494462967,0.024720102548599243,0.022372236847877505,-0.05,-0.025,-0.025,-0.025,-0.05,0.0,0.05,0.025,0.025,0.025,0.05,0.025,-0.22795639456205666,-1.273870348708534,0.8148592746493335,-1.4472882654801464,0.041429862895325825,0.0,-0.2287217911478282,-1.2716506199307147,0.8162901576061931,-1.450229806615266,0.044435206307448294,0.022372236847877505,-0.020411387512916844,0.05934680601931394,0.038156878849589404,-0.07845935114694969,0.08014419916670112,0.0,1.1146854017528218e-09,1.827990855010671e-07,-5.219796118380299e-07,1.2170211297498616e-07,-3.360349059874887e-10,0.0,-3.2,-3.2,-3.2,-3.2,-3.2,-3.2,3.2,3.2,3.2,3.2,3.2,3.2,-0.2113908461801582,-10.983977461371941,0.2113908461801582,1.6216380390472644,0.14,0.0,0.26,-0.031237988592933356,0.007246861866074801,0.38373812712540845,-0.7853981633974483,0.0,-1.5707963267948966,-0.014440843292199789,-0.3352038236680322,-0.18408325738957743,0.0,0.0,0.0,0.8723010251659846,0.9226696510818521,0.0,177.54742422815627,141.6101300303669
1.0,56.0,-1.8296414613723755,0.8115140795707703,-0.2162611037492752,-1.9242095947265625,0.49370071291923523,-0.27191370725631714,-2.0,-2.0,-2.0,-2.0,-2.0,-2.0,2.0,2.0,2.0,2.0,2.0,2.0,-0.04574103653430939,0.01014392599463463,-0.0027032637968659387,-0.02405261993408203,0.012342517822980882,0.010800539329648019,-0.05,-0.025,-0.025,-0.025,-0.05,0.0,0.05,0.025,0.025,0.025,0.05,0.025,-0.2681363490074448,-1.2649649551904565,0.8124849045996632,-1.4684149789176304,0.052271742998454586,0.0,-0.273697431096366,-1.2637264227138996,0.8121560108524676,-1.4713408854142285,0.05377238071830671,0.010800539329648019,-0.14829420939251875,0.03284955540294612,-0.008770499925216058,-0.0779993807235227,0.04001431539456811,0.0,1.0749634915375836e-08,2.2359302389011157e-07,-4.866161478057761e-07,1.4130075309586082e-07,4.945562387465003e-10,0.0,-3.2,-3.2,-3.2,-3.2,-3.2,-3.2,3.2,3.2,3.2,3.2,3.2,3.2,-0.21129815045607336,-11.195275611828015,0.21129815045607336,1.5982650263327816,0.14,0.0,0.26,-0.03128802506232931,0.00859647156681396,0.38342374784864225,-0.7853981633974483,0.0,-1.5707963267948966,-0.019075518056256742,-0.34960001875902924,-0.21249572511664827,0.0,0.0,0.0,0.02224697378035767,0.33279479707788734,0.0,-204.01297233255048,-141.56996496095152
1.0,57.0,1.9688588380813599,1.088841199874878,-0.3418038785457611,1.6964322328567505,0.44143086671829224,1.3818893432617188,-2.0,-2.0,-2.0,-2.0,-2.0,-2.0,2.0,2.0,2.0,2.0,2.0,2.0,0.049221470952034,0.013610514998435977,-0.004272548481822014,0.02120540291070938,0.011035771667957307,0.021136808395385745,-0.05,-0.025,-0.025,-0.025,-0.05,0.0,0.05,0.025,0.025,0.025,0.05,0.025,-0.22489907726308422,-1.2530059768837731,0.8087320871337532,-1.4497868581702138,0.06196586990340583,0.0,-0.21891487805541082,-1.2513544401920205,0.8082123561178411,-1.447209576006921,0.0633075146664119,0.021136808395385745,0.15957755948145924,0.044194919406522204,-0.01385949375765616,0.06870822205144192,0.03577947799012306,0.0,-1.1691695051479164e-08,1.5683564625571083e-07,-5.227506776083661e-07,1.1056540711467082e-07,-1.0906517336028489e-09,0.0,-3.2,-3.2,-3.2,-3.2,-3.2,-3.2,3.2,3.2,3.2,3.2,3.2,3.2,-0.20880469932423695,-11.404080311152251,0.20880469932423695,1.6371854809707387,0.14,0.0,0.26,-0.027267601499543853,0.006237986377348058,0.3848280396162289,-0.7853981633974483,0.0,-1.5707963267948966,-0.02074331538862121,-0.3226215035706515,-0.15955764111773638,0.0,0.0,0.0,0.5984282716407385,1.1683414307395725,0.0,138.28351148649142,200.53119207880445
1.0,58.0,1.0112284421920776,0.4296521246433258,0.29160407185554504,1.8206089735031128,1.3698534965515137,1.3462923765182495,-2.0,-2.0,-2.0,-2.0,-2.0,-2.0,2.0,2.0,2.0,2.0,2.0,2.0,0.025280711054801938,0.005370651558041572,0.0036450508981943144,0.02275761216878891,0.03424633741378784,0.02091432735323906,-0.05,-0.025,-0.025,-0.025,-0.05,0.0,0.05,0.025,0.025,0.025,0.05,0.025,-0.20269191626522848,-1.2482855394592633,0.811934732569707,-1.4297932074606592,0.09204870387128677,0.0,-0.19961836620828227,-1.2476353253257315,0.8123771380319476,-1.427029246001425,0.09621220731719367,0.02091432735323906,0.08195997916181025,0.017491108188372184,0.01179747899307948,0.07368981345867161,0.11102965784231932,0.0,-6.4290866173059695e-09,1.4996896200444693e-07,-5.364369253826061e-07,1.0285158201266411e-07,-1.191832908027769e-09,0.0,-3.2,-3.2,-3.2,-3.2,-3.2,-3.2,3.2,3.2,3.2,3.2,3.2,3.2,-0.2060997345500443,-11.610180045702295,0.2060997345500443,1.6746172207825267,0.14,0.0,0.26,-0.023528794186551513,0.004835499035746862,0.38534772436134007,-0.7853981633974483,0.0,-1.5707963267948966,-0.02795863598658166,-0.2940599163996176,-0.10650231122833478,0.0,0.0,0.0,0.6491915458062381,0.966450024904061,0.0,12.183185799719887,-48.453937400522776
1.0,59.0,-0.3416559398174286,0.6522422432899475,1.589525818824768,-0.4935709536075592,-0.6728602647781372,-0.31842827796936035,-2.0,-2.0,-2.0,-2.0,-2.0,-2.0,2.0,2.0,2.0,2.0,2.0,2.0,-0.008541398495435712,0.008153028041124347,0.0198690727353096,-0.006169636920094489,-0.016821506619453433,0.010509823262691498,-0.05,-0.025,-0.025,-0.025,-0.05,0.0,0.05,0.025,0.025,0.025,0.05,0.025,-0.21019487329896885,-1.241121681632849,0.8293894582183718,-1.4352075804409121,0.07727233056348254,0.0,-0.2112333147606642,-1.240132511418139,0.8318038053050166,-1.4359628443807537,0.07522719725183334,0.010509823262691498,-0.02769293776665816,0.026542293697216307,0.0643825889771934,-0.02015635450558842,-0.05453443346436083,0.0,2.1147815314995664e-09,1.2791003023995402e-07,-5.64295981579145e-07,9.68490184034475e-08,4.035600258973441e-10,0.0,-3.2,-3.2,-3.2,-3.2,-3.2,-3.2,3.2,3.2,3.2,3.2,3.2,3.2,-0.20175542049002468,-11.81193546619232,0.20175542049002468,1.6537727210682023,0.14,0.0,0.26,-0.01938263600979543,0.004135211335171118,0.3836338346201767,-0.7853981633974483,0.0,-1.5707963267948966,-0.021872431100459853,-0.27529795579070154,-0.1298925463129608,0.0,0.0,0.0,1.0426353744047079,1.0897810035154518,0.0,94.42651886363277,29.59943486673381
1.0,60.0,-1.086594820022583,-0.5626819133758545,-1.8435064554214478,1.8537267446517944,1.2669671773910522,-1.5298713445663452,-2.0,-2.0,-2.0,-2.0,-2.0,-2.0,2.0,2.0,2.0,2.0,2.0,2.0,-0.027164870500564577,-0.007033523917198182,-0.023043830692768098,0.023171584308147433,0.03167417943477631,0.0029383040964603424,-0.05,-0.025,-0.025,-0.025,-0.05,0.0,0.05,0.025,0.025,0.025,0.05,0.025,-0.23405707346934598,-1.2473045954713498,0.8091477353031086,-1.4148505265152498,0.10509556731049417,0.0,-0.23735974379953342,-1.248155205550047,0.8063456275256038,-1.4120359961327646,0.10894650999825885,0.0029383040964603424,-0.0880693830740393,-0.022844179281858112,-0.07472287406679451,0.07506877933312632,0.10268798549032719,0.0,5.476076372613677e-09,2.1574510717821435e-07,-4.850750761156815e-07,1.2149994650324664e-07,-7.542188121427999e-11,0.0,-3.2,-3.2,-3.2,-3.2,-3.2,-3.2,3.2,3.2,3.2,3.2,3.2,3.2,-0.20536139119507682,-12.017296857387397,0.20536139119507682,1.6553082789213274,0.14,0.0,0.26,-0.021982027646723235,0.005241107803603686,0.38612555055191855,-0.7853981633974483,0.0,-1.5707963267948966,-0.03040699351769216,-0.2806116445756943,-0.12466668647989064,0.0,0.0,0.0,-0.865432969212514,0.9040227589689533,0.0,-457.9364024681332,-44.581978691159634
1.0,61.0,-1.1982977390289307,-1.9778270721435547,0.9569122195243835,0.17503011226654053,-0.46127793192863464,-1.4021884202957153,-2.0,-2.0,-2.0,-2.0,-2.0,-2.0,2.0,2.0,2.0,2.0,2.0,2.0,-0.029957443475723267,-0.024722838401794435,0.011961402744054793,0.002187876403331755,-0.011531948298215869,0.0037363223731517793,-0.05,-0.025,-0.025,-0.025,-0.05,0.0,0.05,0.025,0.025,0.025,0.05,0.025,-0.260372354575223,-1.2690252797949153,0.8196547703573642,-1.4129290059193902,0.09496554795996283,0.0,-0.2640145169450693,-1.272027433873144,0.8211091380471633,-1.412662650111918,0.0935636190122783,0.0037363223731517793,-0.09712257693703556,-0.08020864010395681,0.03878313839464376,0.007115131410403833,-0.03738845175241778,0.0,6.875873611298293e-09,2.4918971919418485e-07,-4.930649700533131e-07,1.328774863309572e-07,5.348695758461818e-10,0.0,-3.2,-3.2,-3.2,-3.2,-3.2,-3.2,3.2,3.2,3.2,3.2,3.2,3.2,-0.20719175146293406,-12.224488608850331,0.20719175146293406,1.6260338537547272,0.14,0.0,0.26,-0.025363758190046187,0.006757419721300904,0.38464985611805713,-0.7853981633974483,0.0,-1.5707963267948966,-0.028443983334040992,-0.29015148245266753,-0.16125080426946095,0.0,0.0,0.0,-0.4392864642857375,0.9573857613437519,0.0,102.27516118242636,12.807120569951644
1.0,62.0,0.9812719225883484,0.1541515588760376,-0.7136096358299255,-0.017841311171650887,1.4683036804199219,1.4318746328353882,-2.0,-2.0,-2.0,-2.0,-2.0,-2.0,2.0,2.0,2.0,2.0,2.0,2.0,0.024531798064708704,0.0019268944859504693,-0.008920120447874071,-0.0002230163896456347,0.036707592010498044,0.021449216455221177,-0.05,-0.025,-0.025,-0.025,-0.05,0.0,0.05,0.025,0.025,0.025,0.05,0.025,-0.2388229752029199,-1.2673378458388624,0.8118192434387556,-1.4131239630350836,0.12721020069640224,0.0,-0.2358405565105143,-1.2670983853089648,0.8107346499094902,-1.413152022309036,0.13167313997046087,0.021449216455221177,0.07953358262889706,0.006214810080500066,-0.02892249411374248,-0.0007334259781288099,0.11900654220228105,0.0,-6.2943329732664336e-09,2.1473780329834136e-07,-4.9597786569456e-07,1.2204433262206438e-07,-1.056611832594677e-09,0.0,-3.2,-3.2,-3.2,-3.2,-3.2,-3.2,3.2,3.2,3.2,3.2,3.2,3.2,-0.20848078803009404,-12.432969396880425,0.20848078803009404,1.670513263929652,0.14,0.0,0.26,-0.026404716642033577,0.006428744450994918,0.3854287865751611,-0.7853981633974483,0.0,-1.5707963267948966,-0.03892581872798357,-0.29536670197767584,-0.10582120244247198,0.0,0.0,0.0,-0.309368776118395,0.32184658508510705,0.0,31.1802451601622,-152.52940230207477
1.0,63.0,0.6686297059059143,-0.21925871074199677,-0.5519642233848572,-1.5594327449798584,-1.0722230672836304,-1.4333505630493164,-2.0,-2.0,-2.0,-2.0,-2.0,-2.0,2.0,2.0,2.0,2.0,2.0,2.0,0.016715742647647858,-0.002740733884274961,-0.006899552792310717,-0.01949290931224823,-0.02680557668209076,0.0035415589809417725,-0.05,-0.025,-0.025,-0.025,-0.05,0.0,0.05,0.025,0.025,0.025,0.05,0.025,-0.22413944891024146,-1.2697484901606595,0.8057580080458882,-1.4302486495403228,0.10366346215525213,0.0,-0.22210723255527204,-1.2700785797231373,0.8049196906464449,-1.4326168723473318,0.10040462401431148,0.0035415589809417725,0.05419458928450775,-0.008950850907766927,-0.02235513065182193,-0.06313654488516177,-0.08690681169454612,0.0,-3.540479162475507e-09,2.555665922444118e-07,-4.705476003683237e-07,1.4289203330508355e-07,1.536965858985959e-10,0.0,-3.2,-3.2,-3.2,-3.2,-3.2,-3.2,3.2,3.2,3.2,3.2,3.2,3.2,-0.21126476058551963,-12.644234157465945,0.21126476058551963,1.6693772255183312,0.14,0.0,0.26,-0.029945110565429468,0.006826584405460457,0.38531901773280863,-0.7853981633974483,0.0,-1.5707963267948966,-0.03467340813674099,-0.3216438312110533,-0.11485061738059706,0.0,0.0,0.0,-0.6681534133021416,0.8554481759581299,0.0,-86.1083129240992,128.0643818095255
1.0,64.0,-0.14930734038352966,0.6919980645179749,1.9177570343017578,0.17184783518314362,-1.982113242149353,1.7563444375991821,-2.0,-2.0,-2.0,-2.0,-2.0,-2.0,2.0,2.0,2.0,2.0,2.0,2.0,-0.00373268350958824,0.008649975806474683,0.023971962928771975,0.0021480979397892966,-0.04955283105373383,0.02347715273499489,-0.05,-0.025,-0.025,-0.025,-0.05,0.0,0.05,0.025,0.025,0.025,0.05,0.025,-0.22741834020784982,-1.2621480691948874,0.8268164036730342,-1.4283580629122823,0.06013512652568572,0.0,-0.2278721324198297,-1.2610985143541849,0.8297299709746602,-1.4281005516005336,0.0541106311015183,0.02347715273499489,-0.012102060916301144,0.028141933500683752,0.07769512804335932,0.006852773897306541,-0.16065120075225434,0.0,1.7430342082903259e-09,1.373208121407187e-07,-5.617345111316363e-07,9.752758940501832e-08,9.940139654261926e-10,0.0,-3.2,-3.2,-3.2,-3.2,-3.2,-3.2,3.2,3.2,3.2,3.2,3.2,3.2,-0.20569370542924564,-12.849927862895191,0.20569370542924564,1.628350690068,0.14,0.0,0.26,-0.024295292082339333,0.005622460395414641,0.3836339168347185,-0.7853981633974483,0.0,-1.5707963267948966,-0.018121832389176865,-0.2923483431289673,-0.16461516919493602,0.0,0.0,0.0,1.3370532375057564,1.4441924681517926,0.0,481.2495961938955,141.29863012647903
1.0,65.0,-1.6678714752197266,0.04161008074879646,-0.7666913270950317,0.9234066605567932,1.5338860750198364,-1.2737348079681396,-2.0,-2.0,-2.0,-2.0,-2.0,-2.0,2.0,2.0,2.0,2.0,2.0,2.0,-0.041696786880493164,0.0005201260093599565,-0.009583641588687897,0.011542583256959914,0.03834715187549591,0.004539157450199127,-0.05,-0.025,-0.025,-0.025,-0.05,0.0,0.05,0.025,0.025,0.025,0.05,0.025,-0.2640457847368342,-1.2616897923970327,0.8183981844846573,-1.4182177351779903,0.09381972482469648,0.0,-0.26911512708834295,-1.2616279431855275,0.8172327620843464,-1.4168154796553223,0.09848227840118162,0.004539157450199127,-0.13518410478087445,0.00180001454842596,-0.031077930674956455,0.03738026300856297,0.12433820582547056,0.0,8.833288777019632e-09,1.9916962831531482e-07,-5.051352180179301e-07,1.1613777100547788e-07,2.2952695328045685e-11,0.0,-3.2,-3.2,-3.2,-3.2,-3.2,-3.2,3.2,3.2,3.2,3.2,3.2,3.2,-0.2063923537988686,-13.05632021669406,0.2063923537988686,1.621857758070517,0.14,0.0,0.26,-0.024267032750374173,0.006560794389527965,0.38478422029649095,-0.7853981633974483,0.0,-1.5707963267948966,-0.028021375589046223,-0.28939748649111846,-0.1661426030910176,0.0,0.0,0.0,-0.16767560870951215,0.35633876876170634,0.0,-361.13492309166446,-261.08488785362067
1.0,66.0,-0.4257493317127228,-0.4106113612651825,-1.904054045677185,1.4760639667510986,-1.6764686107635498,-1.2078391313552856,-2.0,-2.0,-2.0,-2.0,-2.0,-2.0,2.0,2.0,2.0,2.0,2.0,2.0,-0.01064373329281807,-0.00513264201581478,-0.023800675570964814,0.018450799584388736,-0.041911715269088747,0.004951005429029465,-0.05,-0.025,-0.025,-0.025,-0.05,0.0,0.05,0.025,0.025,0.025,0.05,0.025,-0.27339545603002485,-1.266202184465214,0.7974911138258554,-1.402009785855574,0.057003434147573764,0.0,-0.2746895180296523,-1.2668224344128476,0.7945975089136925,-1.3997669355936015,0.05190800955560774,0.004951005429029465,-0.03450722736360532,-0.01668599542785268,-0.07716279765767542,0.059821817208904546,-0.1358802773688448,0.0,2.966998135581682e-09,2.429158627856533e-07,-4.6794332708308455e-07,1.2911365621697664e-07,7.054887230019771e-10,0.0,-3.2,-3.2,-3.2,-3.2,-3.2,-3.2,3.2,3.2,3.2,3.2,3.2,3.2,-0.2101212376870109,-13.26644145438107,0.2101212376870109,1.5876894980105474,0.14,0.0,0.26,-0.027093212003670354,0.007597400469835593,0.3871733955492215,-0.7853981633974483,0.0,-1.5707963267948966,-0.017617146675848606,-0.29942226177546,-0.21373458847633395,0.0,0.0,0.0,-0.8949321331541515,0.922362176264477,0.0,-174.54156586671346,135.84561780066497
1.0,67.0,-1.6171067953109741,-1.9229966402053833,-1.584416389465332,-0.7103443145751953,1.4014405012130737,1.723357915878296,-2.0,-2.0,-2.0,-2.0,-2.0,-2.0,2.0,2.0,2.0,2.0,2.0,2.0,-0.04042766988277435,-0.02403745800256729,-0.01980520486831665,-0.008879303932189941,0.03503601253032684,0.02327098697423935,-0.05,-0.025,-0.025,-0.025,-0.05,0.0,0.05,0.025,0.025,0.025,0.05,0.025,-0.3089082110629003,-1.287317248335777,0.7800893467989718,-1.40982707981177,0.08777988548427022,0.0,-0.3138231259127992,-1.2902396424677813,0.7776859089575388,-1.410889089787764,0.09203944667790061,0.02327098697423935,-0.13106821176512073,-0.07793049994640527,-0.06421430717640697,-0.028810695333621877,0.1135882984968104,0.0,9.542743782196904e-09,3.5515876081844983e-07,-4.0186838547999954e-07,1.7322698544745036e-07,5.707819161009133e-11,0.0,-3.2,-3.2,-3.2,-3.2,-3.2,-3.2,3.2,3.2,3.2,3.2,3.2,3.2,-0.2176114086447491,-13.48405286302582,0.2176114086447491,1.5885900040759902,0.14,0.0,0.26,-0.03579870948506371,0.011424231245570618,0.38774594262122725,-0.7853981633974483,0.0,-1.5707963267948966,-0.0316192927423621,-0.34486987832985705,-0.2156209203530416,0.0,0.0,0.0,-1.7976410298571643,2.2864094793489858,0.0,-216.65013520872307,327.37135274028213
1.0,68.0,-1.0946916341781616,-0.9657340049743652,-1.3759177923202515,-0.27439457178115845,0.34675800800323486,-0.4298814535140991,-2.0,-2.0,-2.0,-2.0,-2.0,-2.0,2.0,2.0,2.0,2.0,2.0,2.0,-0.02736729085445404,-0.012071675062179566,-0.017198972404003143,-0.003429932147264482,0.00866895020008087,0.009813240915536882,-0.05,-0.025,-0.025,-0.025,-0.05,0.0,0.05,0.025,0.025,0.025,0.05,0.025,-0.33294844641854787,-1.297921289033192,0.7649770618562954,-1.412856575079012,0.09539489372021301,0.0,-0.33627550191735434,-1.2993889233979568,0.7628903743949687,-1.4132570119590344,0.09644883568435109,0.009813240915536882,-0.0887259475060823,-0.039136903157818814,-0.05575892519273257,-0.011116041449692193,0.028105119043682184,0.0,7.1467998759170825e-09,3.396865894322841e-07,-4.0622663346209186e-07,1.698183333659487e-07,2.6813696742922813e-10,0.0,-3.2,-3.2,-3.2,-3.2,-3.2,-3.2,3.2,3.2,3.2,3.2,3.2,3.2,-0.2223933231214232,-13.706446186147243,0.2223933231214232,1.5795989651195284,0.14,0.0,0.26,-0.04099541099187329,0.014177138606016639,0.38844633163239195,-0.7853981633974483,0.0,-1.5707963267948966,-0.03747597745323149,-0.3732154013068269,-0.2304771265271045,0.0,0.0,0.0,-1.1476594744017876,1.4213745511211398,0.0,155.99557330929042,-207.60838277468304
1.0,69.0,0.839560866355896,1.335717797279358,-0.4486818015575409,-0.1184399425983429,-0.6255639791488647,1.431146264076233,-2.0,-2.0,-2.0,-2.0,-2.0,-2.0,2.0,2.0,2.0,2.0,2.0,2.0,0.020989021658897405,0.016696472465991978,-0.0056085225194692605,-0.0014804992824792862,-0.01563909947872162,0.021444664150476456,-0.05,-0.025,-0.025,-0.025,-0.05,0.0,0.05,0.025,0.025,0.025,0.05,0.025,-0.3145112420496011,-1.2832544268288661,0.76004948009063,-1.4141606878263,0.08165646088919347,0.0,-0.31195942475965044,-1.2812248165672,0.7593685393368261,-1.4143370743614914,0.07975579424149139,0.021444664150476456,0.06805036827466333,0.05397459797055337,-0.018158420101437756,-0.004685283055871126,-0.05068842566154866,0.0,-5.26061690104649e-09,2.2768138899707098e-07,-4.736734597993647e-07,1.3384671728573545e-07,-7.475699951152175e-11,0.0,-3.2,-3.2,-3.2,-3.2,-3.2,-3.2,3.2,3.2,3.2,3.2,3.2,3.2,-0.22085911501353442,-13.927305301160777,0.22085911501353442,1.583568291154115,0.14,0.0,0.26,-0.0385364352726779,0.012536244467333103,0.3894076216431697,-0.7853981633974483,0.0,-1.5707963267948966,-0.03130462139352669,-0.3652903805428198,-0.22707224777434654,0.0,0.0,0.0,0.3682099458933097,0.7460554952914049,0.0,363.80866087082336,-162.07657339913635
1.0,70.0,0.764753520488739,-1.5671117305755615,0.531171441078186,-0.19191108644008636,-0.5149280428886414,1.7006875276565552,-2.0,-2.0,-2.0,-2.0,-2.0,-2.0,2.0,2.0,2.0,2.0,2.0,2.0,0.019118838012218475,-0.01958889663219452,0.006639643013477324,-0.0023988885805010796,-0.012873201072216033,0.02312929704785347,-0.05,-0.025,-0.025,-0.025,-0.05,0.0,0.05,0.025,0.025,0.025,0.05,0.025,-0.2977168939783281,-1.3004617707901658,0.7658787397030814,-1.4162799835592472,0.07034834053720922,0.0,-0.29539240403738265,-1.3028433234610606,0.7666891231041073,-1.416559576406801,0.06878325981697744,0.02312929704785347,0.06198374182823109,-0.0635080663765748,0.0215126754135454,-0.007828011236921228,-0.04173548587284725,0.0,-4.9944793748995035e-09,3.2746849436110835e-07,-4.274139997629234e-07,1.669157073504665e-07,-1.0579214410887135e-10,0.0,-3.2,-3.2,-3.2,-3.2,-3.2,-3.2,3.2,3.2,3.2,3.2,3.2,3.2,-0.22319769358957134,-14.150502994750347,0.22319769358957134,1.5926520678518084,0.14,0.0,0.26,-0.04230309631416988,0.012980131338313921,0.38811833470823287,-0.7853981633974483,0.0,-1.5707963267948966,-0.028072910698970707,-0.37907877427493164,-0.2219826429408057,0.0,0.0,0.0,-0.5612588582488609,0.9614099173422936,0.0,-223.07251299412093,51.68506129221329
1.0,71.0,-1.7921572923660278,0.6418744325637817,1.2401562929153442,-1.3526675701141357,-1.8328338861465454,0.23096424341201782,-2.0,-2.0,-2.0,-2.0,-2.0,-2.0,2.0,2.0,2.0,2.0,2.0,2.0,-0.044803932309150696,0.008023430407047269,0.015501953661441803,-0.016908344626426697,-0.045820847153663635,0.013943526521325113,-0.05,-0.025,-0.025,-0.025,-0.05,0.0,0.05,0.025,0.025,0.025,0.05,0.025,-0.3370737351504235,-1.2934151660570934,0.7794951005580489,-1.4311359939381936,0.0300977896486111,0.0,-0.3425208262874788,-1.2924383403831186,0.7813806933645232,-1.4331883281856739,0.02452749338354558,0.013943526521325113,-0.14525492179065788,0.02588496642779864,0.05028247483931386,-0.0547080921296203,-0.14854297061805097,0.0,1.2704574922053536e-08,2.3955350993577343e-07,-4.837135986715888e-07,1.4100066075769418e-07,1.547548551058279e-09,0.0,-3.2,-3.2,-3.2,-3.2,-3.2,-3.2,3.2,3.2,3.2,3.2,3.2,3.2,-0.21991403910393825,-14.370417033854286,0.21991403910393825,1.5301184632945144,0.14,0.0,0.26,-0.039225542439994654,0.013746506836544378,0.38669421092493134,-0.7853981633974483,0.0,-1.5707963267948966,-0.011819229670417724,-0.3740818507944314,-0.30473909510482416,0.0,0.0,0.0,0.7880770765519407,0.8343857342064709,0.0,323.8406243521924,-30.48580395259746
1.0,72.0,0.7796093821525574,-1.323912262916565,-1.0819557905197144,-1.175955891609192,-0.658337414264679,-0.042448028922080994,-2.0,-2.0,-2.0,-2.0,-2.0,-2.0,2.0,2.0,2.0,2.0,2.0,2.0,0.019490234553813934,-0.016548903286457063,-0.01352444738149643,-0.0146994486451149,-0.016458435356616972,0.012234699819236994,-0.05,-0.025,-0.025,-0.025,-0.05,0.0,0.05,0.025,0.025,0.025,0.05,0.025,-0.3199530917782701,-1.3079521090343251,0.7676097049562685,-1.4440670448770327,0.01564031580244676,0.0,-0.31758350059660956,-1.3099640693435504,0.7659706531765526,-1.4458354425833084,0.013639354291994126,0.012234699819236994,0.06318804548444898,-0.05365227442942544,-0.04386374136761606,-0.047719684978486415,-0.053358973612070204,0.0,-5.243089290064241e-09,3.782852573463573e-07,-3.8325266251302527e-07,1.9086693744482708e-07,-2.2978844589211167e-11,0.0,-3.2,-3.2,-3.2,-3.2,-3.2,-3.2,3.2,3.2,3.2,3.2,3.2,3.2,-0.22570951401192596,-14.596126547866213,0.22570951401192596,1.5442720282589326,0.14,0.0,0.26,-0.04636117504984719,0.015361188717031335,0.3864054232647467,-0.7853981633974483,0.0,-1.5707963267948966,-0.006864672969719042,-0.41355943802337314,-0.30287271207389693,0.0,0.0,0.0,-1.3909139779170498,1.7572171411424353,0.0,-522.9578530725578,221.47953766463147
1.0,73.0,0.8838659524917603,-0.6453080177307129,0.31440111994743347,1.9156256914138794,1.667802333831787,-1.5811049938201904,-2.0,-2.0,-2.0,-2.0,-2.0,-2.0,2.0,2.0,2.0,2.0,2.0,2.0,0.022096648812294006,-0.008066350221633913,0.003930013999342917,0.023945321142673497,0.04169505834579468,0.00261809378862381,-0.05,-0.025,-0.025,-0.025,-0.05,0.0,0.05,0.025,0.025,0.025,0.05,0.025,-0.3005428372689767,-1.3150431664559956,0.7710612057683179,-1.4230347991540393,0.052266132505014454,0.0,-0.2978564429659761,-1.316018459255959,0.7715397189556114,-1.4201217237343593,0.05733537414824144,0.00261809378862381,0.07163892955413198,-0.026181788588519078,0.012760351661157188,0.07770384305524378,0.13517621245571398,0.0,-6.759520856785551e-09,2.921704474091177e-07,-4.438984857393567e-07,1.5315560255557006e-07,-8.38610912608303e-10,0.0,-3.2,-3.2,-3.2,-3.2,-3.2,-3.2,3.2,3.2,3.2,3.2,3.2,3.2,-0.22529388417176266,-14.821420432037975,0.22529388417176266,1.581203546504264,0.14,0.0,0.26,-0.04571954559436307,0.01416991044461992,0.38674698523994305,-0.7853981633974483,0.0,-1.5707963267948966,-0.021851849268112254,-0.39564922446896916,-0.24389641616325042,0.0,0.0,0.0,0.09975116163919218,0.33492658797084196,0.0,357.7596334934981,-341.3497327611824
1.0,74.0,1.733770489692688,-1.3286734819412231,-1.5360288619995117,-0.6716737151145935,1.9310380220413208,0.908530056476593,-2.0,-2.0,-2.0,-2.0,-2.0,-2.0,2.0,2.0,2.0,2.0,2.0,2.0,0.0433442622423172,-0.01660841852426529,-0.0192003607749939,-0.008395921438932419,0.04827595055103302,0.018178312852978707,-0.05,-0.025,-0.025,-0.025,-0.05,0.0,0.05,0.025,0.025,0.025,0.05,0.025,-0.2624685047972689,-1.3296323883302852,0.7541887547568195,-1.430433086739098,0.09467285449087312,0.0,-0.2571985750266595,-1.3316515849802608,0.7518608449933241,-1.4314307205929717,0.10054208305604748,0.018178312852978707,0.14052336234571564,-0.05384522415008228,-0.06226708857361768,-0.02728878011942032,0.1565127617379828,0.0,-1.3994239327550939e-08,4.1361095804602093e-07,-3.563859885119707e-07,1.992562440920922e-07,-1.436417935306055e-09,0.0,-3.2,-3.2,-3.2,-3.2,-3.2,-3.2,3.2,3.2,3.2,3.2,3.2,3.2,-0.23193088982894713,-15.053351321866922,0.23193088982894713,1.6531495337003863,0.14,0.0,0.26,-0.05359895413797178,0.014400242263664199,0.3869015982416238,-0.7853981633974483,0.0,-1.5707963267948966,-0.043908524213393606,-0.43300003352300037,-0.15813661308972204,0.0,0.0,0.0,-1.592881357724274,1.8922297235897698,0.0,-406.23180464723185,373.7527525485427
1.0,75.0,-0.041647978127002716,1.3845707178115845,0.1393476277589798,-0.11528928577899933,-0.25433140993118286,-0.07335933297872543,-2.0,-2.0,-2.0,-2.0,-2.0,-2.0,2.0,2.0,2.0,2.0,2.0,2.0,-0.0010411994531750665,0.017307133972644807,0.0017418453469872468,-0.001441116072237493,-0.006358285248279569,0.012041504168882966,-0.05,-0.025,-0.025,-0.025,-0.05,0.0,0.05,0.025,0.025,0.025,0.05,0.025,-0.2633831548942932,-1.314430998151775,0.7557173551833543,-1.4317041061427782,0.08908723447273004,0.0,-0.26350970425044395,-1.3123252543576405,0.7559306001038067,-1.4318742028113354,0.08831456924259355,0.012041504168882966,-0.0033716576574962668,0.05598281756816681,0.005686531212067025,-0.004511437296063209,-0.020610473383358065,0.0,4.0175546450925047e-10,2.626976460373892e-07,-4.525675569928943e-07,1.4963377999107942e-07,1.1748207305088972e-10,0.0,-3.2,-3.2,-3.2,-3.2,-3.2,-3.2,3.2,3.2,3.2,3.2,3.2,3.2,-0.22889663007550587,-15.282247951942427,0.22889663007550587,1.6445334029728296,0.14,0.0,0.26,-0.04959848562432048,0.013374102244689781,0.38754299235173956,-0.7853981633974483,0.0,-1.5707963267948966,-0.03967009459024256,-0.4178529717209589,-0.16588399682180036,0.0,0.0,0.0,0.7282223408259036,1.0030764920646138,0.0,557.0648876520427,-213.39677556603743
1.0,76.0,-1.2114087343215942,-1.1509028673171997,0.8015806674957275,0.7657816410064697,0.9338899850845337,-0.4876991808414459,-2.0,-2.0,-2.0,-2.0,-2.0,-2.0,2.0,2.0,2.0,2.0,2.0,2.0,-0.030285218358039857,-0.014386285841464997,0.010019758343696596,0.009572270512580874,0.023347249627113348,0.009451880119740963,-0.05,-0.025,-0.025,-0.025,-0.05,0.0,0.05,0.025,0.025,0.025,0.05,0.025,-0.28998655673325097,-1.3270682469905826,0.7645157330223479,-1.4233076126211237,0.10959600359628802,0.0,-0.2936683732523331,-1.32881728399324,0.7657371135270509,-1.4221318356301973,0.11243448409984338,0.009451880119740963,-0.09818694731686314,-0.04664097017963689,0.03246779940563549,0.03096998265436267,0.07569281342814305,0.0,8.709204576323149e-09,3.3343706749049153e-07,-4.2243924106365597e-07,1.6892038553128368e-07,6.485734429322666e-11,0.0,-3.2,-3.2,-3.2,-3.2,-3.2,-3.2,3.2,3.2,3.2,3.2,3.2,3.2,-0.228849062922888,-15.511097014865316,0.228849062922888,1.63553056076302,0.14,0.0,0.26,-0.05003755728746001,0.014931114336752746,0.38662812580766615,-0.7853981633974483,0.0,-1.5707963267948966,-0.048161218659662865,-0.4124215072291202,-0.1703141230956298,0.0,0.0,0.0,0.011416116628286677,0.4460418804588112,0.0,-172.03349380742807,-133.68830678539263
1.0,77.0,-1.7755249738693237,0.7955803275108337,-1.6287546157836914,0.19160205125808716,-1.2711515426635742,-1.9306437969207764,-2.0,-2.0,-2.0,-2.0,-2.0,-2.0,2.0,2.0,2.0,2.0,2.0,2.0,-0.044388124346733095,0.00994475409388542,-0.020359432697296145,0.002395025640726089,-0.03177878856658936,0.00043347626924514774,-0.05,-0.025,-0.025,-0.025,-0.05,0.0,0.05,0.025,0.025,0.025,0.05,0.025,-0.328978261673867,-1.3183325424608734,0.7466280554298211,-1.4212164434434473,0.08168077383056563,0.0,-0.3343746810799841,-1.317123492896697,0.7441563003250518,-1.4209125869803976,0.07781721502969866,0.00043347626924514774,-0.14390845180258116,0.03224133147916036,-0.06601692572521012,0.007727971964542293,-0.10302823468978582,0.0,1.3597465142837257e-08,3.2057814083283446e-07,-4.0592847534581863e-07,1.6632322864824554e-07,9.522189702093855e-10,0.0,-3.2,-3.2,-3.2,-3.2,-3.2,-3.2,3.2,3.2,3.2,3.2,3.2,3.2,-0.23009226538000485,-15.74118928024532,0.23009226538000485,1.5842961363354418,0.14,0.0,0.26,-0.05010236517243885,0.01710412852172574,0.3884950976927119,-0.7853981633974483,0.0,-1.5707963267948966,-0.03662757016479896,-0.42062772022847333,-0.23947774460172674,0.0,0.0,0.0,-0.29836858970804236,0.687748663702804,0.0,-74.34832952071898,58.00962797855826
1.0,78.0,1.0086134672164917,0.26366567611694336,-0.042182546108961105,1.907145380973816,0.10753265023231506,-0.14228715002536774,-2.0,-2.0,-2.0,-2.0,-2.0,-2.0,2.0,2.0,2.0,2.0,2.0,2.0,0.0252153366804123,0.0032958209514617927,-0.0005272818263620145,0.0238393172621727,0.002688316255807878,0.011610705312341452,-0.05,-0.025,-0.025,-0.025,-0.05,0.0,0.05,0.025,0.025,0.025,0.05,0.025,-0.3068285160743028,-1.3154402260781222,0.7461637945762256,-1.4002790233250635,0.08404215888257724,0.0,-0.3037629249934547,-1.3150367215094116,0.7461007736034592,-1.3973771261812746,0.0843690900863735,0.011610705312341452,0.08175181409660888,0.010595216073635672,-0.0016805592737716424,0.07740366959455558,0.008712585110742917,0.0,-7.380797230246288e-09,2.77879647157385e-07,-4.4446566330595883e-07,1.4578229040266418e-07,-3.707254969237693e-10,0.0,-3.2,-3.2,-3.2,-3.2,-3.2,-3.2,3.2,3.2,3.2,3.2,3.2,3.2,-0.2286368150521439,-15.969826095297465,0.2286368150521439,1.5989877931977299,0.14,0.0,0.26,-0.04772569589849358,0.015121129498804349,0.3896349017020299,-0.7853981633974483,0.0,-1.5707963267948966,-0.03535318738590223,-0.3972725193500325,-0.21566937992812313,0.0,0.0,0.0,0.34930807868662983,0.7916361033930533,0.0,155.44240041472133,24.932985525659852
